(Turret No. :   0   Diameter :6.350     MM   BALLNOSE  )
( WARNING - New Code Generator F999ile)
( Check that all machine parameters have been correctly set, including)
( 3D Rapid, Resolved Rapid, Absolute/Incremental, Arc Centres)
()
( These comments may be removed when Code Generator F999ile is F999inished)
()
(*********************************************************************)
( Machine Tool   : Generic ISO G-code Mill)
( Part Name      : chips)
( Sequence       : )
( Programmed By  : LERNEAEN HYDRA)
( Date           : 06/16/06)
( Time           : 22:14:27)
()
( Total Machining Time including Toolchange : 7.359      Minutes)
(*********************************************************************)
(CHIPS, ONLY F999INISH)
 G21 G64 P0.1 Q0.01
( G-1 P1 Z0.0 R3.175 T00)
( G10 L2 P1 X0.0 Y0.0 Z0.0 Top)
 (MSG, INSERT BALLNOSE  ,1/4" ballnose)
 (M0)
 S6000 M4
 G0 X0.779 Y-1.317
  Z5.0 G43  H00 M8
 Z-11.97 F9991300.0
 G18 G2 X5.779 Z-16.97 I5.0 K0.0
 G1 X5.905 Z-16.868
 X6.032 Z-16.778
 X6.853 Z-16.246
 X6.916 Z-16.195
 X7.864 Z-15.357
 X7.927 Z-15.286
 X10.328 Z-12.425
 X10.454 Z-12.243
 X11.591 Z-10.55
 X11.844 Z-10.22
 X12.855 Z-9.016
 X12.994 Z-8.867
 X13.147 Z-8.733
 X13.313 Z-8.614
 X13.488 Z-8.511
 X13.673 Z-8.425
 X13.866 Z-8.358
 X14.876 Z-8.096
 X15.074 Z-8.044
 X15.276 Z-8.009
 X15.479 Z-7.99
 X15.683 Z-7.988
 X15.887 Z-8.002
 X17.404 Z-8.158
 X17.634 Z-8.192
 X17.862 Z-8.242
 X18.086 Z-8.307
 X18.305 Z-8.389
 X18.518 Z-8.485
 X18.723 Z-8.596
 X18.92 Z-8.721
 X21.005 Z-9.988
 X21.684 Z-10.209
 X22.995 Z-10.346
 X24.227 Z-10.064
 X24.29 Z-10.041
 X25.49 Z-9.553
 X25.743 Z-9.463
 X25.996 Z-9.394
 X27.006 Z-9.13
 X27.512 Z-9.0
 X27.765 Z-8.956
 X28.017 Z-8.934
 X29.028 Z-8.868
 X29.534 Z-8.847
 X29.786 Z-8.867
 X30.039 Z-8.915
 X30.544 Z-9.081
 X31.302 Z-9.349
 X31.468 Z-9.417
 X31.627 Z-9.497
 X31.78 Z-9.59
 X31.925 Z-9.695
 X32.061 Z-9.811
 X32.566 Z-10.237
 X32.715 Z-10.386
 X32.849 Z-10.547 F999800.0
 X32.968 Z-10.72
 X33.071 Z-10.904
 G2 X38.071 Z-5.904 I0.0 K5.0 F9991300.0
 G0 Z5.0
 X67.365
 Z-12.009
 G3 X62.365 Z-17.009 I-5.0 K0.0
 G1 X62.237 Z-16.907
 X62.11 Z-16.817
 X61.343 Z-16.32
 X61.279 Z-16.276
 X60.32 Z-15.428
 X60.256 Z-15.36
 X57.89 Z-12.541
 X57.763 Z-12.363
 X56.74 Z-10.84
 X56.484 Z-10.472
 X55.461 Z-9.252
 X55.338 Z-9.102
 X55.202 Z-8.965
 X55.054 Z-8.84
 X54.895 Z-8.728
 X54.728 Z-8.631
 X54.552 Z-8.55
 X54.37 Z-8.484
 X54.183 Z-8.434
 X53.16 Z-8.171
 X52.97 Z-8.136
 X52.778 Z-8.116
 X52.585 Z-8.111
 X52.393 Z-8.122
 X51.114 Z-8.254
 X50.876 Z-8.272
 X50.64 Z-8.306
 X50.407 Z-8.357
 X50.178 Z-8.424
 X49.954 Z-8.507
 X49.737 Z-8.605
 X49.526 Z-8.718
 X49.324 Z-8.845
 X47.271 Z-10.094
 X46.615 Z-10.31
 X45.313 Z-10.448
 X44.082 Z-10.168
 X42.932 Z-9.702
 X42.676 Z-9.603
 X42.42 Z-9.528
 X40.886 Z-9.128
 X40.63 Z-9.078
 X40.375 Z-9.053
 X39.352 Z-8.986
 X38.84 Z-8.964
 X38.669 Z-8.974
 X38.498 Z-8.996
 X38.329 Z-9.03
 X37.818 Z-9.197
 X37.05 Z-9.468
 X36.883 Z-9.539
 X36.721 Z-9.622
 X36.567 Z-9.718
 X36.421 Z-9.827
 X36.283 Z-9.946
 X36.028 Z-10.161
 X35.869 Z-10.288
 X35.721 Z-10.429
 X35.586 Z-10.581 F999800.0
 X35.463 Z-10.744
 X35.354 Z-10.916
 X35.261 Z-11.097
 G0 Z5.0 F9991300.0
 X-0.638 Y0.269
 Z-11.19
 G2 X4.362 Z-16.19 I5.0 K0.0
 G1 X4.866 Z-15.851
 X5.371 Z-15.525
 X5.497 Z-15.429
 X6.506 Z-14.538
 X6.569 Z-14.472
 X9.154 Z-11.392
 X9.217 Z-11.308
 X10.415 Z-9.524
 X10.667 Z-9.162
 X10.919 Z-8.859
 X12.416 Z-7.078
 X13.945 Z-6.683
 X14.194 Z-6.61
 X14.446 Z-6.552
 X14.702 Z-6.509
 X14.891 Z-6.493
 X15.08 Z-6.489
 X15.27 Z-6.497
 X15.458 Z-6.518
 X16.971 Z-6.674
 X17.182 Z-6.701
 X17.389 Z-6.745
 X17.592 Z-6.805
 X17.789 Z-6.882
 X17.98 Z-6.974
 X18.485 Z-7.274
 X20.723 Z-8.634
 X21.574 Z-8.913
 X23.063 Z-9.068
 X24.474 Z-8.745
 X24.537 Z-8.726
 X25.546 Z-8.316
 X26.05 Z-8.113
 X26.555 Z-7.971
 X27.563 Z-7.707
 X27.812 Z-7.634
 X28.064 Z-7.576
 X28.32 Z-7.535
 X28.572 Z-7.515
 X29.581 Z-7.45
 X29.832 Z-7.426
 X30.085 Z-7.421
 X30.337 Z-7.434
 X30.531 Z-7.46
 X30.722 Z-7.5
 X30.91 Z-7.553
 X31.094 Z-7.619
 X32.103 Z-7.975
 X32.324 Z-8.07
 X32.537 Z-8.182
 X32.74 Z-8.311
 X32.932 Z-8.457
 X33.111 Z-8.617
 X33.616 Z-9.05
 X33.755 Z-9.2 F999800.0
 X33.883 Z-9.359
 X34.0 Z-9.526
 X34.106 Z-9.701
 X34.199 Z-9.883
 X34.295 Z-9.698 F9991300.0
 X34.404 Z-9.52
 X34.526 Z-9.352
 X34.661 Z-9.192
 X34.806 Z-9.043
 X34.963 Z-8.906
 X35.129 Z-8.78
 X35.633 Z-8.368
 X35.794 Z-8.264
 X35.963 Z-8.171
 X36.138 Z-8.092
 X36.642 Z-7.911
 X37.399 Z-7.644
 X37.584 Z-7.59
 X37.772 Z-7.55
 X37.963 Z-7.524
 X38.155 Z-7.513
 X38.66 Z-7.537
 X39.921 Z-7.62
 X40.176 Z-7.659
 X40.429 Z-7.715
 X40.677 Z-7.787
 X41.686 Z-8.05
 X42.19 Z-8.19
 X42.695 Z-8.39
 X43.703 Z-8.8
 X43.829 Z-8.84
 X45.232 Z-9.159
 X46.745 Z-9.001
 X47.573 Z-8.728
 X49.756 Z-7.4
 X50.26 Z-7.1
 X50.45 Z-7.002
 X50.647 Z-6.92
 X50.85 Z-6.853
 X51.058 Z-6.804
 X51.269 Z-6.771
 X53.034 Z-6.589
 X53.224 Z-6.579
 X53.414 Z-6.583
 X53.604 Z-6.602
 X53.791 Z-6.635
 X54.295 Z-6.762
 X55.052 Z-6.957
 X55.871 Z-7.209
 X56.817 Z-8.334 F999800.0
 X57.322 Z-8.936
 X57.574 Z-9.24
 X57.826 Z-9.606
 X59.024 Z-11.39
 X59.087 Z-11.468
 X61.672 Z-14.549
 X61.735 Z-14.611 F9991300.0
 X62.744 Z-15.502
 X62.87 Z-15.597
 X63.374 Z-15.924
 X63.878 Z-16.262
 G2 X68.878 Z-11.262 I0.0 K5.0
 G1 Z-10.902
 X69.418 Y1.857
 G3 X64.418 Z-15.902 I-5.0 K0.0
 G1 X64.258 Z-15.768
 X64.089 Z-15.644
 X63.914 Z-15.53
 X63.22 Z-15.082
 X63.157 Z-15.036
 X62.147 Z-14.144
 X59.561 Z-11.063
 X59.497 Z-10.978
 X58.362 Z-9.287
 X58.11 Z-8.916
 X57.857 Z-8.604
 X56.848 Z-7.402
 X56.148 Z-6.615
 X55.055 Z-6.307
 X54.829 Z-6.256
 X54.324 Z-6.126
 X53.82 Z-6.005
 X53.569 Z-5.971
 X53.316 Z-5.956
 X53.062 Z-5.961
 X52.81 Z-5.985
 X51.296 Z-6.141
 X51.066 Z-6.169
 X50.839 Z-6.213
 X50.616 Z-6.273
 X50.397 Z-6.349
 X50.185 Z-6.441
 X49.979 Z-6.548
 X49.782 Z-6.669
 X47.361 Z-8.141
 X46.62 Z-8.386
 X45.271 Z-8.529
 X43.978 Z-8.235
 X43.915 Z-8.215
 X42.716 Z-7.728
 X42.551 Z-7.659
 X42.383 Z-7.598
 X42.212 Z-7.544
 X40.445 Z-7.082
 X40.279 Z-7.044
 X40.11 Z-7.016
 X39.941 Z-6.996
 X38.679 Z-6.913
 X38.174 Z-6.889
 X37.969 Z-6.898
 X37.764 Z-6.92
 X37.561 Z-6.956
 X37.361 Z-7.004
 X37.165 Z-7.066
 X36.155 Z-7.422
 X35.939 Z-7.499
 X35.73 Z-7.592
 X35.527 Z-7.699
 X35.332 Z-7.82
 X35.146 Z-7.954
 X34.641 Z-8.376
 X34.471 Z-8.517
 X34.308 Z-8.667
 X34.152 Z-8.826 F999800.0
 X34.011 Z-8.676 F9991300.0
 X33.884 Z-8.558
 X33.38 Z-8.133
 X33.194 Z-7.974
 X32.996 Z-7.829
 X32.789 Z-7.699
 X32.573 Z-7.584
 X32.349 Z-7.486
 X32.118 Z-7.404
 X31.109 Z-7.048
 X30.902 Z-6.985
 X30.691 Z-6.937
 X30.478 Z-6.903
 X30.257 Z-6.884
 X30.036 Z-6.877
 X29.815 Z-6.884
 X29.594 Z-6.904
 X28.585 Z-6.97
 X28.329 Z-6.988
 X28.075 Z-7.023
 X27.823 Z-7.074
 X27.576 Z-7.143
 X26.062 Z-7.539
 X25.935 Z-7.578
 X25.809 Z-7.623
 X24.35 Z-8.215
 X23.033 Z-8.517
 X23.026 Z-8.518
 X21.685 Z-8.378
 X20.944 Z-8.135
 X18.491 Z-6.644
 X18.294 Z-6.525
 X18.088 Z-6.42
 X17.875 Z-6.33
 X17.657 Z-6.256
 X17.433 Z-6.197
 X17.207 Z-6.155
 X16.977 Z-6.129
 X15.463 Z-5.973
 X15.253 Z-5.952
 X15.043 Z-5.945
 X14.832 Z-5.951
 X14.608 Z-5.974
 X14.386 Z-6.01
 X14.166 Z-6.059
 X13.949 Z-6.121
 X13.444 Z-6.251
 X12.137 Z-6.599
 X11.426 Z-7.41 F999800.0
 X10.416 Z-8.613
 X10.164 Z-8.926
 X8.776 Z-10.989
 X8.713 Z-11.072
 X6.189 Z-14.079
 X6.126 Z-14.148
 X5.117 Z-15.04 F9991300.0
 X4.36 Z-15.531
 X4.184 Z-15.646
 X4.016 Z-15.771
 X3.855 Z-15.907
 G3 X-1.145 Z-10.907 I0.0 K5.0
 G1 X-1.731 Y3.444
 Z-12.035 F999800.0
 G2 X3.269 Z-17.035 I5.0 K0.0 F9991300.0
 G1 X3.776 Z-16.431
 X3.909 Z-16.277
 X4.053 Z-16.133
 X4.206 Z-15.998
 X4.367 Z-15.874
 X4.536 Z-15.76
 X5.296 Z-15.268
 X5.359 Z-15.224
 X6.372 Z-14.328
 X6.404 Z-14.294
 X8.969 Z-11.237
 X9.032 Z-11.148
 X10.362 Z-9.168
 X10.489 Z-9.0
 X10.869 Z-8.546
 X12.277 Z-6.868
 X13.909 Z-6.446
 X14.127 Z-6.382
 X14.347 Z-6.328
 X14.571 Z-6.286
 X14.796 Z-6.256
 X15.007 Z-6.243
 X15.218 Z-6.244
 X15.429 Z-6.26
 X17.202 Z-6.445
 X17.425 Z-6.484
 X17.645 Z-6.538
 X17.86 Z-6.608
 X18.07 Z-6.692
 X18.273 Z-6.791
 X18.469 Z-6.904
 X20.947 Z-8.41
 X21.683 Z-8.651
 X23.029 Z-8.79
 X24.296 Z-8.501
 X24.359 Z-8.482
 X25.816 Z-7.893
 X25.942 Z-7.849
 X26.069 Z-7.811
 X27.842 Z-7.348
 X28.01 Z-7.313
 X28.179 Z-7.287
 X28.349 Z-7.27
 X29.869 Z-7.171
 X30.084 Z-7.168
 X30.299 Z-7.181
 X30.513 Z-7.208
 X30.724 Z-7.25
 X30.932 Z-7.307
 X31.136 Z-7.378
 X32.149 Z-7.735
 X32.37 Z-7.825
 X32.582 Z-7.932
 X32.786 Z-8.056
 X32.98 Z-8.194
 X33.162 Z-8.348
 X33.669 Z-8.774
 X33.828 Z-8.923
 X33.976 Z-9.084 F999800.0
 X34.112 Z-9.255
 X34.12 Z-9.259 F9991300.0
 X34.245 Z-9.095
 X34.381 Z-8.94
 X34.527 Z-8.795
 X34.682 Z-8.66
 X34.926 Z-8.442
 X35.18 Z-8.235
 X35.442 Z-8.04
 X35.622 Z-7.926
 X35.809 Z-7.825
 X36.003 Z-7.737
 X36.202 Z-7.663
 X37.216 Z-7.306
 X37.412 Z-7.242
 X37.613 Z-7.192
 X37.817 Z-7.155
 X38.022 Z-7.133
 X38.229 Z-7.125
 X38.736 Z-7.149
 X40.002 Z-7.233
 X40.256 Z-7.269
 X40.762 Z-7.391
 X41.775 Z-7.656
 X42.033 Z-7.716
 X42.286 Z-7.79
 X42.535 Z-7.878
 X43.929 Z-8.444
 X43.992 Z-8.462
 X45.267 Z-8.753
 X46.628 Z-8.61
 X47.365 Z-8.366
 X49.882 Z-6.835
 X50.079 Z-6.725
 X50.282 Z-6.629
 X50.492 Z-6.548
 X50.707 Z-6.481
 X50.927 Z-6.43
 X51.149 Z-6.394
 X51.909 Z-6.315
 X52.922 Z-6.211
 X53.126 Z-6.197
 X53.33
 X53.533 Z-6.211
 X53.736 Z-6.238
 X53.935 Z-6.279
 X55.202 Z-6.606
 X56.115 Z-6.906
 X57.862 Z-8.992 F999800.0
 X57.989 Z-9.166
 X59.319 Z-11.146
 X59.382 Z-11.229
 X61.915 Z-14.248
 X61.979 Z-14.316
 X62.992 Z-15.212 F9991300.0
 X63.055 Z-15.254
 X63.815 Z-15.746
 X63.984 Z-15.86
 X64.146 Z-15.985
 X64.298 Z-16.121
 X64.442 Z-16.266 F999800.0
 X64.575 Z-16.42
 X65.082 Z-17.023
 G2 X70.082 Z-12.023 I0.0 K5.0 F9991300.0
 G1 X69.489 Y5.032
 Z-12.315 F999800.0
 G3 X64.489 Z-17.315 I-5.0 K0.0 F9991300.0
 G1 X63.983 Z-16.712
 X63.85 Z-16.551
 X63.707 Z-16.4
 X63.555 Z-16.258
 X63.393 Z-16.126
 X63.224 Z-16.004
 X62.402 Z-15.472
 X62.339 Z-15.42
 X61.453 Z-14.638
 X61.39 Z-14.58
 X58.924 Z-11.641
 X58.86 Z-11.554
 X57.659 Z-9.765
 X57.532 Z-9.582
 X57.406 Z-9.421
 X56.394 Z-8.216
 X55.708 Z-7.396
 X53.864 Z-6.917
 X53.666 Z-6.864
 X53.465 Z-6.824
 X53.262 Z-6.796
 X53.057 Z-6.78
 X52.852 Z-6.778
 X52.346 Z-6.821
 X51.335 Z-6.925
 X50.829 Z-6.982
 X50.618 Z-7.022
 X50.411 Z-7.076
 X50.208 Z-7.143
 X50.009 Z-7.224
 X49.817 Z-7.318
 X49.311 Z-7.62
 X47.256 Z-8.87
 X46.576 Z-9.095
 X45.303 Z-9.23
 X44.252 Z-8.991
 X44.062 Z-8.947
 X42.734 Z-8.408
 X42.568 Z-8.346
 X42.399 Z-8.293
 X42.228 Z-8.249
 X40.71 Z-7.853
 X40.584 Z-7.824
 X40.291 Z-7.775
 X39.995 Z-7.746
 X39.698 Z-7.736
 X38.686 Z-7.671
 X38.475 Z-7.67
 X38.264 Z-7.683
 X38.054 Z-7.71
 X37.827 Z-7.757
 X37.604 Z-7.817
 X37.384 Z-7.89
 X37.169 Z-7.975
 X36.663 Z-8.153
 X36.439 Z-8.23
 X36.221 Z-8.323
 X36.011 Z-8.432
 X35.809 Z-8.557
 X35.618 Z-8.696
 X35.437 Z-8.85
 X34.133 Z-8.752
 X33.88 Z-8.741
 X33.627 Z-8.758
 X32.75 Z-8.825
 X32.587 Z-8.692
 X32.415 Z-8.572
 X32.236 Z-8.463
 X32.049 Z-8.368
 X31.856 Z-8.286
 X31.098 Z-8.017
 X30.592 Z-7.841
 X30.394 Z-7.789
 X30.192 Z-7.75
 X29.989 Z-7.724
 X29.785 Z-7.712
 X29.58 Z-7.714
 X28.062 Z-7.813
 X27.892 Z-7.832
 X27.723 Z-7.861
 X27.556 Z-7.898
 X26.038 Z-8.294
 X25.785 Z-8.365
 X25.532 Z-8.457
 X24.268 Z-8.971
 X24.204 Z-8.991
 X22.995 Z-9.268
 X21.73 Z-9.136
 X21.034 Z-8.908
 X18.955 Z-7.645
 X18.449 Z-7.344
 X18.245 Z-7.246
 X18.034 Z-7.164
 X17.817 Z-7.097
 X17.598 Z-7.047
 X17.378 Z-7.009
 X17.155 Z-6.982
 X16.932 Z-6.966
 X15.667 Z-6.836
 X15.463 Z-6.824
 X15.259 Z-6.825
 X15.056 Z-6.84
 X14.854 Z-6.869
 X14.655 Z-6.912
 X13.896 Z-7.107
 X12.563 Z-7.461
 X11.872 Z-8.326 F999800.0
 X11.366 Z-8.929
 X10.86 Z-9.534
 X10.608 Z-9.893
 X9.469 Z-11.588
 X9.406 Z-11.675
 X7.066 Z-14.463
 X6.94 Z-14.613
 X6.813 Z-14.725 F9991300.0
 G3 X1.813 Z-9.725 I0.0 K5.0
 G0 Z5.0
 X7.222 Y6.619
 Z-4.628
 G2 X12.222 Z-9.628 I5.0 K0.0
 G1 X12.73 Z-9.023
 X12.855 Z-8.868
 X12.996 Z-8.726
 X13.149 Z-8.598
 X13.315 Z-8.486
 X13.491 Z-8.391
 X13.617 Z-8.336
 X13.744 Z-8.292
 X14.251 Z-8.158
 X15.012 Z-7.964
 X15.201 Z-7.934
 X15.392 Z-7.922
 X15.583 Z-7.927
 X15.773 Z-7.949
 X17.295 Z-8.106
 X17.455 Z-8.135
 X17.612 Z-8.176
 X17.765 Z-8.231
 X17.913 Z-8.298
 X18.055 Z-8.377
 X20.528 Z-9.881
 X20.592 Z-9.914
 X20.885 Z-10.01
 X20.893 Z-10.009
 X21.04 Z-9.917
 X21.193 Z-9.836
 X21.352 Z-9.767
 X24.903 Z-8.253
 X25.156 Z-8.157
 X25.41 Z-8.091
 X28.961 Z-7.261
 X29.468 Z-7.147
 X29.975 Z-7.099
 X33.526 Z-6.834
 X34.033 Z-6.802
 X34.54 Z-6.834
 X38.09 Z-7.099
 X38.598 Z-7.146
 X39.105 Z-7.259
 X42.655 Z-8.088
 X42.909 Z-8.152
 X43.163 Z-8.245
 X46.713 Z-9.758
 X46.967 Z-9.871
 X47.109 Z-9.948
 X47.664 Z-9.765
 X49.756 Z-8.492
 X50.264 Z-8.187
 X50.444 Z-8.1
 X50.633 Z-8.032
 X50.827 Z-7.981
 X51.024 Z-7.95
 X52.292 Z-7.819
 X52.8 Z-7.771
 X52.97
 X53.139 Z-7.785
 X53.307 Z-7.813
 X53.814 Z-7.942
 X54.575 Z-8.14
 X54.742 Z-8.198
 X54.903 Z-8.27
 X55.058 Z-8.355
 X55.205 Z-8.453
 X55.343 Z-8.563
 X55.472 Z-8.684
 X55.589 Z-8.816 F999800.0
 X55.843 Z-9.118
 G2 X60.843 Z-4.118 I0.0 K5.0 F9991300.0
 G0 Z5.0
 X62.937 Y8.207
 Z-16.452
 G3 X57.937 Z-21.452 I-5.0 K0.0
 G1 X57.431 Z-19.743
 X57.178 Z-18.894
 X57.115 Z-18.729
 X57.052 Z-18.594
 X55.913 Z-16.486
 X55.154 Z-15.078
 X55.048 Z-14.894
 X54.927 Z-14.718
 X54.794 Z-14.552
 X54.648 Z-14.397
 X53.382 Z-12.964
 X52.37 Z-11.814
 X52.214 Z-11.63
 X52.045 Z-11.458
 X51.864 Z-11.298
 X51.358 Z-10.943
 X50.346 Z-10.245
 X48.321 Z-8.858
 X48.159 Z-8.757
 X47.99 Z-8.668
 X47.815 Z-8.592
 X46.297 Z-7.951
 X44.272 Z-7.1
 X43.766 Z-6.894
 X43.64 Z-6.855
 X43.513 Z-6.822
 X39.211 Z-5.83
 X39.044 Z-5.797
 X38.875 Z-5.774
 X38.705 Z-5.762
 X34.656 Z-5.463
 X34.15 Z-5.432
 X33.644 Z-5.462
 X29.595 Z-5.761
 X29.425 Z-5.774
 X29.257 Z-5.796
 X29.089 Z-5.829
 X27.065 Z-6.297
 X24.787 Z-6.822
 X24.661 Z-6.856
 X24.534 Z-6.896
 X24.028 Z-7.103
 X20.485 Z-8.596
 X20.31 Z-8.674
 X20.141 Z-8.766
 X19.979 Z-8.87
 X19.473 Z-9.217
 X16.943 Z-10.958
 X16.437 Z-11.319
 X16.31 Z-11.432
 X16.184 Z-11.562 F999800.0
 X14.918 Z-13.002
 X13.653 Z-14.436
 X13.506 Z-14.6
 X13.372 Z-14.775
 X13.252 Z-14.96
 X13.147 Z-15.153
 X12.388 Z-16.565
 X11.376 Z-18.438
 X11.274 Z-18.632
 X11.189 Z-18.834
 X11.123 Z-19.042
 X10.363 Z-21.608
 G3 X5.363 Z-16.608 I0.0 K5.0 F9991300.0
 G1 Z-16.588
 X4.009 Y9.794
 G2 X9.009 Z-21.588 I5.0 K0.0
 G1 X9.955 Z-18.428
 X10.018 Z-18.266
 X10.271 Z-17.779
 X11.028 Z-16.389
 X12.037 Z-14.54
 X12.142 Z-14.346
 X12.262 Z-14.16
 X12.395 Z-13.984
 X12.542 Z-13.819
 X13.551 Z-12.682
 X15.065 Z-10.984
 X15.22 Z-10.803
 X15.389 Z-10.634
 X15.57 Z-10.479
 X16.074 Z-10.129
 X18.093 Z-8.757
 X19.355 Z-7.899
 X19.536 Z-7.794
 X19.723 Z-7.699
 X19.915 Z-7.615
 X20.112 Z-7.541
 X22.13 Z-6.701
 X23.644 Z-6.069
 X24.149 Z-5.871
 X24.654 Z-5.747
 X28.943 Z-4.768
 X29.194 Z-4.727
 X29.447 Z-4.701
 X29.7 Z-4.688
 X33.738 Z-4.394
 X34.242 Z-4.365
 X34.747 Z-4.395
 X38.784 Z-4.69
 X39.038 Z-4.7
 X39.291 Z-4.728
 X39.541 Z-4.771
 X41.812 Z-5.289
 X43.831 Z-5.75
 X44.336 Z-5.875
 X44.84 Z-6.074
 X47.364 Z-7.125
 X48.373 Z-7.545
 X48.878 Z-7.76
 X49.052 Z-7.855
 X49.22 Z-7.959
 X49.382 Z-8.072
 X50.896 Z-9.102
 X52.41 Z-10.13
 X52.915 Z-10.479
 X53.095 Z-10.633
 X53.264 Z-10.8
 X53.42 Z-10.979 F999800.0
 X55.943 Z-13.812
 X56.089 Z-13.975
 X56.222 Z-14.148
 X56.342 Z-14.331
 X56.448 Z-14.522
 X58.214 Z-17.758
 X58.466 Z-18.237
 X58.53 Z-18.392
 X58.593 Z-18.586
 X59.476 Z-21.541
 G2 X64.476 Z-16.541 I0.0 K5.0 F9991300.0
 G1 X65.702 Y11.382
 Z-16.585 F999800.0
 G3 X60.702 Z-21.585 I-5.0 K0.0 F9991300.0
 G1 X59.687 Z-18.217
 X59.618 Z-18.01
 X59.533 Z-17.809
 X59.433 Z-17.615
 X58.163 Z-15.308
 X57.401 Z-13.922
 X57.293 Z-13.738
 X57.172 Z-13.562
 X57.039 Z-13.395
 X56.893 Z-13.238
 X55.116 Z-11.261
 X54.1 Z-10.128
 X53.942 Z-9.971
 X53.773 Z-9.826
 X53.592 Z-9.695
 X52.576 Z-9.009
 X50.037 Z-7.3
 X49.873 Z-7.188
 X49.704 Z-7.086
 X49.529 Z-6.993
 X49.021 Z-6.779
 X48.005 Z-6.358
 X45.973 Z-5.52
 X44.958 Z-5.103
 X44.831 Z-5.059
 X44.704 Z-5.022
 X39.879 Z-3.928
 X39.625 Z-3.879
 X39.371 Z-3.854
 X34.8 Z-3.524
 X34.292 Z-3.493
 X33.784 Z-3.522
 X29.213 Z-3.852
 X28.959 Z-3.877
 X28.705 Z-3.923
 X27.689 Z-4.153
 X24.134 Z-4.957
 X23.88 Z-5.017
 X23.62 Z-5.097
 X23.366 Z-5.192
 X23.118 Z-5.304
 X22.61 Z-5.513
 X19.563 Z-6.772
 X19.055 Z-6.986
 X18.879 Z-7.077
 X18.71 Z-7.179
 X18.547 Z-7.291
 X17.023 Z-8.316
 X14.992 Z-9.687
 X14.811 Z-9.817
 X14.641 Z-9.961
 X14.484 Z-10.118
 X13.976 Z-10.685 F999800.0
 X11.69 Z-13.229
 X11.546 Z-13.386
 X11.413 Z-13.553
 X11.291 Z-13.728
 X11.182 Z-13.911
 X9.151 Z-17.605
 X9.05 Z-17.797
 X8.966 Z-17.997
 X8.897 Z-18.202
 X7.881 Z-21.571
 G3 X2.881 Z-16.571 I0.0 K5.0 F9991300.0
 G0 Z5.0
 X-0.042 Y12.969
 Z-12.212
 G2 X4.958 Z-17.212 I5.0 K0.0
 G1 X5.129 Z-17.11
 X5.308 Z-17.022
 X5.494 Z-16.949
 X5.685 Z-16.892
 X5.88 Z-16.851
 X6.078 Z-16.826
 X6.277 Z-16.818
 X6.476 Z-16.827
 X6.649 Z-16.854
 X6.818 Z-16.896
 X6.983 Z-16.953
 X7.489 Z-17.155
 X7.995 Z-17.366
 X8.121 Z-17.438
 X8.2 Z-17.488
 X8.208 Z-17.483
 X8.248 Z-17.403
 X8.501 Z-16.943
 X9.513 Z-15.116
 X10.272 Z-13.748
 X10.525 Z-13.305
 X10.651 Z-13.124
 X10.778 Z-12.97
 X12.043 Z-11.568
 X13.814 Z-9.614
 X13.972 Z-9.455
 X14.141 Z-9.309
 X14.32 Z-9.176
 X17.61 Z-6.977
 X18.116 Z-6.637
 X18.278 Z-6.531
 X18.447 Z-6.435
 X18.622 Z-6.35
 X19.634 Z-5.935
 X21.152 Z-5.313
 X23.177 Z-4.482
 X23.342 Z-4.42
 X23.511 Z-4.368
 X23.683 Z-4.325
 X28.237 Z-3.302
 X28.743 Z-3.196
 X29.249 Z-3.149
 X33.804 Z-2.822
 X34.31 Z-2.794
 X34.816 Z-2.823
 X39.624 Z-3.168
 X39.879 Z-3.199
 X40.133 Z-3.244
 X40.383 Z-3.306
 X43.419 Z-3.987
 X44.937 Z-4.329
 X45.19 Z-4.396
 X45.443 Z-4.489
 X49.998 Z-6.356
 X50.173 Z-6.443
 X50.342 Z-6.539
 X50.504 Z-6.647
 X53.034 Z-8.341
 X54.3 Z-9.185
 X54.479 Z-9.32
 X54.649 Z-9.468
 X54.806 Z-9.628 F999800.0
 X57.083 Z-12.143
 X57.842 Z-12.984
 X57.987 Z-13.169
 X58.119 Z-13.361
 X58.24 Z-13.562
 X58.348 Z-13.77
 X60.246 Z-17.194
 X60.293 Z-17.28
 X60.404 Z-17.239 F9991300.0
 X60.515 Z-17.197
 X60.625 Z-17.153
 X61.131 Z-16.951
 X61.316 Z-16.889
 X61.505 Z-16.846
 X61.698 Z-16.82
 X61.892 Z-16.813
 X62.086 Z-16.824
 X62.278 Z-16.853
 X62.466 Z-16.901
 X62.65 Z-16.965
 X62.903 Z-17.075
 X63.156 Z-17.215
 G2 X68.156 Z-12.215 I0.0 K5.0
 G1 X71.589 Y14.557
 Z-14.566 F999800.0
 G3 X66.589 Z-19.566 I-5.0 K0.0 F9991300.0
 G1 X66.085 Z-18.618
 X65.963 Z-18.37
 X65.826 Z-18.131
 X65.674 Z-17.901
 X65.508 Z-17.68
 X65.328 Z-17.471
 X65.149 Z-17.238
 X64.956 Z-17.016
 X64.751 Z-16.805
 X64.534 Z-16.607
 X64.306 Z-16.421
 X64.067 Z-16.248
 X63.311 Z-15.652
 X62.174 Z-14.72
 X60.537 Z-15.197
 X60.285 Z-15.277
 X60.064 Z-15.348
 X60.056 Z-15.344
 X59.024 Z-13.491
 X58.772 Z-13.043
 X58.646 Z-12.854
 X58.448 Z-12.603
 X58.238 Z-12.363
 X58.015 Z-12.134
 X55.494 Z-9.366
 X55.337 Z-9.191
 X55.168 Z-9.027
 X54.989 Z-8.875
 X54.485 Z-8.529
 X52.468 Z-7.188
 X50.955 Z-6.184
 X50.702 Z-6.023
 X50.458 Z-5.893
 X50.205 Z-5.779
 X49.946 Z-5.682
 X46.416 Z-4.246
 X45.659 Z-3.939
 X45.412 Z-3.855
 X45.159 Z-3.788
 X44.903 Z-3.738
 X40.364 Z-2.726
 X40.197 Z-2.688
 X40.029 Z-2.657
 X39.859 Z-2.634
 X34.816 Z-2.273
 X34.311 Z-2.245
 X33.807 Z-2.272
 X29.772 Z-2.56
 X28.764 Z-2.632
 X28.594 Z-2.654
 X28.426 Z-2.684
 X28.259 Z-2.722
 X23.72 Z-3.734
 X23.462 Z-3.785
 X23.207 Z-3.852
 X22.956 Z-3.935
 X22.712 Z-4.033
 X18.677 Z-5.675
 X18.173 Z-5.883
 X17.999 Z-5.968
 X17.83 Z-6.064
 X17.668 Z-6.171
 X17.164 Z-6.505
 X14.138 Z-8.515
 X13.634 Z-8.859
 X13.454 Z-9.007
 X13.286 Z-9.169
 X13.129 Z-9.342 F999800.0
 X11.616 Z-11.004
 X10.608 Z-12.109
 X10.103 Z-12.664
 X9.977 Z-12.822
 X9.851 Z-13.006
 X9.599 Z-13.449
 X9.095 Z-14.354
 X8.448 Z-15.513
 X8.238 Z-15.418 F9991300.0
 X8.023 Z-15.334
 X7.804 Z-15.262
 X7.582 Z-15.2
 X5.943 Z-14.72
 X4.808 Z-15.644
 X4.051 Z-16.241
 X3.813 Z-16.413
 X3.585 Z-16.598
 X3.368 Z-16.796
 X3.163 Z-17.006 F999800.0
 X2.97 Z-17.227
 X2.79 Z-17.459
 X2.609 Z-17.672
 X2.44 Z-17.896
 X2.286 Z-18.13
 X2.034 Z-18.599
 X1.529 Z-19.548
 G3 X-3.471 Z-14.548 I0.0 K5.0 F9991300.0
 G1 X-4.459 Y16.144
 Z-14.586 F999800.0
 G2 X0.541 Z-19.586 I5.0 K0.0 F9991300.0
 G1 X1.171 Z-18.26
 X1.31 Z-18.013
 X1.462 Z-17.774
 X1.626 Z-17.543
 X1.801 Z-17.321
 X2.053 Z-17.006
 X2.329 Z-16.657
 X2.618 Z-16.319
 X2.921 Z-15.993
 X3.237 Z-15.679
 X3.565 Z-15.378
 X3.726 Z-15.26
 X3.894 Z-15.153
 X4.069 Z-15.056
 X6.129 Z-13.959
 X7.384 Z-14.276
 X7.678 Z-14.338
 X7.974 Z-14.389
 X8.085 Z-14.418
 X8.196 Z-14.449
 X8.305 Z-14.482
 X9.108 Z-13.055
 X9.216 Z-12.861
 X9.336 Z-12.675
 X9.468 Z-12.497
 X9.612 Z-12.328
 X12.636 Z-9.034
 X12.793 Z-8.862
 X12.961 Z-8.701
 X13.14 Z-8.552
 X13.644 Z-8.21
 X17.424 Z-5.719
 X17.605 Z-5.615
 X17.792 Z-5.52
 X17.984 Z-5.437
 X18.18 Z-5.363
 X22.715 Z-3.535
 X22.881 Z-3.48
 X23.049 Z-3.434
 X23.219 Z-3.397
 X26.243 Z-2.728
 X28.259 Z-2.282
 X28.426 Z-2.25
 X28.594 Z-2.228
 X28.763 Z-2.214
 X33.803 Z-1.858
 X34.307 Z-1.832
 X34.811 Z-1.861
 X39.85 Z-2.217
 X40.102 Z-2.244
 X40.354 Z-2.291
 X45.394 Z-3.406
 X45.564 Z-3.445
 X45.733 Z-3.494
 X45.898 Z-3.551
 X49.93 Z-5.178
 X50.686 Z-5.484
 X50.859 Z-5.561
 X51.027 Z-5.65
 X51.19 Z-5.748
 X55.221 Z-8.406
 X55.429 Z-8.555
 X55.624 Z-8.718
 X55.808 Z-8.896
 X55.977 Z-9.086 F999800.0
 X59.001 Z-12.383
 X59.144 Z-12.562
 X59.276 Z-12.749
 X59.397 Z-12.945
 X59.505 Z-13.147
 X60.198 Z-14.376
 X60.515 Z-14.321 F9991300.0
 X60.83 Z-14.255
 X62.0 Z-13.97
 X64.041 Z-15.057
 X64.265 Z-15.185
 X64.479 Z-15.329
 X64.681 Z-15.489
 X64.872 Z-15.664
 X65.049 Z-15.851 F999800.0
 X65.316 Z-16.127
 X65.573 Z-16.411
 X65.82 Z-16.705
 X66.056 Z-17.007
 X66.308 Z-17.321
 X66.511 Z-17.584
 X66.701 Z-17.856
 X66.875 Z-18.138
 X66.938 Z-18.261
 X67.064 Z-18.528
 X67.568 Z-19.587
 G2 X72.568 Z-14.587 I0.0 K5.0 F9991300.0
 G1 X73.274 Y17.732
 Z-14.664 F999800.0
 G3 X68.274 Z-19.664 I-5.0 K0.0 F9991300.0
 G1 X68.021 Z-19.117
 X67.767 Z-18.564
 X67.514 Z-18.02
 X67.437 Z-17.88
 X67.352 Z-17.745
 X67.26 Z-17.614
 X66.754 Z-16.888
 X66.5 Z-16.518
 X66.388 Z-16.35
 X66.266 Z-16.188
 X66.134 Z-16.034
 X65.993 Z-15.889
 X65.233 Z-15.157
 X64.726 Z-14.673
 X64.599 Z-14.573
 X64.472 Z-14.483
 X64.226 Z-14.33
 X63.972 Z-14.19
 X63.712 Z-14.063
 X63.205 Z-13.806
 X62.161 Z-13.244
 X60.282 Z-13.561
 X59.783 Z-12.681
 X59.668 Z-12.501
 X59.541 Z-12.329
 X59.403 Z-12.166
 X57.121 Z-9.7
 X56.361 Z-8.876
 X56.202 Z-8.7
 X56.033 Z-8.533
 X55.854 Z-8.376
 X55.608 Z-8.192
 X55.355 Z-8.02
 X55.094 Z-7.859
 X51.545 Z-5.536
 X51.382 Z-5.432
 X51.212 Z-5.338
 X51.038 Z-5.254
 X50.024 Z-4.845
 X46.475 Z-3.422
 X46.227 Z-3.317
 X45.974 Z-3.227
 X45.715 Z-3.152
 X40.392 Z-1.981
 X40.224 Z-1.95
 X40.055 Z-1.927
 X39.885 Z-1.914
 X34.815 Z-1.558
 X34.562 Z-1.535
 X34.309 Z-1.527
 X34.055 Z-1.533
 X28.732 Z-1.907
 X28.562 Z-1.918
 X28.393 Z-1.936
 X28.225 Z-1.962
 X23.155 Z-3.074
 X22.898 Z-3.126
 X22.644 Z-3.194
 X22.395 Z-3.28
 X20.621 Z-3.99
 X17.579 Z-5.21
 X17.405 Z-5.286
 X17.236 Z-5.371
 X17.072 Z-5.467
 X14.537 Z-7.123
 X13.016 Z-8.12
 X12.847 Z-8.231
 X12.684 Z-8.351
 X12.529 Z-8.481
 X12.382 Z-8.62
 X9.214 Z-12.044 F999800.0
 X9.072 Z-12.195
 X8.94 Z-12.355
 X8.818 Z-12.523
 X8.707 Z-12.699
 X8.2 Z-13.593
 X8.176 Z-13.633
 X8.073 Z-13.608 F9991300.0
 X7.947 Z-13.581
 X6.933 Z-13.41
 X5.857 Z-13.292
 X4.905 Z-13.806
 X4.398 Z-14.062
 X3.891 Z-14.329
 X3.714 Z-14.432
 X3.545 Z-14.547
 X3.384 Z-14.673
 X2.877 Z-15.156
 X2.117 Z-15.888
 X1.975 Z-16.033 F999800.0
 X1.843 Z-16.186
 X1.721 Z-16.348
 X1.61 Z-16.517
 X1.356 Z-16.887
 X0.849 Z-17.613
 X0.758 Z-17.743
 X0.673 Z-17.879
 X0.596 Z-18.018
 X0.342 Z-18.562
 X0.089 Z-19.115
 X-0.165 Z-19.662
 G3 X-5.165 Z-14.662 I0.0 K5.0 F9991300.0
 G1 X-5.751 Y19.319
 Z-14.777 F999800.0
 G2 X-0.751 Z-19.777 I5.0 K0.0 F9991300.0
 G1 X-0.247 Z-18.646
 X0.005 Z-18.071
 X0.131 Z-17.804
 X0.257 Z-17.588
 X1.392 Z-15.907
 X1.509 Z-15.755
 X1.636 Z-15.611
 X1.771 Z-15.475
 X2.78 Z-14.573
 X2.959 Z-14.398
 X3.151 Z-14.236
 X3.354 Z-14.088
 X3.567 Z-13.955
 X3.788 Z-13.837
 X4.293 Z-13.613
 X4.797 Z-13.387
 X5.975 Z-12.882
 X7.319 Z-13.109
 X7.824 Z-13.17
 X7.922 Z-13.188
 X8.076 Z-12.918
 X8.199 Z-12.689
 X8.336 Z-12.468
 X8.488 Z-12.256
 X8.654 Z-12.055
 X8.833 Z-11.866
 X10.85 Z-9.697
 X11.859 Z-8.615
 X12.017 Z-8.448
 X12.185 Z-8.293
 X12.364 Z-8.15
 X12.868 Z-7.815
 X14.886 Z-6.504
 X16.399 Z-5.519
 X16.904 Z-5.199
 X17.068 Z-5.115
 X17.236 Z-5.038
 X17.408 Z-4.97
 X19.426 Z-4.168
 X22.2 Z-3.062
 X22.448 Z-2.98
 X22.701 Z-2.913
 X22.957 Z-2.862
 X28.001 Z-1.761
 X28.168 Z-1.73
 X28.336 Z-1.708
 X28.506 Z-1.694
 X34.054 Z-1.308
 X34.223 Z-1.303
 X34.391 Z-1.307
 X34.559 Z-1.319
 X39.603 Z-1.67
 X39.858 Z-1.681
 X40.111 Z-1.705
 X40.363 Z-1.744
 X40.612 Z-1.796
 X43.134 Z-2.346
 X45.656 Z-2.897
 X45.916 Z-2.956
 X46.171 Z-3.031
 X46.421 Z-3.122
 X46.665 Z-3.228
 X51.205 Z-5.036
 X51.378 Z-5.114
 X51.547 Z-5.202
 X51.71 Z-5.3
 X55.997 Z-8.091
 X56.176 Z-8.226
 X56.344 Z-8.373
 X56.502 Z-8.531 F999800.0
 X58.267 Z-10.426
 X59.78 Z-12.055
 X59.918 Z-12.218
 X60.044 Z-12.39
 X60.159 Z-12.569
 X60.482 Z-13.135
 X60.49 Z-13.143
 X60.789 Z-13.109 F9991300.0
 X62.134 Z-12.882
 X63.312 Z-13.387
 X63.816 Z-13.613
 X64.075 Z-13.718
 X64.327 Z-13.838
 X64.573 Z-13.972
 X64.749 Z-14.085
 X64.918 Z-14.211
 X65.077 Z-14.347
 X66.086 Z-15.25
 X66.259 Z-15.398
 X66.422 Z-15.556
 X66.574 Z-15.725 F999800.0
 X66.715 Z-15.904
 X66.843 Z-16.092
 X67.851 Z-17.588
 X68.035 Z-17.933
 X68.204 Z-18.286
 X68.356 Z-18.646
 X68.86 Z-19.777
 G2 X73.86 Z-14.777 I0.0 K5.0 F9991300.0
 G1 Z-14.757
 X74.291 Y20.907
 G3 X69.291 Z-19.757 I-5.0 K0.0
 G1 X69.164 Z-19.469
 X68.53 Z-18.015
 X68.454 Z-17.836
 X68.37 Z-17.661
 X68.277 Z-17.49
 X67.263 Z-15.964
 X67.11 Z-15.728
 X66.94 Z-15.503
 X66.756 Z-15.291
 X66.249 Z-14.83
 X65.742 Z-14.382
 X65.234 Z-13.933
 X65.058 Z-13.793
 X64.872 Z-13.666
 X64.677 Z-13.553
 X64.474 Z-13.455
 X62.422 Z-12.552
 X61.398 Z-12.652
 X61.178 Z-12.686
 X60.631 Z-12.748
 X60.624 Z-12.746
 X60.506 Z-12.535
 X60.375 Z-12.332
 X60.232 Z-12.137
 X60.077 Z-11.952
 X59.91 Z-11.777
 X56.868 Z-8.529
 X56.697 Z-8.346
 X56.512 Z-8.176
 X56.315 Z-8.021
 X56.108 Z-7.881
 X55.094 Z-7.226
 X52.051 Z-5.26
 X51.798 Z-5.101
 X51.552 Z-4.97
 X51.298 Z-4.857
 X51.037 Z-4.762
 X48.502 Z-3.759
 X46.474 Z-2.956
 X46.308 Z-2.892
 X46.139 Z-2.838
 X45.967 Z-2.794
 X40.896 Z-1.694
 X40.645 Z-1.634
 X40.391 Z-1.587
 X40.136 Z-1.553
 X35.319 Z-1.218
 X34.305 Z-1.149
 X34.178 Z-1.147
 X34.051 Z-1.151
 X29.234 Z-1.483
 X28.22 Z-1.555
 X28.05 Z-1.577
 X27.881 Z-1.607
 X27.713 Z-1.645
 X23.15 Z-2.633
 X22.389 Z-2.799
 X22.13 Z-2.871
 X21.876 Z-2.96
 X21.628 Z-3.066
 X17.065 Z-4.87
 X16.892 Z-4.941
 X16.722 Z-5.022
 X16.558 Z-5.112
 X16.051 Z-5.436
 X12.502 Z-7.729
 X11.995 Z-8.068
 X11.815 Z-8.216
 X11.646 Z-8.376
 X11.488 Z-8.546 F999800.0
 X8.445 Z-11.794
 X8.278 Z-11.97
 X8.122 Z-12.156
 X7.979 Z-12.352
 X7.849 Z-12.556
 X7.732 Z-12.769
 X7.724 Z-12.78
 X7.431 Z-12.743 F9991300.0
 X5.698 Z-12.546
 X3.628 Z-13.458
 X3.425 Z-13.557
 X3.23 Z-13.67
 X3.044 Z-13.798
 X2.868 Z-13.938
 X1.6 Z-15.059
 X1.423 Z-15.22
 X1.258 Z-15.393 F999800.0
 X1.105 Z-15.577
 X0.966 Z-15.771
 X0.84 Z-15.974
 X0.332 Z-16.736
 X0.079 Z-17.114
 X-0.061 Z-17.315
 X-0.188 Z-17.525
 X-0.301 Z-17.742
 X-0.682 Z-18.614
 X-1.189 Z-19.773
 G3 X-6.189 Z-14.773 I0.0 K5.0 F9991300.0
 G1 Z-14.737
 X-6.54 Y22.494
 G2 X-1.54 Z-19.737 I5.0 K0.0
 G1 X-1.287 Z-19.147
 X-0.656 Z-17.697
 X-0.581 Z-17.534
 X-0.497 Z-17.376
 X-0.404 Z-17.223
 X-0.025 Z-16.658
 X0.732 Z-15.53
 X0.863 Z-15.35
 X1.004 Z-15.178
 X1.156 Z-15.016
 X1.318 Z-14.864
 X1.49 Z-14.722
 X2.499 Z-13.856
 X2.681 Z-13.696
 X2.874 Z-13.549
 X3.077 Z-13.418
 X3.289 Z-13.301
 X3.509 Z-13.201
 X4.519 Z-12.782
 X4.765 Z-12.673
 X5.018 Z-12.581
 X5.276 Z-12.506
 X5.483 Z-12.462
 X5.693 Z-12.432
 X5.905 Z-12.416
 X6.116 Z-12.413
 X6.328 Z-12.425
 X6.538 Z-12.45
 X7.422 Z-12.569
 X7.485 Z-12.578
 X7.607 Z-12.374
 X7.743 Z-12.18
 X7.892 Z-11.995
 X8.053 Z-11.82
 X10.577 Z-9.144
 X11.335 Z-8.339
 X11.508 Z-8.171
 X11.693 Z-8.016
 X11.888 Z-7.873
 X12.092 Z-7.745
 X14.616 Z-6.122
 X16.131 Z-5.151
 X16.294 Z-5.048
 X16.462 Z-4.953
 X16.636 Z-4.869
 X17.141 Z-4.666
 X20.675 Z-3.276
 X21.684 Z-2.879
 X21.85 Z-2.814
 X22.018 Z-2.758
 X22.189 Z-2.711
 X23.199 Z-2.492
 X26.733 Z-1.73
 X27.743 Z-1.512
 X27.995 Z-1.466
 X28.248 Z-1.441
 X34.054 Z-1.043
 X34.18 Z-1.041
 X34.306 Z-1.045
 X35.821 Z-1.148
 X40.112 Z-1.443
 X40.367 Z-1.472
 X40.62 Z-1.516
 X40.869 Z-1.575
 X46.17 Z-2.721
 X46.297 Z-2.757
 X46.423 Z-2.798
 X47.433 Z-3.193
 X49.957 Z-4.185
 X51.472 Z-4.782
 X51.644 Z-4.852
 X51.813 Z-4.932
 X51.976 Z-5.021
 X52.481 Z-5.341
 X55.006 Z-6.961
 X56.015 Z-7.611
 X56.52 Z-7.94
 X56.699 Z-8.078
 X56.867 Z-8.228
 X57.025 Z-8.389 F999800.0
 X59.045 Z-10.534
 X60.307 Z-11.871
 X60.447 Z-12.028
 X60.577 Z-12.193
 X60.696 Z-12.366
 X60.804 Z-12.547
 X60.812 Z-12.552 F9991300.0
 X61.064 Z-12.517
 X61.398 Z-12.463
 X61.735 Z-12.428
 X62.074 Z-12.413
 X62.279 Z-12.42
 X62.484 Z-12.44
 X62.686 Z-12.474
 X62.887 Z-12.52
 X63.083 Z-12.58
 X63.588 Z-12.781
 X64.598 Z-13.2
 X64.818 Z-13.301
 X65.03 Z-13.417
 X65.233 Z-13.549
 X65.426 Z-13.695
 X65.608 Z-13.854
 X66.87 Z-14.939
 X67.01 Z-15.074
 X67.141 Z-15.218 F999800.0
 X67.263 Z-15.369
 X67.375 Z-15.528
 X68.511 Z-17.22
 X68.604 Z-17.373
 X68.688 Z-17.531
 X68.763 Z-17.693
 X69.394 Z-19.143
 X69.647 Z-19.733
 G2 X74.647 Z-14.733 I0.0 K5.0 F9991300.0
 G1 Z-14.641
 X74.904 Y24.082
 G3 X69.904 Z-19.641 I-5.0 K0.0
 G1 X69.652 Z-19.052
 X69.021 Z-17.599
 X68.946 Z-17.435
 X68.861 Z-17.275
 X68.768 Z-17.12
 X67.632 Z-15.426
 X67.503 Z-15.242
 X67.362 Z-15.067
 X67.21 Z-14.902
 X67.047 Z-14.747
 X66.874 Z-14.604
 X66.369 Z-14.17
 X65.612 Z-13.522
 X65.435 Z-13.387
 X65.249 Z-13.265
 X65.055 Z-13.157
 X64.854 Z-13.063
 X63.844 Z-12.643
 X63.339 Z-12.437
 X63.13 Z-12.369
 X62.917 Z-12.316
 X62.701 Z-12.278
 X62.482 Z-12.255
 X62.263 Z-12.247
 X62.043 Z-12.254
 X61.824 Z-12.276
 X61.004 Z-12.382
 X60.957 Z-12.388
 X60.837 Z-12.208
 X60.705 Z-12.036
 X60.562 Z-11.874
 X58.795 Z-10.007
 X57.28 Z-8.409
 X57.122 Z-8.243
 X56.953 Z-8.087
 X56.775 Z-7.943
 X56.27 Z-7.611
 X52.23 Z-5.03
 X52.067 Z-4.933
 X51.898 Z-4.846
 X51.725 Z-4.769
 X46.675 Z-2.794
 X46.509 Z-2.731
 X46.341 Z-2.678
 X46.17 Z-2.634
 X40.615 Z-1.444
 X40.362 Z-1.398
 X40.11 Z-1.372
 X35.565 Z-1.061
 X34.302 Z-0.975
 X34.05 Z-0.971
 X33.797 Z-0.98
 X33.545 Z-1.004
 X28.495 Z-1.35
 X28.241 Z-1.362
 X27.989 Z-1.388
 X27.738 Z-1.427
 X22.435 Z-2.563
 X22.178 Z-2.613
 X21.926 Z-2.68
 X21.678 Z-2.762
 X16.88 Z-4.639
 X16.62 Z-4.735
 X16.367 Z-4.849
 X16.123 Z-4.98
 X14.355 Z-6.107
 X11.83 Z-7.719
 X11.625 Z-7.849
 X11.43 Z-7.993
 X11.246 Z-8.15
 X11.073 Z-8.321
 X7.79 Z-11.785 F999800.0
 X7.655 Z-11.928
 X7.527 Z-12.079
 X7.41 Z-12.238
 X7.301 Z-12.403
 X7.293 Z-12.407 F9991300.0
 X6.275 Z-12.275
 X6.048 Z-12.253
 X5.819 Z-12.247
 X5.591 Z-12.258
 X5.364 Z-12.285
 X5.139 Z-12.328
 X4.912 Z-12.389
 X4.688 Z-12.463
 X4.469 Z-12.549
 X4.255 Z-12.647
 X3.245 Z-13.067
 X3.044 Z-13.162
 X2.85 Z-13.271
 X2.665 Z-13.394
 X2.488 Z-13.529
 X1.225 Z-14.611
 X1.053 Z-14.756
 X0.89 Z-14.912
 X0.738 Z-15.079 F999800.0
 X0.597 Z-15.255
 X0.468 Z-15.44
 X-0.542 Z-16.944
 X-0.668 Z-17.134
 X-0.795 Z-17.352
 X-1.047 Z-17.91
 X-1.552 Z-19.073
 X-1.805 Z-19.665
 G3 X-6.805 Z-14.665 I0.0 K5.0 F9991300.0
 G1 Z-14.55
 X-7.031 Y25.669
 G2 X-2.031 Z-19.55 I5.0 K0.0
 G1 X-1.779 Z-18.964
 X-1.274 Z-17.808
 X-1.022 Z-17.251
 X-0.944 Z-17.111
 X-0.859 Z-16.975
 X-0.769 Z-16.843
 X0.366 Z-15.171
 X0.507 Z-14.99
 X0.659 Z-14.82
 X0.823 Z-14.661
 X0.997 Z-14.513
 X2.259 Z-13.447
 X2.435 Z-13.307
 X2.621 Z-13.179
 X2.815 Z-13.065
 X3.016 Z-12.964
 X3.521 Z-12.758
 X4.531 Z-12.351
 X4.738 Z-12.277
 X5.164 Z-12.158
 X5.605 Z-12.13
 X5.824 Z-12.147
 X6.045
 X7.054 Z-12.288
 X7.133 Z-12.299
 X7.141 Z-12.298
 X7.269 Z-12.119
 X7.409 Z-11.95
 X7.559 Z-11.79
 X10.966 Z-8.214
 X11.113 Z-8.079
 X11.267 Z-7.953
 X11.429 Z-7.836
 X11.597 Z-7.729
 X14.121 Z-6.124
 X15.888 Z-5.003
 X16.051 Z-4.907
 X16.219 Z-4.821
 X16.392 Z-4.745
 X18.664 Z-3.859
 X21.187 Z-2.878
 X21.432 Z-2.776
 X21.683 Z-2.688
 X21.938 Z-2.616
 X22.197 Z-2.559
 X27.749 Z-1.378
 X28.085 Z-1.336
 X28.421 Z-1.308
 X28.759 Z-1.293
 X33.996 Z-0.937
 X34.101 Z-0.935
 X34.206 Z-0.936
 X34.311 Z-0.94
 X39.863 Z-1.319
 X40.117 Z-1.33
 X40.37 Z-1.358
 X40.621 Z-1.402
 X45.92 Z-2.533
 X46.177 Z-2.582
 X46.43 Z-2.648
 X46.678 Z-2.732
 X49.958 Z-4.007
 X51.473 Z-4.598
 X51.732 Z-4.691
 X51.985 Z-4.802
 X52.23 Z-4.929
 X52.482 Z-5.085
 X56.016 Z-7.33
 X56.773 Z-7.812
 X56.979 Z-7.959
 X57.174 Z-8.121
 X57.358 Z-8.295
 X57.53 Z-8.482 F999800.0
 X59.044 Z-10.073
 X60.811 Z-11.929
 X60.937 Z-12.078
 X61.087 Z-12.282
 X61.095 F9991300.0
 X61.568 Z-12.215
 X62.817 Z-12.043
 X64.596 Z-12.761
 X64.856 Z-12.857
 X65.108 Z-12.97
 X65.354 Z-13.098
 X65.529 Z-13.206
 X65.698 Z-13.325
 X65.858 Z-13.454
 X67.12 Z-14.521
 X67.295 Z-14.669
 X67.459 Z-14.829
 X67.611 Z-15.001 F999800.0
 X67.751 Z-15.183
 X68.13 Z-15.739
 X68.887 Z-16.856
 X68.977 Z-16.989
 X69.062 Z-17.126
 X69.139 Z-17.267
 X69.392 Z-17.828
 X69.896 Z-18.984
 X70.149 Z-19.572
 G2 X75.149 Z-14.572 I0.0 K5.0 F9991300.0
 G1 Z-14.504
 X75.297 Y27.257
 G3 X70.297 Z-19.504 I-5.0 K0.0
 G1 X70.044 Z-18.913
 X69.537 Z-17.753
 X69.284 Z-17.192
 X69.22 Z-17.077
 X69.157 Z-16.972
 X68.016 Z-15.287
 X67.888 Z-15.098
 X67.747 Z-14.919
 X67.594 Z-14.75
 X67.43 Z-14.591
 X67.256 Z-14.444
 X65.989 Z-13.374
 X65.867 Z-13.275
 X65.74 Z-13.182
 X65.609 Z-13.096
 X65.396 Z-12.975
 X65.177 Z-12.867
 X64.952 Z-12.771
 X64.722 Z-12.687
 X62.96 Z-11.977
 X61.237 Z-12.219
 X61.197 Z-12.224
 X61.047 Z-12.031
 X60.92 Z-11.889
 X59.146 Z-10.033
 X57.625 Z-8.443
 X57.48 Z-8.287
 X57.326 Z-8.14
 X57.163 Z-8.002
 X56.992 Z-7.874
 X52.557 Z-5.064
 X52.303 Z-4.911
 X52.057 Z-4.787
 X51.803 Z-4.678
 X51.543 Z-4.586
 X47.995 Z-3.211
 X46.728 Z-2.72
 X46.479 Z-2.638
 X46.225 Z-2.573
 X45.967 Z-2.524
 X44.447 Z-2.201
 X40.645 Z-1.394
 X40.394 Z-1.35
 X40.14 Z-1.323
 X39.885 Z-1.311
 X34.309 Z-0.933
 X34.204 Z-0.928
 X34.098 Z-0.927
 X33.992 Z-0.929
 X29.24 Z-1.25
 X27.973 Z-1.337
 X27.717 Z-1.367
 X27.464 Z-1.412
 X27.213 Z-1.472
 X23.158 Z-2.333
 X21.891 Z-2.602
 X21.632 Z-2.672
 X21.378 Z-2.759
 X21.13 Z-2.862
 X18.596 Z-3.844
 X16.315 Z-4.728
 X16.141 Z-4.801
 X15.972 Z-4.883
 X15.808 Z-4.976
 X13.02 Z-6.74
 X11.5 Z-7.702
 X11.294 Z-7.83
 X11.099 Z-7.973
 X10.913 Z-8.128
 X10.739 Z-8.296
 X7.445 Z-11.742 F999800.0
 X7.293 Z-11.899
 X7.15 Z-12.065
 X7.017 Z-12.238
 X5.147 Z-11.978 F9991300.0
 X3.39 Z-12.686
 X2.883 Z-12.893
 X2.68 Z-12.992
 X2.486 Z-13.105
 X2.299 Z-13.232
 X2.122 Z-13.372
 X0.855 Z-14.442
 X0.68 Z-14.59
 X0.516 Z-14.749
 X0.363 Z-14.919 F999800.0
 X0.222 Z-15.099
 X-0.919 Z-16.778
 X-1.009 Z-16.91
 X-1.094 Z-17.047
 X-1.172 Z-17.187
 X-1.426 Z-17.747
 X-1.933 Z-18.908
 X-2.186 Z-19.497
 G3 X-7.186 Z-14.497 I0.0 K5.0 F9991300.0
 G1 Z-14.414
 X-7.329 Y28.844
 G2 X-2.329 Z-19.414 I5.0 K0.0
 G1 X-2.203 Z-19.118
 X-1.571 Z-17.671
 X-1.318 Z-17.115
 X-1.192 Z-16.897
 X-1.066 Z-16.709
 X-0.055 Z-15.22
 X0.073 Z-15.032
 X0.214 Z-14.854
 X0.366 Z-14.685
 X0.529 Z-14.527
 X0.703 Z-14.381
 X1.714 Z-13.535
 X1.891 Z-13.377
 X2.076 Z-13.23
 X2.27 Z-13.094
 X2.472 Z-12.968
 X2.717 Z-12.842
 X2.97 Z-12.731
 X3.229 Z-12.635
 X4.24 Z-12.237
 X5.085 Z-11.931
 X6.261 Z-12.095
 X6.94 Z-12.194
 X6.948 Z-12.19
 X7.019 Z-12.101
 X7.272 Z-11.823
 X8.788 Z-10.243
 X10.304 Z-8.665
 X10.809 Z-8.152
 X10.97 Z-8.018
 X11.139 Z-7.895
 X11.315 Z-7.782
 X15.357 Z-5.234
 X15.863 Z-4.924
 X16.027 Z-4.843
 X16.196 Z-4.769
 X16.368 Z-4.703
 X21.421 Z-2.753
 X21.587 Z-2.696
 X21.755 Z-2.648
 X21.926 Z-2.61
 X27.485 Z-1.434
 X27.738 Z-1.387
 X27.99 Z-1.36
 X33.928 Z-0.959
 X34.054 Z-0.954
 X34.181 Z-0.955
 X34.307 Z-0.96
 X40.118 Z-1.352
 X40.287 Z-1.364
 X40.456 Z-1.383
 X40.623 Z-1.411
 X43.15 Z-1.944
 X46.182 Z-2.586
 X46.441 Z-2.642
 X46.697 Z-2.715
 X46.948 Z-2.802
 X47.193 Z-2.905
 X50.73 Z-4.27
 X51.993 Z-4.757
 X52.166 Z-4.83
 X52.335 Z-4.912
 X52.498 Z-5.004
 X53.256 Z-5.482
 X55.278 Z-6.756
 X57.046 Z-7.871
 X57.224 Z-7.997
 X57.393 Z-8.136
 X57.552 Z-8.285
 X58.815 Z-9.6 F999800.0
 X60.836 Z-11.706
 X60.986 Z-11.856 F9991300.0
 X61.129 Z-12.013 F999800.0
 X61.263 Z-12.178
 X61.27 Z-12.179 F9991300.0
 X61.847 Z-12.095
 X62.081 Z-12.053
 X62.318 Z-12.025
 X62.556 Z-12.01
 X62.794 Z-12.009
 X63.014 Z-12.025
 X63.233 Z-12.055
 X63.449 Z-12.101
 X63.661 Z-12.162
 X63.868 Z-12.237
 X64.879 Z-12.635
 X65.138 Z-12.729
 X65.392 Z-12.841
 X65.637 Z-12.968
 X65.813 Z-13.076
 X65.981 Z-13.195
 X66.142 Z-13.324
 X66.9 Z-13.956
 X67.405 Z-14.38
 X67.579 Z-14.527
 X67.742 Z-14.685
 X67.895 Z-14.853 F999800.0
 X68.035 Z-15.031
 X68.163 Z-15.219
 X69.174 Z-16.708
 X69.3 Z-16.897
 X69.427 Z-17.114
 X69.679 Z-17.67
 X70.311 Z-19.116
 X70.437 Z-19.412
 G2 X75.437 Z-14.412 I0.0 K5.0 F9991300.0
 G1 Z-14.372
 X75.484 Y30.432
 G3 X70.484 Z-19.372 I-5.0 K0.0
 G1 X70.358 Z-19.078
 X69.725 Z-17.639
 X69.472 Z-17.084
 X69.346 Z-16.867
 X68.46 Z-15.572
 X68.081 Z-15.02
 X67.94 Z-14.839
 X67.788 Z-14.668
 X67.623 Z-14.509
 X67.448 Z-14.361
 X66.183 Z-13.308
 X66.022 Z-13.178
 X65.854 Z-13.058
 X65.677 Z-12.949
 X65.432 Z-12.821
 X65.179 Z-12.709
 X64.918 Z-12.615
 X63.907 Z-12.216
 X63.699 Z-12.14
 X63.487 Z-12.079
 X63.271 Z-12.033
 X63.052 Z-12.002
 X62.831 Z-11.987
 X62.593
 X62.355 Z-12.001
 X62.118 Z-12.03
 X61.883 Z-12.072
 X61.314 Z-12.154
 X61.29 Z-12.157
 X61.282 Z-12.147
 X61.124 Z-11.97
 X57.835 Z-8.556
 X57.663 Z-8.372
 X57.479 Z-8.2
 X57.283 Z-8.042
 X57.076 Z-7.897
 X54.799 Z-6.466
 X52.775 Z-5.196
 X52.611 Z-5.091
 X52.443 Z-4.994
 X52.269 Z-4.906
 X51.763 Z-4.703
 X50.246 Z-4.119
 X47.21 Z-2.951
 X46.962 Z-2.85
 X46.709 Z-2.763
 X46.451 Z-2.692
 X42.15 Z-1.785
 X40.632 Z-1.466
 X40.465 Z-1.439
 X40.296 Z-1.42
 X40.126 Z-1.409
 X34.308 Z-1.018
 X34.054 Z-1.011
 X33.801 Z-1.019
 X33.549 Z-1.042
 X27.983 Z-1.417
 X27.73 Z-1.443
 X27.477 Z-1.49
 X26.971 Z-1.596
 X21.912 Z-2.662
 X21.741 Z-2.7
 X21.572 Z-2.747
 X21.406 Z-2.802
 X16.852 Z-4.553
 X16.093 Z-4.846
 X15.919 Z-4.924
 X15.75 Z-5.012
 X15.587 Z-5.11
 X11.287 Z-7.812
 X11.081 Z-7.942
 X10.885 Z-8.086
 X10.7 Z-8.244
 X10.528 Z-8.416
 X9.263 Z-9.73 F999800.0
 X7.239 Z-11.83
 X7.13 Z-11.942
 X7.025 Z-12.056
 X6.923 Z-12.173
 X6.227 Z-12.072 F9991300.0
 X5.721 Z-12.001
 X5.5 Z-11.986
 X5.279 Z-11.987
 X5.059 Z-12.002
 X4.84 Z-12.033
 X4.623 Z-12.079
 X4.411 Z-12.14
 X4.203 Z-12.216
 X3.191 Z-12.614
 X2.685 Z-12.819
 X2.465 Z-12.931
 X2.253 Z-13.059
 X2.053 Z-13.204
 X0.661 Z-14.36
 X0.486 Z-14.508
 X0.322 Z-14.667
 X0.169 Z-14.838 F999800.0
 X0.029 Z-15.019
 X-1.11 Z-16.678
 X-1.236 Z-16.866
 X-1.363 Z-17.083
 X-1.616 Z-17.637
 X-2.248 Z-19.076
 X-2.374 Z-19.37
 G3 X-7.374 Z-14.37 I0.0 K5.0 F9991300.0
 G1 Z-14.361
 X-7.413 Y32.019
 G2 X-2.413 Z-19.361 I5.0 K0.0
 G1 X-2.16 Z-18.778
 X-1.653 Z-17.625
 X-1.4 Z-17.069
 X-1.322 Z-16.929
 X-1.237 Z-16.794
 X-1.147 Z-16.662
 X-0.007 Z-15.001
 X0.133 Z-14.819
 X0.286 Z-14.648
 X0.45 Z-14.488
 X0.626 Z-14.339
 X1.892 Z-13.286
 X2.068 Z-13.144
 X2.254 Z-13.014
 X2.449 Z-12.898
 X2.651 Z-12.796
 X3.158 Z-12.592
 X4.171 Z-12.2
 X4.379 Z-12.124
 X4.591 Z-12.063
 X4.808 Z-12.016
 X5.027 Z-11.984
 X5.248 Z-11.968
 X5.469 Z-11.967
 X5.69 Z-11.982
 X6.197 Z-12.053
 X6.956 Z-12.165
 X6.964 Z-12.164
 X7.02 Z-12.102
 X7.083 Z-12.035
 X8.729 Z-10.331
 X10.501 Z-8.498
 X10.674 Z-8.327
 X10.859 Z-8.168
 X11.055 Z-8.024
 X11.261 Z-7.895
 X15.693 Z-5.122
 X15.897 Z-5.014
 X16.109 Z-4.918
 X16.326 Z-4.837
 X21.39 Z-2.896
 X21.556 Z-2.84
 X21.725 Z-2.793
 X21.897 Z-2.755
 X27.468 Z-1.585
 X27.721 Z-1.538
 X27.974 Z-1.512
 X33.545 Z-1.138
 X33.798 Z-1.115
 X34.051 Z-1.106
 X34.305 Z-1.112
 X38.103 Z-1.366
 X40.129 Z-1.503
 X40.298 Z-1.513
 X40.467 Z-1.531
 X40.635 Z-1.557
 X41.648 Z-1.769
 X46.459 Z-2.78
 X46.718 Z-2.85
 X46.971 Z-2.935
 X47.219 Z-3.036
 X50.764 Z-4.395
 X51.777 Z-4.783
 X52.043 Z-4.878
 X52.301 Z-4.991
 X52.55 Z-5.122
 X52.79 Z-5.271
 X55.322 Z-6.856
 X57.095 Z-7.965
 X57.302 Z-8.107
 X57.498 Z-8.263
 X57.683 Z-8.432
 X57.855 Z-8.614 F999800.0
 X61.21 Z-12.087
 X61.265 Z-12.148
 X61.273 Z-12.147 F9991300.0
 X61.906 Z-12.054
 X62.141 Z-12.011
 X62.378 Z-11.983
 X62.617 Z-11.968
 X62.856
 X63.076 Z-11.984
 X63.295 Z-12.015
 X63.512 Z-12.061
 X63.724 Z-12.122
 X63.932 Z-12.198
 X64.945 Z-12.59
 X65.205 Z-12.684
 X65.459 Z-12.796
 X65.705 Z-12.923
 X65.881 Z-13.032
 X66.05 Z-13.151
 X66.211 Z-13.281
 X67.477 Z-14.335
 X67.652 Z-14.482
 X67.817 Z-14.641
 X67.97 Z-14.812 F999800.0
 X68.11 Z-14.992
 X68.49 Z-15.545
 X69.376 Z-16.841
 X69.503 Z-17.058
 X69.756 Z-17.612
 X70.389 Z-19.052
 X70.516 Z-19.346
 G2 X75.516 Z-14.346 I0.0 K5.0 F9991300.0
 G1 Z-14.318
 X75.468 Y33.607
 G3 X70.468 Z-19.318 I-5.0 K0.0
 G1 X69.709 Z-17.597
 X69.456 Z-17.048
 X69.33 Z-16.834
 X68.444 Z-15.552
 X68.065 Z-15.004
 X67.925 Z-14.823
 X67.772 Z-14.653
 X67.608 Z-14.493
 X67.433 Z-14.346
 X66.421 Z-13.515
 X65.916 Z-13.108
 X65.753 Z-13.0
 X65.584 Z-12.902
 X65.41 Z-12.814
 X64.904 Z-12.611
 X63.893 Z-12.22
 X63.685 Z-12.143
 X63.473 Z-12.08
 X63.257 Z-12.032
 X63.038 Z-11.999
 X62.818 Z-11.981
 X62.579 Z-11.979
 X62.341 Z-11.992
 X62.104 Z-12.019
 X61.87 Z-12.061
 X61.206 Z-12.159
 X61.19 Z-12.161
 X57.824 Z-8.687
 X57.679 Z-8.535
 X57.524 Z-8.391
 X57.362 Z-8.258
 X57.191 Z-8.135
 X56.306 Z-7.58
 X52.766 Z-5.37
 X52.526 Z-5.224
 X52.277 Z-5.096
 X52.019 Z-4.984
 X51.754 Z-4.891
 X47.203 Z-3.152
 X46.955 Z-3.052
 X46.702 Z-2.968
 X46.444 Z-2.9
 X41.639 Z-1.894
 X40.628 Z-1.684
 X40.501 Z-1.664
 X40.375 Z-1.649
 X36.582 Z-1.394
 X34.306 Z-1.242
 X34.052 Z-1.237
 X33.799 Z-1.246
 X33.547 Z-1.27
 X27.984 Z-1.642
 X27.731 Z-1.668
 X27.478 Z-1.715
 X21.915 Z-2.88
 X21.744 Z-2.918
 X21.575 Z-2.964
 X21.409 Z-3.02
 X16.857 Z-4.759
 X16.098 Z-5.05
 X15.925 Z-5.127
 X15.756 Z-5.215
 X15.593 Z-5.312
 X11.294 Z-7.996
 X11.088 Z-8.124
 X10.893 Z-8.267
 X10.708 Z-8.423
 X10.535 Z-8.592
 X9.776 Z-9.376 F999800.0
 X7.248 Z-11.985
 X7.058 Z-12.181
 X6.236 Z-12.061 F9991300.0
 X5.73 Z-11.991
 X5.509 Z-11.978
 X5.288 Z-11.981
 X5.067 Z-11.999
 X4.848 Z-12.032
 X4.632 Z-12.08
 X4.42 Z-12.144
 X4.213 Z-12.221
 X3.201 Z-12.612
 X2.696 Z-12.815
 X2.521 Z-12.903
 X2.352 Z-13.002
 X2.19 Z-13.111
 X1.684 Z-13.517
 X0.673 Z-14.349
 X0.497 Z-14.496
 X0.333 Z-14.656
 X0.18 Z-14.827 F999800.0
 X0.04 Z-15.009
 X-1.097 Z-16.653
 X-1.224 Z-16.839
 X-1.35 Z-17.054
 X-1.603 Z-17.604
 X-2.109 Z-18.749
 X-2.362 Z-19.326
 G3 X-7.362 Z-14.326 I0.0 K5.0 F9991300.0
 G1 X-7.294 Y35.194
 Z-14.332 F999800.0
 G2 X-2.294 Z-19.332 I5.0 K0.0 F9991300.0
 G1 X-2.041 Z-18.757
 X-1.536 Z-17.614
 X-1.284 Z-17.065
 X-1.158 Z-16.851
 X-1.032 Z-16.665
 X0.104 Z-15.023
 X0.244 Z-14.842
 X0.397 Z-14.671
 X0.561 Z-14.511
 X0.736 Z-14.363
 X1.745 Z-13.538
 X2.25 Z-13.134
 X2.412 Z-13.025
 X2.581 Z-12.926
 X2.755 Z-12.837
 X3.26 Z-12.635
 X4.27 Z-12.251
 X4.476 Z-12.172
 X4.688 Z-12.108
 X4.904 Z-12.058
 X5.122 Z-12.023
 X5.342 Z-12.003
 X5.563 Z-11.998
 X5.784 Z-12.008
 X6.289 Z-12.076
 X7.204 Z-12.214
 X10.707 Z-8.612
 X10.854 Z-8.479
 X11.008 Z-8.356
 X11.17 Z-8.242
 X11.338 Z-8.138
 X15.377 Z-5.623
 X15.882 Z-5.319
 X16.047 Z-5.24
 X16.215 Z-5.168
 X16.387 Z-5.104
 X21.436 Z-3.179
 X21.601 Z-3.123
 X21.77 Z-3.076
 X21.941 Z-3.038
 X27.494 Z-1.878
 X27.661 Z-1.845
 X27.83 Z-1.819
 X27.999 Z-1.803
 X33.553 Z-1.433
 X33.805 Z-1.409
 X34.057 Z-1.4
 X34.31 Z-1.404
 X35.572 Z-1.488
 X40.369 Z-1.809
 X40.495 Z-1.823
 X40.621 Z-1.843
 X41.631 Z-2.052
 X46.427 Z-3.054
 X46.685 Z-3.121
 X46.938 Z-3.204
 X47.185 Z-3.303
 X51.729 Z-5.035
 X51.993 Z-5.128
 X52.25 Z-5.238
 X52.499 Z-5.366
 X52.738 Z-5.511
 X57.156 Z-8.264
 X57.326 Z-8.386
 X57.489 Z-8.519
 X57.642 Z-8.662
 X57.787 Z-8.814 F999800.0
 X61.069 Z-12.188
 X61.826 Z-12.075 F9991300.0
 X62.045 Z-12.036
 X62.266 Z-12.011
 X62.488 Z-11.999
 X62.71 Z-12.0
 X62.943 Z-12.018
 X63.174 Z-12.052
 X63.403 Z-12.103
 X63.627 Z-12.171
 X63.846 Z-12.254
 X64.855 Z-12.638
 X65.36 Z-12.84
 X65.535 Z-12.93
 X65.703 Z-13.029
 X65.865 Z-13.139
 X66.37 Z-13.543
 X67.38 Z-14.368
 X67.554 Z-14.516
 X67.717 Z-14.676
 X67.869 Z-14.846 F999800.0
 X68.009 Z-15.026
 X68.137 Z-15.215
 X69.147 Z-16.674
 X69.273 Z-16.861
 X69.399 Z-17.078
 X69.652 Z-17.629
 X70.283 Z-19.058
 X70.409 Z-19.349
 G2 X75.409 Z-14.349 I0.0 K5.0 F9991300.0
 G1 Z-14.34
 X75.261 Y36.782
 G3 X70.261 Z-19.34 I-5.0 K0.0
 G1 X69.375 Z-17.34
 X69.299 Z-17.178
 X69.215 Z-17.021
 X69.122 Z-16.869
 X68.236 Z-15.595
 X67.856 Z-15.051
 X67.702 Z-14.854
 X67.532 Z-14.67
 X67.349 Z-14.499
 X66.21 Z-13.571
 X65.704 Z-13.167
 X65.541 Z-13.058
 X65.372 Z-12.959
 X65.197 Z-12.871
 X64.691 Z-12.67
 X63.678 Z-12.285
 X63.458 Z-12.203
 X63.234 Z-12.137
 X63.004 Z-12.087
 X62.772 Z-12.054
 X62.539 Z-12.038
 X62.316 Z-12.039
 X62.093 Z-12.052
 X61.872 Z-12.079
 X61.652 Z-12.119
 X60.901 Z-12.231
 X60.893 Z-12.23
 X57.601 Z-8.85
 X57.442 Z-8.696
 X57.273 Z-8.554
 X57.095 Z-8.424
 X52.537 Z-5.59
 X52.373 Z-5.497
 X52.204 Z-5.414
 X52.031 Z-5.341
 X46.967 Z-3.415
 X46.801 Z-3.352
 X46.632 Z-3.297
 X46.46 Z-3.251
 X41.397 Z-2.194
 X41.062 Z-2.115
 X40.724 Z-2.051
 X40.384 Z-2.001
 X35.826 Z-1.696
 X34.307 Z-1.596
 X34.18 Z-1.592
 X34.054 Z-1.594
 X28.737 Z-1.946
 X27.977 Z-1.998
 X27.721 Z-2.029
 X27.468 Z-2.075
 X27.217 Z-2.134
 X23.166 Z-2.978
 X21.9 Z-3.243
 X21.642 Z-3.311
 X21.388 Z-3.397
 X21.141 Z-3.498
 X16.583 Z-5.232
 X16.322 Z-5.326
 X16.068 Z-5.439
 X15.823 Z-5.569
 X11.519 Z-8.243
 X11.315 Z-8.366
 X11.12 Z-8.503
 X10.935 Z-8.653
 X10.76 Z-8.815
 X7.405 Z-12.26 F999800.0
 X7.397 Z-12.261 F9991300.0
 X7.389 Z-12.26
 X6.455 Z-12.118
 X5.949 Z-12.049
 X5.727 Z-12.037
 X5.506 Z-12.041
 X5.285 Z-12.06
 X5.066 Z-12.094
 X4.849 Z-12.143
 X4.637 Z-12.207
 X4.43 Z-12.285
 X3.417 Z-12.67
 X2.91 Z-12.872
 X2.736 Z-12.96
 X2.567 Z-13.059
 X2.404 Z-13.168
 X1.898 Z-13.572
 X0.885 Z-14.396
 X0.71 Z-14.543
 X0.545 Z-14.702
 X0.392 Z-14.872 F999800.0
 X0.252 Z-15.052
 X-0.888 Z-16.687
 X-1.031 Z-16.896
 X-1.158 Z-17.115
 X-1.267 Z-17.343
 X-1.9 Z-18.77
 X-2.154 Z-19.343
 G3 X-7.154 Z-14.343 I0.0 K5.0 F9991300.0
 G1 X-6.989 Y38.369
 Z-14.368 F999800.0
 G2 X-1.989 Z-19.368 I5.0 K0.0 F9991300.0
 G1 X-1.485 Z-18.234
 X-1.107 Z-17.384
 X-0.997 Z-17.158
 X-0.871 Z-16.94
 X-0.729 Z-16.733
 X0.28 Z-15.294
 X0.407 Z-15.106
 X0.547 Z-14.928
 X0.699 Z-14.759
 X0.862 Z-14.602
 X1.036 Z-14.455
 X2.044 Z-13.641
 X2.548 Z-13.238
 X2.726 Z-13.117
 X2.912 Z-13.008
 X3.105 Z-12.912
 X3.304 Z-12.83
 X4.816 Z-12.262
 X5.026 Z-12.199
 X5.239 Z-12.15
 X5.455 Z-12.115
 X5.673 Z-12.095
 X5.892 Z-12.091
 X6.111 Z-12.101
 X6.328 Z-12.126
 X7.588 Z-12.317
 X7.636 Z-12.326
 X7.651 Z-12.312
 X10.865 Z-9.016
 X11.038 Z-8.851
 X11.222 Z-8.698
 X11.417 Z-8.558
 X11.621 Z-8.433
 X15.905 Z-5.775
 X16.068 Z-5.683
 X16.236 Z-5.6
 X16.409 Z-5.528
 X21.198 Z-3.709
 X21.442 Z-3.608
 X21.692 Z-3.523
 X21.947 Z-3.452
 X22.206 Z-3.397
 X27.751 Z-2.245
 X27.918 Z-2.22
 X28.086 Z-2.202
 X28.255 Z-2.192
 X34.051 Z-1.808
 X34.177 Z-1.805
 X34.303 Z-1.808
 X35.311 Z-1.874
 X40.352 Z-2.21
 X40.521 Z-2.231
 X40.689 Z-2.26
 X40.856 Z-2.296
 X46.401 Z-3.45
 X46.571 Z-3.496
 X46.739 Z-3.55
 X46.905 Z-3.612
 X51.945 Z-5.527
 X52.118 Z-5.599
 X52.286 Z-5.681
 X52.449 Z-5.774
 X55.978 Z-7.962
 X56.482 Z-8.275
 X56.986 Z-8.59
 X57.163 Z-8.72
 X57.332 Z-8.861
 X57.49 Z-9.014
 X60.679 Z-12.285 F999800.0
 X60.687 Z-12.29 F9991300.0
 X61.522 Z-12.164
 X62.026 Z-12.099
 X62.247 Z-12.091
 X62.468 Z-12.098
 X62.688 Z-12.12
 X62.906 Z-12.157
 X63.121 Z-12.208
 X63.332 Z-12.274
 X63.538 Z-12.353
 X64.799 Z-12.827
 X64.997 Z-12.909
 X65.19 Z-13.005
 X65.376 Z-13.113
 X65.555 Z-13.233
 X66.059 Z-13.635
 X67.193 Z-14.554
 X67.37 Z-14.719
 X67.534 Z-14.896 F999800.0
 X67.686 Z-15.085
 X67.823 Z-15.284
 X68.957 Z-16.906
 X69.05 Z-17.056
 X69.134 Z-17.211
 X69.209 Z-17.37
 X70.091 Z-19.353
 G2 X75.091 Z-14.353 I0.0 K5.0 F9991300.0
 G1 X74.901 Y39.957
 Z-14.433 F999800.0
 G3 X69.901 Z-19.433 I-5.0 K0.0 F9991300.0
 G1 X69.018 Z-17.447
 X68.942 Z-17.285
 X68.858 Z-17.128
 X68.765 Z-16.976
 X67.629 Z-15.353
 X67.492 Z-15.152
 X67.34 Z-14.963
 X67.176 Z-14.784
 X66.998 Z-14.618
 X65.863 Z-13.698
 X65.358 Z-13.296
 X65.179 Z-13.175
 X64.993 Z-13.066
 X64.8 Z-12.97
 X64.601 Z-12.888
 X63.339 Z-12.414
 X63.128 Z-12.332
 X62.913 Z-12.266
 X62.693 Z-12.214
 X62.471 Z-12.178
 X62.246 Z-12.156
 X62.021 Z-12.151
 X61.796 Z-12.161
 X61.572 Z-12.186
 X60.452 Z-12.355
 X60.436 Z-12.356
 X57.786 Z-9.641
 X57.281 Z-9.125
 X57.122 Z-8.979
 X56.953 Z-8.845
 X56.776 Z-8.723
 X52.737 Z-6.22
 X52.233 Z-5.911
 X52.069 Z-5.826
 X51.9 Z-5.751
 X51.728 Z-5.685
 X49.708 Z-4.919
 X46.68 Z-3.77
 X46.514 Z-3.715
 X46.345 Z-3.669
 X46.175 Z-3.632
 X44.66 Z-3.317
 X40.622 Z-2.478
 X40.454 Z-2.45
 X40.286 Z-2.431
 X40.117 Z-2.42
 X34.564 Z-2.051
 X34.396 Z-2.039
 X34.227 Z-2.034
 X34.059 Z-2.036
 X28.506 Z-2.404
 X28.252 Z-2.416
 X28.0 Z-2.441
 X27.749 Z-2.481
 X22.448 Z-3.583
 X22.192 Z-3.631
 X21.939 Z-3.695
 X21.691 Z-3.775
 X16.895 Z-5.594
 X16.631 Z-5.687
 X16.374 Z-5.798
 X16.125 Z-5.926
 X15.886 Z-6.071
 X12.352 Z-8.262
 X11.595 Z-8.732
 X11.417 Z-8.855
 X11.249 Z-8.991
 X11.09 Z-9.138
 X7.919 Z-12.386 F999800.0
 X7.903 Z-12.4 F9991300.0
 X7.808 Z-12.38
 X7.304 Z-12.302
 X6.799 Z-12.225
 X6.294 Z-12.159
 X6.081 Z-12.15
 X5.868 Z-12.156
 X5.655 Z-12.175
 X5.444 Z-12.209
 X5.236 Z-12.256
 X5.032 Z-12.317
 X3.517 Z-12.884
 X3.318 Z-12.966
 X3.125 Z-13.061
 X2.939 Z-13.169
 X2.76 Z-13.289
 X2.255 Z-13.691
 X1.246 Z-14.506
 X1.072 Z-14.651
 X0.909 Z-14.808
 X0.757 Z-14.975 F999800.0
 X0.617 Z-15.153
 X0.489 Z-15.339
 X-0.521 Z-16.78
 X-0.663 Z-16.986
 X-0.79 Z-17.201
 X-0.9 Z-17.426
 X-1.783 Z-19.412
 G3 X-6.783 Z-14.412 I0.0 K5.0 F9991300.0
 G1 X-6.577 Y41.544
 Z-14.482 F999800.0
 G2 X-1.577 Z-19.482 I5.0 K0.0 F9991300.0
 G1 X-0.693 Z-17.495
 X-0.583 Z-17.269
 X-0.457 Z-17.053
 X-0.314 Z-16.846
 X0.697 Z-15.406
 X0.825 Z-15.219
 X0.965 Z-15.041
 X1.118 Z-14.874
 X1.281 Z-14.717
 X1.455 Z-14.571
 X2.466 Z-13.757
 X2.971 Z-13.355
 X3.15 Z-13.234
 X3.336 Z-13.126
 X3.53 Z-13.031
 X3.729 Z-12.949
 X5.245 Z-12.383
 X5.456 Z-12.32
 X5.67 Z-12.272
 X5.887 Z-12.239
 X6.105 Z-12.22
 X6.325 Z-12.216
 X6.544 Z-12.227
 X6.762 Z-12.252
 X8.025 Z-12.446
 X8.207 Z-12.485
 X11.31 Z-9.307
 X11.469 Z-9.162
 X11.638 Z-9.029
 X11.816 Z-8.907
 X14.595 Z-7.184
 X16.112 Z-6.245
 X16.275 Z-6.145
 X16.443 Z-6.056
 X16.617 Z-5.977
 X17.628 Z-5.591
 X21.671 Z-4.057
 X21.837 Z-3.995
 X22.005 Z-3.941
 X22.176 Z-3.896
 X23.693 Z-3.58
 X27.736 Z-2.739
 X27.989 Z-2.694
 X28.241 Z-2.669
 X34.053 Z-2.284
 X34.18 Z-2.28
 X34.306 Z-2.282
 X35.317 Z-2.348
 X39.866 Z-2.65
 X40.371 Z-2.689
 X40.876 Z-2.784
 X46.183 Z-3.887
 X46.441 Z-3.955
 X46.694 Z-4.039
 X46.941 Z-4.139
 X51.743 Z-5.961
 X51.916 Z-6.038
 X52.085 Z-6.124
 X52.248 Z-6.221
 X56.544 Z-8.883
 X56.75 Z-9.023
 X56.946 Z-9.177
 X57.13 Z-9.345
 X57.302 Z-9.525 F999800.0
 X60.145 Z-12.435
 X60.587 Z-12.368 F9991300.0
 X61.092 Z-12.291
 X61.343 Z-12.248
 X61.596 Z-12.223
 X61.849 Z-12.215
 X62.103 Z-12.227
 X62.311 Z-12.251
 X62.516 Z-12.288
 X62.719 Z-12.338
 X62.919 Z-12.4
 X63.114 Z-12.475
 X64.378 Z-12.948
 X64.577 Z-13.03
 X64.77 Z-13.125
 X64.957 Z-13.233
 X65.136 Z-13.353
 X65.641 Z-13.755
 X66.778 Z-14.673
 X66.956 Z-14.838
 X67.121 Z-15.015 F999800.0
 X67.272 Z-15.204
 X67.41 Z-15.403
 X68.547 Z-17.026
 X68.64 Z-17.176
 X68.724 Z-17.331
 X68.8 Z-17.491
 X69.684 Z-19.477
 G2 X74.684 Z-14.477 I0.0 K5.0 F9991300.0
 G1 X74.426 Y43.132
 Z-14.499 F999800.0
 G3 X69.426 Z-19.499 I-5.0 K0.0 F9991300.0
 G1 X68.542 Z-17.52
 X68.466 Z-17.366
 X68.382 Z-17.216
 X68.289 Z-17.071
 X67.405 Z-15.817
 X67.026 Z-15.281
 X66.872 Z-15.087
 X66.703 Z-14.907
 X66.52 Z-14.739
 X65.383 Z-13.829
 X64.878 Z-13.431
 X64.699 Z-13.311
 X64.513 Z-13.204
 X64.319 Z-13.11
 X64.12 Z-13.029
 X62.856 Z-12.564
 X62.615 Z-12.474
 X62.367 Z-12.402
 X62.115 Z-12.35
 X61.859 Z-12.317
 X61.602 Z-12.304
 X61.344 Z-12.31
 X61.088 Z-12.336
 X59.824 Z-12.536
 X59.816 Z-12.537
 X59.808 Z-12.536
 X57.045 Z-9.704
 X56.9 Z-9.552
 X56.746 Z-9.409
 X56.583 Z-9.276
 X56.413 Z-9.154
 X53.254 Z-7.194
 X51.991 Z-6.411
 X51.827 Z-6.32
 X51.659 Z-6.239
 X51.486 Z-6.168
 X47.19 Z-4.538
 X46.432 Z-4.251
 X46.183 Z-4.173
 X45.93 Z-4.111
 X45.674 Z-4.064
 X40.62 Z-3.014
 X40.367 Z-2.966
 X40.115 Z-2.94
 X34.555 Z-2.57
 X34.387 Z-2.558
 X34.219 Z-2.554
 X34.05 Z-2.557
 X31.018 Z-2.758
 X28.238 Z-2.942
 X27.983 Z-2.971
 X27.73 Z-3.015
 X27.48 Z-3.074
 X22.426 Z-4.125
 X22.256 Z-4.162
 X22.087 Z-4.209
 X21.921 Z-4.265
 X16.867 Z-6.183
 X16.694 Z-6.257
 X16.525 Z-6.341
 X16.362 Z-6.435
 X12.066 Z-9.098
 X11.889 Z-9.217
 X11.72 Z-9.347
 X11.561 Z-9.489
 X8.533 Z-12.589 F999800.0
 X8.276 Z-12.535 F9991300.0
 X7.771 Z-12.454
 X7.013 Z-12.335
 X6.794 Z-12.311
 X6.575 Z-12.302
 X6.356 Z-12.308
 X6.137 Z-12.328
 X5.92 Z-12.363
 X5.706 Z-12.412
 X5.496 Z-12.476
 X3.98 Z-13.032
 X3.781 Z-13.114
 X3.588 Z-13.209
 X3.401 Z-13.317
 X3.222 Z-13.437
 X2.717 Z-13.836
 X1.706 Z-14.644
 X1.533 Z-14.788
 X1.369 Z-14.943
 X1.217 Z-15.11 F999800.0
 X1.076 Z-15.286
 X0.948 Z-15.471
 X0.19 Z-16.545
 X-0.189 Z-17.084
 X-0.282 Z-17.231
 X-0.366 Z-17.383
 X-0.442 Z-17.539
 X-1.326 Z-19.519
 G3 X-6.326 Z-14.519 I0.0 K5.0 F9991300.0
 G1 X-5.974 Y44.719
 Z-14.576 F999800.0
 G2 X-0.974 Z-19.576 I5.0 K0.0 F9991300.0
 G1 X-0.092 Z-17.622
 X-0.016 Z-17.47
 X0.068 Z-17.323
 X0.16 Z-17.181
 X0.538 Z-16.653
 X1.294 Z-15.598
 X1.422 Z-15.414
 X1.562 Z-15.24
 X1.714 Z-15.076
 X1.877 Z-14.923
 X2.05 Z-14.781
 X3.309 Z-13.794
 X3.493 Z-13.647
 X3.686 Z-13.513
 X3.889 Z-13.394
 X4.1 Z-13.29
 X4.317 Z-13.202
 X5.829 Z-12.678
 X6.074 Z-12.603
 X6.323 Z-12.547
 X6.575 Z-12.508
 X6.83 Z-12.489
 X7.085 Z-12.488
 X7.34 Z-12.505
 X7.593 Z-12.542
 X8.845 Z-12.752
 X8.853 Z-12.748
 X11.625 Z-9.904
 X11.782 Z-9.743
 X11.951 Z-9.592
 X12.129 Z-9.454
 X12.633 Z-9.132
 X16.161 Z-6.943
 X16.665 Z-6.634
 X16.828 Z-6.549
 X16.996 Z-6.473
 X17.168 Z-6.407
 X21.704 Z-4.684
 X21.95 Z-4.583
 X22.203 Z-4.499
 X22.46 Z-4.433
 X26.24 Z-3.646
 X28.004 Z-3.281
 X28.13 Z-3.262
 X28.256 Z-3.248
 X29.768 Z-3.147
 X34.051 Z-2.864
 X34.303
 X35.311 Z-2.931
 X40.099 Z-3.251
 X40.225 Z-3.265
 X40.351 Z-3.284
 X41.359 Z-3.493
 X45.894 Z-4.439
 X46.065 Z-4.482
 X46.233 Z-4.534
 X46.398 Z-4.595
 X48.918 Z-5.553
 X50.934 Z-6.321
 X51.198 Z-6.413
 X51.455 Z-6.524
 X51.703 Z-6.653
 X51.942 Z-6.798
 X54.462 Z-8.363
 X55.974 Z-9.302
 X56.179 Z-9.435
 X56.375 Z-9.584
 X56.558 Z-9.746
 X56.73 Z-9.921 F999800.0
 X59.454 Z-12.718
 X59.47 Z-12.717 F9991300.0
 X60.509 Z-12.543
 X60.762 Z-12.506
 X61.017 Z-12.488
 X61.272 Z-12.489
 X61.527 Z-12.508
 X61.78 Z-12.545
 X62.029 Z-12.602
 X62.273 Z-12.676
 X63.029 Z-12.939
 X63.785 Z-13.2
 X64.003 Z-13.288
 X64.213 Z-13.391
 X64.416 Z-13.51
 X64.61 Z-13.642
 X64.793 Z-13.789
 X66.053 Z-14.776
 X66.226 Z-14.917
 X66.388 Z-15.07
 X66.54 Z-15.233 F999800.0
 X66.681 Z-15.406
 X66.809 Z-15.589
 X67.943 Z-17.171
 X68.035 Z-17.312
 X68.119 Z-17.458
 X68.195 Z-17.608
 X68.573 Z-18.445
 X69.077 Z-19.562
 G2 X74.077 Z-14.562 I0.0 K5.0 F9991300.0
 G1 X73.476 Y46.307
 Z-14.663 F999800.0
 G3 X68.476 Z-19.663 I-5.0 K0.0 F9991300.0
 G1 X67.717 Z-17.992
 X67.613 Z-17.768
 X67.493 Z-17.552
 X67.359 Z-17.345
 X67.211 Z-17.148
 X66.957 Z-16.801
 X66.198 Z-15.766
 X66.068 Z-15.592
 X65.927 Z-15.428
 X65.774 Z-15.274
 X65.611 Z-15.131
 X65.439 Z-15.0
 X64.426 Z-14.236
 X63.92 Z-13.856
 X63.74 Z-13.741
 X63.553 Z-13.639
 X63.359 Z-13.549
 X63.16 Z-13.473
 X61.895 Z-13.043
 X61.652 Z-12.956
 X61.404 Z-12.886
 X61.152 Z-12.832
 X60.897 Z-12.797
 X60.64 Z-12.779
 X60.382 Z-12.778
 X60.125 Z-12.796
 X59.87 Z-12.831
 X58.992 Z-12.981
 X58.984 Z-12.976
 X56.326 Z-10.237
 X56.168 Z-10.075
 X55.999 Z-9.924
 X55.819 Z-9.785
 X55.313 Z-9.462
 X52.276 Z-7.565
 X51.516 Z-7.087
 X51.353 Z-6.99
 X51.184 Z-6.903
 X51.01 Z-6.826
 X47.719 Z-5.565
 X46.2 Z-4.977
 X46.035 Z-4.914
 X45.866 Z-4.859
 X45.694 Z-4.814
 X43.669 Z-4.38
 X40.631 Z-3.741
 X40.125 Z-3.64
 X39.619 Z-3.595
 X39.113 Z-3.559
 X37.087 Z-3.418
 X34.303 Z-3.229
 X34.049 Z-3.223
 X33.796 Z-3.232
 X33.544 Z-3.255
 X33.037 Z-3.289
 X28.481 Z-3.586
 X28.311 Z-3.598
 X28.142 Z-3.617
 X27.975 Z-3.645
 X22.912 Z-4.697
 X22.655 Z-4.746
 X22.401 Z-4.811
 X22.152 Z-4.893
 X17.343 Z-6.722
 X17.17 Z-6.789
 X17.001 Z-6.867
 X16.837 Z-6.955
 X14.305 Z-8.525
 X12.533 Z-9.626
 X12.355 Z-9.749
 X12.186 Z-9.884
 X12.027 Z-10.03
 X9.749 Z-12.368 F999800.0
 X9.148 Z-12.986
 X8.23 Z-12.829 F9991300.0
 X7.977 Z-12.796
 X7.723 Z-12.779
 X7.468 Z-12.78
 X7.214 Z-12.797
 X6.961 Z-12.832
 X6.711 Z-12.884
 X6.205 Z-13.046
 X4.939 Z-13.476
 X4.74 Z-13.553
 X4.547 Z-13.644
 X4.36 Z-13.747
 X4.18 Z-13.862
 X2.661 Z-15.007
 X2.487 Z-15.14
 X2.323 Z-15.285
 X2.17 Z-15.442 F999800.0
 X2.028 Z-15.609
 X1.649 Z-16.123
 X0.889 Z-17.161
 X0.74 Z-17.36
 X0.606 Z-17.568
 X0.486 Z-17.786
 X0.383 Z-18.012
 X-0.377 Z-19.683
 G3 X-5.377 Z-14.683 I0.0 K5.0 F9991300.0
 G1 X-4.632 Y47.894
 Z-14.922 F999800.0
 G2 X0.368 Z-19.922 I5.0 K0.0 F9991300.0
 G1 X1.128 Z-18.269
 X1.233 Z-18.051
 X1.353 Z-17.84
 X1.487 Z-17.637
 X1.635 Z-17.445
 X2.775 Z-15.91
 X2.917 Z-15.746
 X3.07 Z-15.592
 X3.234 Z-15.449
 X3.408 Z-15.319
 X4.674 Z-14.374
 X4.86 Z-14.233
 X5.055 Z-14.105
 X5.259 Z-13.991
 X5.47 Z-13.892
 X5.688 Z-13.807
 X6.954 Z-13.388
 X7.199 Z-13.3
 X7.449 Z-13.228
 X7.704 Z-13.171
 X7.961 Z-13.131
 X8.22 Z-13.107
 X8.477 Z-13.102
 X8.733 Z-13.11
 X8.989 Z-13.132
 X9.243 Z-13.167
 X9.495 Z-13.215
 X9.503 Z-13.213
 X12.273 Z-10.364
 X12.432 Z-10.214
 X12.601 Z-10.076
 X12.78 Z-9.95
 X13.54 Z-9.476
 X16.579 Z-7.586
 X17.086 Z-7.276
 X17.251 Z-7.192
 X17.42 Z-7.117
 X17.592 Z-7.051
 X22.152 Z-5.316
 X22.318 Z-5.252
 X22.487 Z-5.198
 X22.658 Z-5.153
 X24.178 Z-4.837
 X27.978 Z-4.05
 X28.229 Z-4.01
 X28.483 Z-3.984
 X28.737 Z-3.973
 X33.803 Z-3.654
 X34.057 Z-3.646
 X34.31 Z-3.658
 X39.376 Z-4.033
 X39.883 Z-4.077
 X40.389 Z-4.18
 X44.948 Z-5.183
 X45.206 Z-5.233
 X45.459 Z-5.299
 X45.708 Z-5.381
 X46.468 Z-5.676
 X47.481 Z-6.076
 X50.521 Z-7.283
 X50.695 Z-7.359
 X50.864 Z-7.446
 X51.028 Z-7.543
 X52.547 Z-8.504
 X55.08 Z-10.13
 X55.259 Z-10.252
 X55.428 Z-10.386
 X55.587 Z-10.532
 X56.093 Z-11.063 F999800.0
 X57.107 Z-12.126
 X58.215 Z-13.277
 X58.247 Z-13.273 F9991300.0
 X59.133 Z-13.136
 X59.387 Z-13.11
 X59.642 Z-13.101
 X59.897 Z-13.108
 X60.152 Z-13.132
 X60.404 Z-13.172
 X60.653 Z-13.229
 X61.159 Z-13.39
 X62.426 Z-13.809
 X62.643 Z-13.894
 X62.854 Z-13.994
 X63.058 Z-14.108
 X63.253 Z-14.236
 X63.439 Z-14.377
 X64.706 Z-15.323
 X64.878 Z-15.453
 X65.041 Z-15.594
 X65.194 Z-15.747 F999800.0
 X65.336 Z-15.911
 X65.465 Z-16.084
 X66.479 Z-17.451
 X66.628 Z-17.644
 X66.762 Z-17.847
 X66.882 Z-18.059
 X66.985 Z-18.279
 X67.745 Z-19.932
 G2 X72.745 Z-14.932 I0.0 K5.0 F9991300.0
 G1 X71.932 Y49.482
 Z-15.239 F999800.0
 G3 X66.932 Z-20.239 I-5.0 K0.0 F9991300.0
 G1 X66.173 Z-18.589
 X66.07 Z-18.372
 X65.95 Z-18.164
 X65.816 Z-17.964
 X65.668 Z-17.776
 X64.656 Z-16.423
 X64.526 Z-16.251
 X64.385 Z-16.089
 X64.232 Z-15.936
 X64.07 Z-15.795
 X63.897 Z-15.666
 X62.886 Z-14.915
 X62.38 Z-14.541
 X62.2 Z-14.425
 X62.013 Z-14.32
 X61.82 Z-14.227
 X61.621 Z-14.148
 X60.357 Z-13.722
 X59.032 Z-13.267
 X57.827 Z-13.432
 X57.56 Z-13.463
 X57.291 Z-13.479
 X57.021 Z-13.48
 X57.013 Z-13.476
 X55.298 Z-11.644
 X54.792 Z-11.105
 X54.634 Z-10.958
 X54.466 Z-10.823
 X54.287 Z-10.702
 X51.252 Z-8.701
 X50.746 Z-8.36
 X50.24 Z-8.03
 X50.114 Z-7.963
 X49.987 Z-7.904
 X47.205 Z-6.763
 X45.688 Z-6.124
 X45.441 Z-6.014
 X45.188 Z-5.92
 X44.929 Z-5.842
 X43.159 Z-5.422
 X42.147 Z-5.183
 X40.124 Z-4.72
 X39.618 Z-4.613
 X39.112 Z-4.564
 X36.583 Z-4.351
 X35.065 Z-4.23
 X34.054 Z-4.151
 X33.801 Z-4.148
 X33.042 Z-4.193
 X28.49 Z-4.465
 X28.32 Z-4.476
 X28.151 Z-4.496
 X27.984 Z-4.524
 X22.926 Z-5.569
 X22.755 Z-5.605
 X22.586 Z-5.651
 X22.42 Z-5.706
 X18.373 Z-7.248
 X17.614 Z-7.538
 X17.488 Z-7.593
 X17.361 Z-7.655
 X16.856 Z-7.96
 X15.844 Z-8.591
 X13.821 Z-9.853
 X13.062 Z-10.326
 X12.883 Z-10.453
 X12.715 Z-10.592
 X12.556 Z-10.743
 X9.988 Z-13.391 F999800.0
 X8.841 Z-13.289 F9991300.0
 X7.751 Z-13.716
 X6.739 Z-14.058
 X6.525 Z-14.129
 X6.317 Z-14.212
 X6.113 Z-14.309
 X5.917 Z-14.418
 X5.728 Z-14.54
 X4.716 Z-15.288
 X4.21 Z-15.667
 X4.037 Z-15.797
 X3.873 Z-15.94
 X3.72 Z-16.094 F999800.0
 X3.578 Z-16.258
 X2.44 Z-17.777
 X2.292 Z-17.968
 X2.159 Z-18.167
 X2.039 Z-18.376
 X1.934 Z-18.592
 X1.175 Z-20.243
 G3 X-3.825 Z-15.243 I0.0 K5.0 F9991300.0
 G1 X-2.951 Y51.069
 Z-15.586 F999800.0
 G2 X2.049 Z-20.586 I5.0 K0.0 F9991300.0
 G1 X2.805 Z-18.951
 X2.909 Z-18.733
 X3.028 Z-18.523
 X3.161 Z-18.322
 X3.309 Z-18.131
 X4.443 Z-16.606
 X4.583 Z-16.439
 X4.736 Z-16.283
 X4.899 Z-16.139
 X5.073 Z-16.008
 X6.081 Z-15.26
 X6.585 Z-14.868
 X6.818 Z-14.712
 X7.063 Z-14.573
 X7.316 Z-14.451
 X7.577 Z-14.348
 X7.845 Z-14.263
 X8.185 Z-14.14
 X8.521 Z-14.006
 X8.853 Z-13.861
 X9.11 Z-13.754
 X9.373 Z-13.663
 X9.641 Z-13.589
 X9.913 Z-13.531
 X10.188 Z-13.491
 X10.465 Z-13.467
 X10.743 Z-13.461
 X10.759 Z-13.446
 X11.625 Z-12.547
 X12.885 Z-11.235
 X13.043 Z-11.083
 X13.211 Z-10.944
 X13.389 Z-10.818
 X14.649 Z-10.019
 X16.161 Z-9.069
 X17.421 Z-8.278
 X17.665 Z-8.147
 X17.918 Z-8.033
 X18.177 Z-7.938
 X19.186 Z-7.546
 X22.21 Z-6.384
 X22.714 Z-6.201
 X23.218 Z-6.087
 X27.25 Z-5.248
 X28.006 Z-5.09
 X28.256 Z-5.053
 X28.509 Z-5.03
 X28.762 Z-5.02
 X33.298 Z-4.756
 X33.802 Z-4.734
 X34.306 Z-4.771
 X36.322 Z-4.952
 X38.842 Z-5.176
 X39.346 Z-5.229
 X39.85 Z-5.344
 X41.362 Z-5.721
 X44.387 Z-6.465
 X44.639 Z-6.537
 X44.891 Z-6.634
 X47.411 Z-7.727
 X48.419 Z-8.175
 X48.923 Z-8.399
 X49.427 Z-8.63
 X49.553 Z-8.7
 X49.679 Z-8.78
 X50.939 Z-9.65
 X51.947 Z-10.349
 X52.955 Z-11.064
 X53.459 Z-11.423
 X53.626 Z-11.553
 X53.785 Z-11.693
 X53.934 Z-11.844 F999800.0
 X54.073 Z-12.004
 X54.215 Z-12.113 F9991300.0
 X54.947 Z-12.686
 X54.971 Z-12.696
 X55.601 Z-12.983
 X55.808 Z-13.069
 X56.018 Z-13.147
 X56.231 Z-13.217
 X56.483 Z-13.317
 X56.677 Z-13.388
 X56.876 Z-13.441
 X57.079 Z-13.476
 X57.285 Z-13.492
 X57.491 Z-13.489
 X57.751 Z-13.505
 X58.01 Z-13.535
 X58.266 Z-13.579
 X58.52 Z-13.639
 X58.77 Z-13.712
 X59.015 Z-13.8
 X59.255 Z-13.901
 X59.507 Z-13.998
 X60.011 Z-14.185
 X60.354 Z-14.295
 X60.69 Z-14.423
 X61.019 Z-14.57
 X61.193 Z-14.663
 X61.361 Z-14.766
 X61.523 Z-14.879
 X62.027 Z-15.264
 X63.035 Z-16.008
 X63.209 Z-16.139
 X63.372 Z-16.282
 X63.525 Z-16.438 F999800.0
 X63.665 Z-16.603
 X64.043 Z-17.11
 X64.799 Z-18.126
 X64.948 Z-18.316
 X65.081 Z-18.516
 X65.2 Z-18.726
 X65.303 Z-18.943
 X66.059 Z-20.58
 G2 X71.059 Z-15.58 I0.0 K5.0 F9991300.0
 G1 X70.098 Y52.657
 Z-15.88 F999800.0
 G3 X65.098 Z-20.88 I-5.0 K0.0 F9991300.0
 G1 X64.341 Z-19.251
 X64.237 Z-19.034
 X64.118 Z-18.825
 X63.984 Z-18.626
 X63.836 Z-18.436
 X63.079 Z-17.419
 X62.826 Z-17.084
 X62.688 Z-16.896
 X62.536 Z-16.718
 X62.371 Z-16.553
 X62.195 Z-16.399
 X61.564 Z-15.919
 X61.059 Z-15.541
 X60.807 Z-15.349
 X60.621 Z-15.192
 X60.427 Z-15.046
 X60.224 Z-14.912
 X60.014 Z-14.789
 X59.797 Z-14.679
 X59.343 Z-14.501
 X58.897 Z-14.304
 X58.459 Z-14.091
 X58.03 Z-13.86
 X57.784 Z-13.738
 X57.534 Z-13.627
 X57.279 Z-13.526
 X57.02 Z-13.436
 X56.77 Z-13.341
 X56.517 Z-13.251
 X56.263 Z-13.168
 X56.247 Z-13.161
 X55.0 Z-12.413
 X54.495 Z-12.126
 X52.476 Z-11.089
 X52.124 Z-10.926
 X51.766 Z-10.777
 X51.403 Z-10.643
 X49.194 Z-9.329
 X48.949 Z-9.198
 X48.696 Z-9.083
 X48.436 Z-8.985
 X47.427 Z-8.567
 X46.417 Z-8.149
 X45.407 Z-7.716
 X44.397 Z-7.285
 X44.271 Z-7.239
 X44.145 Z-7.2
 X42.883 Z-6.883
 X39.348 Z-5.986
 X39.096 Z-5.933
 X38.843 Z-5.903
 X37.833 Z-5.81
 X34.299 Z-5.483
 X34.048 Z-5.454
 X33.795 Z-5.438
 X33.542 Z-5.436
 X28.745 Z-5.733
 X28.491 Z-5.743
 X28.239 Z-5.768
 X27.988 Z-5.806
 X24.706 Z-6.517
 X23.191 Z-6.847
 X23.021 Z-6.883
 X22.853 Z-6.927
 X22.686 Z-6.979
 X21.172 Z-7.567
 X18.142 Z-8.754
 X17.944 Z-8.833
 X17.752 Z-8.923
 X17.565 Z-9.024
 X17.385 Z-9.137
 X16.627 Z-9.583
 X14.103 Z-11.073
 X13.598 Z-11.36
 X13.093 Z-11.671
 X12.842 Z-11.84
 X12.6 Z-12.023
 X12.368 Z-12.218
 X12.146 Z-12.424
 X12.083 Z-12.48
 X11.578 Z-12.866
 X11.073 Z-13.27
 X10.987 Z-13.341
 X10.618 Z-13.488
 X10.256 Z-13.652
 X9.903 Z-13.834
 X9.559 Z-14.032
 X9.314 Z-14.184
 X9.061 Z-14.322
 X8.801 Z-14.446
 X8.564 Z-14.533
 X8.332 Z-14.635
 X8.107 Z-14.75
 X7.889 Z-14.878
 X7.679 Z-15.02
 X7.478 Z-15.173
 X7.287 Z-15.339
 X7.034 Z-15.538
 X6.529 Z-15.923
 X6.277 Z-16.119
 X6.084 Z-16.257
 X5.899 Z-16.406
 X5.725 Z-16.566
 X5.561 Z-16.738 F999800.0
 X5.408 Z-16.919
 X5.267 Z-17.109
 X5.015 Z-17.445
 X4.257 Z-18.469
 X4.109 Z-18.664
 X3.975 Z-18.869
 X3.856 Z-19.083
 X3.752 Z-19.305
 X2.995 Z-20.928
 G3 X-2.005 Z-15.928 I0.0 K5.0 F9991300.0
 G1 X-0.971 Y54.244
 Z-16.253 F999800.0
 G2 X4.029 Z-21.253 I5.0 K0.0 F9991300.0
 G1 X4.911 Z-19.391
 X5.023 Z-19.185
 X5.149 Z-18.987
 X5.29 Z-18.8
 X5.542 Z-18.454
 X6.046 Z-17.775
 X6.551 Z-17.106
 X6.719 Z-16.908
 X6.903 Z-16.723
 X7.099 Z-16.552
 X7.307 Z-16.396
 X7.559 Z-16.187
 X8.82 Z-15.103
 X9.063 Z-14.922
 X9.316 Z-14.754
 X9.577 Z-14.6
 X9.829 Z-14.446
 X9.955 Z-14.365
 X11.09 Z-13.53
 X11.594 Z-13.177
 X12.603 Z-12.517
 X13.107 Z-12.194
 X14.62 Z-11.236
 X14.783 Z-11.133
 X14.952 Z-11.04
 X15.125 Z-10.957
 X16.134 Z-10.507
 X17.142 Z-10.063
 X17.402 Z-9.952
 X17.657 Z-9.83
 X17.907 Z-9.698
 X18.151 Z-9.557
 X18.315 Z-9.475
 X18.483 Z-9.403
 X18.655 Z-9.341
 X19.916 Z-8.921
 X20.168 Z-8.83
 X22.942 Z-7.79
 X23.069 Z-7.751
 X23.195 Z-7.718
 X27.734 Z-6.723
 X28.238 Z-6.619
 X28.743 Z-6.576
 X32.273 Z-6.335
 X33.282 Z-6.268
 X33.45 Z-6.256
 X33.618 Z-6.253
 X33.786 Z-6.259
 X34.795 Z-6.351
 X35.804 Z-6.443
 X38.83 Z-6.718
 X38.956 Z-6.735
 X39.082 Z-6.759
 X40.343 Z-7.066
 X43.874 Z-7.914
 X44.045 Z-7.963
 X44.213 Z-8.021
 X44.378 Z-8.088
 X45.891 Z-8.692
 X46.143 Z-8.781
 X48.413 Z-9.558
 X48.917 Z-9.778
 X49.926 Z-10.231
 X50.935 Z-10.69
 X51.439 Z-10.921
 X51.943 Z-11.122
 X52.448 Z-11.358
 X52.952 Z-11.599
 X53.457 Z-11.848
 X53.961 Z-12.115
 X54.465 Z-12.389
 X55.474 Z-12.905
 X55.978 Z-13.176
 X56.483 Z-13.469
 X57.996 Z-14.396
 X58.248 Z-14.531
 X58.512 Z-14.666
 X58.769 Z-14.814
 X59.017 Z-14.976
 X59.257 Z-15.151
 X60.77 Z-16.377
 X60.977 Z-16.526
 X61.173 Z-16.691
 X61.356 Z-16.869
 X61.526 Z-17.06 F999800.0
 X62.031 Z-17.722
 X62.535 Z-18.394
 X62.787 Z-18.734
 X62.935 Z-18.924
 X63.069 Z-19.124
 X63.188 Z-19.333
 X63.292 Z-19.55
 X64.048 Z-21.156
 G2 X69.048 Z-16.156 I0.0 K5.0 F9991300.0
 G1 X67.845 Y55.832
 Z-16.343 F999800.0
 G3 X62.845 Z-21.343 I-5.0 K0.0 F9991300.0
 G1 X62.339 Z-20.284
 X62.086 Z-19.76
 X61.982 Z-19.55
 X61.862 Z-19.349
 X61.728 Z-19.157
 X61.581 Z-18.976
 X60.822 Z-18.006
 X60.317 Z-17.317
 X60.162 Z-17.119
 X59.993 Z-16.933
 X59.811 Z-16.76
 X59.306 Z-16.336
 X57.789 Z-15.076
 X57.548 Z-14.878
 X57.299 Z-14.69
 X57.042 Z-14.513
 X56.778 Z-14.347
 X55.514 Z-13.627
 X55.261 Z-13.472
 X54.894 Z-13.237
 X54.519 Z-13.016
 X54.135 Z-12.809
 X53.744 Z-12.616
 X52.227 Z-11.824
 X51.722 Z-11.569
 X51.216 Z-11.359
 X50.205 Z-10.945
 X49.194 Z-10.534
 X48.436 Z-10.229
 X48.183 Z-10.122
 X47.677 Z-9.958
 X45.655 Z-9.318
 X45.149 Z-9.156
 X44.138 Z-8.795
 X43.972 Z-8.734
 X43.804 Z-8.681
 X43.633 Z-8.637
 X42.116 Z-8.295
 X40.599 Z-7.954
 X39.082 Z-7.631
 X38.83 Z-7.585
 X38.577 Z-7.559
 X35.038 Z-7.244
 X34.027 Z-7.155
 X33.859 Z-7.14
 X33.69 Z-7.134
 X33.521 Z-7.137
 X28.971 Z-7.452
 X28.465 Z-7.494
 X27.96 Z-7.59
 X27.454 Z-7.691
 X24.926 Z-8.216
 X23.662 Z-8.479
 X23.536 Z-8.51
 X23.41 Z-8.548
 X21.387 Z-9.244
 X20.882 Z-9.406
 X19.365 Z-9.881
 X19.112 Z-9.97
 X18.859 Z-10.084
 X18.354 Z-10.321
 X18.101 Z-10.439
 X17.343 Z-10.752
 X15.826 Z-11.38
 X15.7 Z-11.439
 X15.573 Z-11.505
 X14.815 Z-11.92
 X14.309 Z-12.2
 X13.804 Z-12.487
 X13.544 Z-12.63
 X13.291 Z-12.785
 X13.045 Z-12.949
 X12.16 Z-13.638
 X12.034 Z-13.724
 X11.781 Z-13.887
 X11.422 Z-14.114
 X11.071 Z-14.353
 X10.729 Z-14.605
 X10.396 Z-14.869
 X10.072 Z-15.145
 X9.759 Z-15.432
 X8.242 Z-16.807
 X8.116 Z-16.931
 X7.944 Z-17.127 F999800.0
 X7.781 Z-17.33
 X7.627 Z-17.541
 X7.484 Z-17.758
 X7.231 Z-18.1
 X6.473 Z-19.083
 X6.346 Z-19.248
 X6.22 Z-19.437
 X5.967 Z-19.929
 X5.714 Z-20.453
 X5.209 Z-21.511
 G3 X0.209 Z-16.511 I0.0 K5.0 F9991300.0
 G1 X1.594 Y57.419
 Z-16.878 F999800.0
 G2 X6.594 Z-21.878 I5.0 K0.0 F9991300.0
 G1 X7.609 Z-19.787
 X7.718 Z-19.587
 X7.84 Z-19.394
 X7.973 Z-19.209
 X8.116 Z-19.032
 X8.877 Z-18.054
 X9.131 Z-17.719
 X9.329 Z-17.435
 X9.54 Z-17.161
 X9.765 Z-16.898
 X9.892 Z-16.765
 X10.146 Z-16.526
 X10.653 Z-16.058
 X10.906 Z-15.833
 X11.667 Z-15.195
 X12.682 Z-14.313
 X12.87 Z-14.153
 X13.066 Z-14.002
 X13.269 Z-13.862
 X13.48 Z-13.733
 X13.697 Z-13.614
 X15.219 Z-12.77
 X15.472 Z-12.622
 X15.717 Z-12.47
 X15.971 Z-12.333
 X16.233 Z-12.213
 X19.531 Z-10.778
 X19.784 Z-10.685
 X22.321 Z-9.874
 X23.843 Z-9.381
 X23.969 Z-9.344
 X24.096 Z-9.314
 X25.872 Z-8.962
 X28.662 Z-8.411
 X28.789 Z-8.393
 X28.916 Z-8.381
 X32.467 Z-8.143
 X33.481 Z-8.074
 X33.65 Z-8.063
 X33.82
 X33.989 Z-8.072
 X36.525 Z-8.29
 X38.554 Z-8.457
 X38.808 Z-8.483
 X39.062 Z-8.531
 X41.091 Z-8.96
 X43.12 Z-9.384
 X43.627 Z-9.493
 X44.135 Z-9.652
 X47.686 Z-10.804
 X48.193 Z-10.976
 X51.744 Z-12.461
 X52.252 Z-12.705
 X52.759 Z-12.963
 X53.266 Z-13.227
 X53.773 Z-13.498
 X54.281 Z-13.779
 X54.788 Z-14.075
 X55.295 Z-14.459
 X56.817 Z-15.632
 X57.325 Z-16.025
 X57.578 Z-16.225
 X57.818 Z-16.415
 X58.047 Z-16.618
 X58.266 Z-16.833
 X58.472 Z-17.06 F999800.0
 X58.666 Z-17.297
 X58.847 Z-17.544
 X59.354 Z-18.193
 X60.115 Z-19.145
 X60.265 Z-19.327
 X60.4 Z-19.521
 X60.519 Z-19.724
 X60.622 Z-19.937
 X60.876 Z-20.465
 X61.383 Z-21.531
 G2 X66.383 Z-16.531 I0.0 K5.0 F9991300.0
 G1 X64.628 Y59.007
 Z-16.691 F999800.0
 G3 X59.628 Z-21.691 I-5.0 K0.0 F9991300.0
 G1 X59.124 Z-20.706
 X58.62 Z-19.745
 X58.512 Z-19.558
 X58.391 Z-19.377
 X58.259 Z-19.205
 X58.116 Z-19.042
 X56.605 Z-17.287
 X56.101 Z-16.698
 X55.923 Z-16.489
 X55.732 Z-16.29
 X55.53 Z-16.104
 X55.316 Z-15.93
 X55.093 Z-15.77
 X54.589 Z-15.406
 X53.581 Z-14.683
 X53.329 Z-14.515
 X52.573 Z-14.086
 X52.322 Z-13.946
 X52.07 Z-13.828
 X50.81 Z-13.281
 X50.558 Z-13.16
 X48.542 Z-12.148
 X48.378 Z-12.064
 X48.21 Z-11.988
 X48.038 Z-11.92
 X47.03 Z-11.593
 X44.007 Z-10.566
 X43.503 Z-10.406
 X42.999 Z-10.299
 X38.968 Z-9.456
 X38.716 Z-9.412
 X38.464 Z-9.388
 X34.433 Z-9.076
 X33.929 Z-9.039
 X33.677 Z-9.042
 X31.409 Z-9.189
 X29.142 Z-9.336
 X28.888 Z-9.366
 X28.635 Z-9.409
 X28.386 Z-9.467
 X24.859 Z-10.18
 X24.355 Z-10.284
 X23.851 Z-10.445
 X21.835 Z-11.14
 X20.071 Z-11.709
 X19.945 Z-11.753
 X19.819 Z-11.804
 X19.316 Z-12.061
 X18.308 Z-12.588
 X16.292 Z-13.496
 X16.04 Z-13.615
 X15.788 Z-13.761
 X14.78 Z-14.385
 X14.528 Z-14.548
 X14.276 Z-14.739
 X12.765 Z-15.901
 X12.563 Z-16.071
 X12.369 Z-16.25
 X12.184 Z-16.438 F999800.0
 X12.009 Z-16.636
 X10.749 Z-18.171
 X9.993 Z-19.091
 X9.85 Z-19.26
 X9.717 Z-19.437
 X9.597 Z-19.623
 X9.489 Z-19.817
 X9.237 Z-20.3
 X8.482 Z-21.767
 X8.23 Z-22.268
 G3 X3.23 Z-17.268 I0.0 K5.0 F9991300.0
 G1 X5.053 Y60.594
 Z-18.271 F999800.0
 G2 X10.053 Z-23.271 I5.0 K0.0 F9991300.0
 G1 X10.18 Z-22.861
 X10.307 Z-22.506
 X10.56 Z-22.053
 X11.067 Z-21.182
 X12.08 Z-19.407
 X12.19 Z-19.227
 X12.312 Z-19.054
 X12.444 Z-18.89
 X12.587 Z-18.734
 X14.108 Z-17.14
 X15.121 Z-16.086
 X15.628 Z-15.58
 X15.785 Z-15.432
 X15.954 Z-15.299
 X16.135 Z-15.182
 X17.655 Z-14.316
 X18.162 Z-14.03
 X18.669 Z-13.752
 X19.176 Z-13.481
 X19.683 Z-13.215
 X20.19 Z-12.953
 X20.523 Z-12.816
 X20.861 Z-12.689
 X21.203 Z-12.574
 X24.498 Z-11.389
 X24.624 Z-11.351
 X24.751 Z-11.32
 X26.778 Z-10.906
 X28.806 Z-10.481
 X29.059 Z-10.431
 X29.312 Z-10.402
 X30.833 Z-10.303
 X33.367 Z-10.131
 X33.874 Z-10.108
 X34.381 Z-10.138
 X37.422 Z-10.333
 X38.435 Z-10.405
 X38.562 Z-10.419
 X38.689 Z-10.439
 X40.463 Z-10.796
 X41.983 Z-11.104
 X42.997 Z-11.312
 X43.25 Z-11.372
 X43.504 Z-11.455
 X46.545 Z-12.519
 X47.558 Z-12.88
 X47.903 Z-13.027
 X48.241 Z-13.189
 X48.572 Z-13.366
 X49.079 Z-13.637
 X50.599 Z-14.473
 X51.613 Z-15.031
 X52.12 Z-15.318
 X52.299 Z-15.446
 X52.469 Z-15.588
 X52.626 Z-15.742
 X53.133 Z-16.236
 X53.64 Z-16.736
 X55.414 Z-18.524 F999800.0
 X55.594 Z-18.704
 X55.76 Z-18.896
 X55.913 Z-19.1
 X56.051 Z-19.314
 X56.174 Z-19.537
 X56.681 Z-20.448
 X57.188 Z-21.343
 X57.695 Z-22.23
 G2 X62.695 Z-17.23 I0.0 K5.0 F9991300.0
 G1 X61.441 Y62.182
 Z-19.565 F999800.0
 G3 X56.441 Z-24.565 I-5.0 K0.0 F9991300.0
 G1 X56.187 Z-23.711
 X56.06 Z-23.288
 X55.933 Z-22.877
 X55.87 Z-22.72
 X55.735 Z-22.451
 X55.586 Z-22.19
 X55.425 Z-21.936
 X54.155 Z-19.763
 X54.047 Z-19.565
 X53.926 Z-19.375
 X53.792 Z-19.193
 X53.646 Z-19.022
 X52.376 Z-17.746
 X51.359 Z-16.73
 X50.851 Z-16.237
 X50.724 Z-16.138
 X50.597 Z-16.051
 X49.835 Z-15.592
 X48.31 Z-14.679
 X47.294 Z-14.063
 X47.13 Z-13.965
 X46.961 Z-13.878
 X46.786 Z-13.803
 X43.228 Z-12.499
 X42.72 Z-12.324
 X42.212 Z-12.216
 X41.195 Z-12.015
 X39.163 Z-11.612
 X38.4 Z-11.461
 X38.273 Z-11.442
 X38.146 Z-11.429
 X34.589 Z-11.221
 X34.251 Z-11.193
 X33.912 Z-11.179
 X33.572 Z-11.18
 X29.507 Z-11.482
 X29.336 Z-11.494
 X29.167 Z-11.514
 X28.998 Z-11.543
 X26.966 Z-11.986
 X24.933 Z-12.427
 X24.76 Z-12.475
 X24.591 Z-12.532
 X24.425 Z-12.599
 X22.392 Z-13.395
 X20.867 Z-13.995
 X20.692 Z-14.076
 X20.522 Z-14.169
 X20.359 Z-14.273
 X18.834 Z-15.243
 X17.31 Z-16.216
 X17.129 Z-16.344
 X16.959 Z-16.486
 X16.802 Z-16.642
 X16.293 Z-17.178 F999800.0
 X14.515 Z-19.044
 X14.372 Z-19.189
 X14.24 Z-19.343
 X14.118 Z-19.505
 X14.006 Z-19.675
 X12.228 Z-22.719
 X12.127 Z-22.912
 X12.043 Z-23.113
 X11.974 Z-23.32
 X11.211 Z-25.695
 G3 X6.211 Z-20.695 I0.0 K5.0 F9991300.0
 G1 X7.121 Y63.769
 Z-21.147 F999800.0
 G2 X12.121 Z-26.147 I5.0 K0.0 F9991300.0
 G1 X12.877 Z-23.739
 X12.947 Z-23.547
 X13.031 Z-23.36
 X13.129 Z-23.18
 X14.64 Z-20.542
 X14.892 Z-20.124
 X15.018 Z-19.956
 X15.144 Z-19.811
 X16.151 Z-18.733
 X17.536 Z-17.255
 X17.682 Z-17.121
 X17.836 Z-16.996
 X17.998 Z-16.881
 X18.166 Z-16.776
 X21.062 Z-14.903
 X21.185 Z-14.835
 X21.311 Z-14.772
 X21.44 Z-14.715
 X24.966 Z-13.316
 X25.214 Z-13.234
 X25.466 Z-13.168
 X25.722 Z-13.117
 X28.744 Z-12.457
 X28.992 Z-12.395
 X29.243 Z-12.347
 X29.496 Z-12.313
 X29.751 Z-12.293
 X33.277 Z-12.041
 X33.529 Z-12.022
 X33.781 Z-12.016
 X34.033 Z-12.024
 X34.285 Z-12.046
 X37.307 Z-12.243
 X37.811 Z-12.277
 X38.063 Z-12.3
 X38.314 Z-12.343
 X41.84 Z-13.089
 X42.097 Z-13.14
 X42.349 Z-13.209
 X42.596 Z-13.297
 X45.366 Z-14.37
 X46.122 Z-14.658
 X46.248 Z-14.714
 X46.374 Z-14.777
 X46.878 Z-15.088
 X47.885 Z-15.73
 X48.389 Z-16.048
 X49.648 Z-16.838
 X49.827 Z-16.97
 X49.996 Z-17.115
 X50.152 Z-17.274 F999800.0
 X51.915 Z-19.12
 X52.418 Z-19.652
 X52.563 Z-19.811
 X52.696 Z-19.98
 X52.816 Z-20.158
 X52.922 Z-20.345
 X54.433 Z-22.955
 X54.552 Z-23.159
 X54.655 Z-23.372
 X54.742 Z-23.592
 X54.811 Z-23.818
 X55.441 Z-25.837
 G2 X60.441 Z-20.837 I0.0 K5.0 F9991300.0
 G1 X59.688 Y65.357
 Z-21.472 F999800.0
 G3 X54.688 Z-26.472 I-5.0 K0.0 F9991300.0
 G1 X54.184 Z-24.845
 X53.932 Z-24.039
 X53.86 Z-23.853
 X53.776 Z-23.672
 X53.68 Z-23.497
 X53.177 Z-22.609
 X52.169 Z-20.826
 X52.056 Z-20.635
 X51.93 Z-20.452
 X51.791 Z-20.279
 X50.657 Z-19.054
 X49.65 Z-17.96
 X49.493 Z-17.788
 X49.325 Z-17.627
 X49.146 Z-17.478
 X48.642 Z-17.138
 X47.131 Z-16.143
 X46.123 Z-15.486
 X45.961 Z-15.387
 X45.793 Z-15.299
 X45.619 Z-15.221
 X43.604 Z-14.407
 X42.596 Z-14.003
 X42.352 Z-13.899
 X42.102 Z-13.812
 X41.847 Z-13.74
 X41.589 Z-13.684
 X41.085 Z-13.568
 X38.566 Z-13.008
 X38.316 Z-12.947
 X38.064 Z-12.899
 X37.81 Z-12.865
 X37.054 Z-12.809
 X34.031 Z-12.591
 X33.779 Z-12.582
 X33.527 Z-12.592
 X31.512 Z-12.736
 X30.504 Z-12.81
 X29.749 Z-12.867
 X29.494 Z-12.9
 X29.242 Z-12.948
 X28.993 Z-13.01
 X26.474 Z-13.571
 X26.136 Z-13.64
 X25.8 Z-13.72
 X25.466 Z-13.81
 X24.962 Z-14.004
 X24.459 Z-14.205
 X21.939 Z-15.224
 X21.766 Z-15.301
 X21.598 Z-15.388
 X21.436 Z-15.487
 X20.428 Z-16.145
 X18.917 Z-17.14
 X18.413 Z-17.48
 X18.233 Z-17.628
 X18.065 Z-17.788
 X17.909 Z-17.959 F999800.0
 X17.405 Z-18.507
 X15.894 Z-20.143
 X15.75 Z-20.299
 X15.618 Z-20.465
 X15.498 Z-20.64
 X15.39 Z-20.823
 X14.886 Z-21.716
 X13.878 Z-23.495
 X13.759 Z-23.718
 X13.656 Z-23.949
 X13.569 Z-24.187
 X13.5 Z-24.43
 X12.871 Z-26.461
 G3 X7.871 Z-21.461 I0.0 K5.0 F9991300.0
 G1 X8.388 Y66.944
 Z-21.718 F999800.0
 G2 X13.388 Z-26.718 I5.0 K0.0 F9991300.0
 G1 X14.019 Z-24.679
 X14.088 Z-24.439
 X14.175 Z-24.203
 X14.278 Z-23.975
 X14.397 Z-23.754
 X15.91 Z-21.06
 X16.021 Z-20.885
 X16.142 Z-20.718
 X16.273 Z-20.557
 X16.414 Z-20.405
 X17.927 Z-18.734
 X18.431 Z-18.182
 X18.588 Z-18.021
 X18.756 Z-17.872
 X18.935 Z-17.735
 X19.44 Z-17.393
 X21.709 Z-15.822
 X21.871 Z-15.715
 X22.039 Z-15.617
 X22.213 Z-15.53
 X23.726 Z-14.819
 X24.482 Z-14.438
 X25.365 Z-13.526
 X25.491 Z-13.382
 X26.499 Z-12.119
 X27.256 Z-11.143
 X27.508 Z-10.833
 X27.76 Z-10.561
 X28.516 Z-9.84
 X29.021 Z-9.374
 X30.786 Z-7.754
 X30.917 Z-7.637
 X31.06 Z-7.534
 X31.213 Z-7.448
 X31.374 Z-7.378
 X31.542 Z-7.325
 X32.551 Z-6.985
 X33.055 Z-6.818
 X33.559 Z-6.656
 X34.063 Z-6.534
 X34.189 Z-6.545
 X34.315 Z-6.578
 X35.072 Z-6.842
 X35.576 Z-7.024
 X36.837 Z-7.486
 X37.089 Z-7.629
 X37.341 Z-7.86
 X39.106 Z-9.575
 X39.61 Z-10.077
 X40.115 Z-10.588 F999800.0
 X40.367 Z-10.854
 X40.619 Z-11.166
 X41.123 Z-11.862
 X42.384 Z-13.534
 X43.298 Z-14.512
 X43.897 Z-14.813 F9991300.0
 X44.086 Z-14.908
 X45.409 Z-15.531
 X45.583 Z-15.618
 X45.752 Z-15.715
 X45.914 Z-15.823
 X48.687 Z-17.743
 X48.866 Z-17.881
 X49.034 Z-18.031
 X49.191 Z-18.194 F999800.0
 X49.696 Z-18.746
 X51.208 Z-20.42
 X51.35 Z-20.573
 X51.482 Z-20.735
 X51.603 Z-20.905
 X51.713 Z-21.082
 X52.721 Z-22.879
 X53.225 Z-23.779
 X53.344 Z-24.004
 X53.448 Z-24.237
 X53.534 Z-24.477
 X53.604 Z-24.722
 X54.234 Z-26.762
 G2 X59.234 Z-21.762 I0.0 K5.0 F9991300.0
 G1 X58.932 Y68.532
 Z-21.946 F999800.0
 G3 X53.932 Z-26.946 I-5.0 K0.0 F9991300.0
 G1 X53.296 Z-24.895
 X53.224 Z-24.657
 X53.137 Z-24.425
 X53.033 Z-24.2
 X52.914 Z-23.982
 X52.405 Z-23.069
 X51.895 Z-22.142
 X51.641 Z-21.673
 X51.532 Z-21.461
 X51.411 Z-21.257
 X51.277 Z-21.059
 X51.132 Z-20.871
 X50.368 Z-20.005
 X49.095 Z-18.474
 X48.84 Z-18.181
 X48.629 Z-17.982
 X48.409 Z-17.793
 X48.18 Z-17.614
 X47.822 Z-17.028
 X47.313 Z-16.209
 X47.126 Z-15.913
 X46.956 Z-15.607
 X46.803 Z-15.292
 X46.294 Z-14.308
 X45.785 Z-13.315
 X45.276 Z-12.301
 X45.021 Z-11.802
 X44.767 Z-11.321
 X44.257 Z-10.424
 X43.748 Z-9.548
 X43.494 Z-9.166
 X43.239 Z-8.82
 X42.221 Z-7.415
 X41.966 Z-7.075
 X41.711 Z-6.778
 X41.202 Z-6.195
 X40.693 Z-5.616
 X40.438 Z-5.339
 X40.184 Z-5.12
 X39.675 Z-4.703
 X39.165 Z-4.29
 X38.401 Z-3.703
 X38.147 Z-3.514
 X38.02 Z-3.438
 X37.726 Z-3.297
 X37.429 Z-3.164
 X37.128 Z-3.038
 X36.619 Z-2.822
 X36.11 Z-2.623
 X35.601 Z-2.526
 X35.092 Z-2.446
 X34.328 Z-2.315
 X34.158 Z-2.299
 X33.988 Z-2.3
 X33.819 Z-2.318
 X33.055 Z-2.442
 X32.291 Z-2.554
 X32.036 Z-2.614
 X31.527 Z-2.813
 X31.018 Z-3.025
 X30.509 Z-3.241
 X30.304 Z-3.325
 X30.107 Z-3.427
 X29.921 Z-3.546
 X29.745 Z-3.681
 X28.981 Z-4.259
 X28.472 Z-4.665
 X27.963 Z-5.075
 X27.708 Z-5.291
 X27.454 Z-5.563 F999800.0
 X26.944 Z-6.131
 X26.435 Z-6.702
 X26.181 Z-6.991
 X25.926 Z-7.316
 X24.908 Z-8.677
 X24.639 Z-9.03
 X24.384 Z-9.393
 X24.144 Z-9.766
 X23.889 Z-10.18
 X23.38 Z-11.022
 X23.125 Z-11.454
 X22.871 Z-11.914
 X21.852 Z-13.783
 X21.343 Z-14.7
 X20.834 Z-15.625
 X20.707 Z-15.836
 X20.325 Z-16.413
 X19.815 Z-17.196
 X19.625 Z-17.493
 X19.617 Z-17.503
 X19.577 Z-17.54 F9991300.0
 X19.306 Z-17.757
 X19.096 Z-17.924
 X18.898 Z-18.105
 X18.713 Z-18.299 F999800.0
 X18.542 Z-18.506
 X17.906 Z-19.27
 X17.524 Z-19.723
 X17.269 Z-20.021
 X16.76 Z-20.597
 X16.576 Z-20.801
 X16.406 Z-21.017
 X16.251 Z-21.243
 X15.996 Z-21.702
 X15.742 Z-22.168
 X15.233 Z-23.091
 X14.723 Z-24.003
 X14.604 Z-24.226
 X14.5 Z-24.457
 X14.412 Z-24.695
 X14.342 Z-24.938
 X13.705 Z-26.985
 G3 X8.705 Z-21.985 I0.0 K5.0 F9991300.0
 G1 X8.924 Y70.119
 Z-22.204 F999800.0
 G2 X13.924 Z-27.204 I5.0 K0.0 F9991300.0
 G1 X14.554 Z-25.159
 X14.655 Z-24.851
 X14.768 Z-24.547
 X14.894 Z-24.249
 X15.033 Z-23.955
 X15.184 Z-23.668
 X15.436 Z-23.168
 X16.318 Z-21.436
 X16.444 Z-21.221
 X17.602 Z-19.387
 X17.957 Z-18.599
 X18.965 Z-16.357
 X19.974 Z-14.136
 X20.478 Z-13.047
 X20.982 Z-11.964
 X21.234 Z-11.44
 X22.242 Z-9.511
 X22.494 Z-9.083
 X23.503 Z-7.513
 X23.755 Z-7.145
 X24.763 Z-5.849
 X25.015 Z-5.527
 X25.267 Z-5.254
 X26.276 Z-4.201
 X26.528 Z-3.957
 X26.78 Z-3.74
 X27.536 Z-3.107
 X27.788 Z-2.904
 X28.545 Z-2.372
 X28.785 Z-2.209
 X29.034 Z-2.059
 X29.29 Z-1.921
 X29.553 Z-1.797
 X30.057 Z-1.555
 X30.561 Z-1.316
 X30.727 Z-1.253
 X30.895 Z-1.199
 X31.065 Z-1.153
 X32.074 Z-0.875
 X32.326 Z-0.815
 X32.578 Z-0.78
 X33.586 Z-0.688
 X34.091 Z-0.654
 X34.595 Z-0.691
 X35.603 Z-0.786
 X35.773 Z-0.807
 X35.941 Z-0.84
 X36.107 Z-0.883
 X37.368 Z-1.236
 X37.626 Z-1.333
 X37.879 Z-1.445
 X38.124 Z-1.571
 X38.628 Z-1.814
 X38.891 Z-1.94
 X39.147 Z-2.08
 X39.396 Z-2.233
 X39.636 Z-2.398
 X40.393 Z-2.93
 X40.645 Z-3.136
 X41.401 Z-3.772
 X41.653 Z-3.989
 X41.905 Z-4.236
 X42.914 Z-5.298 F999800.0
 X43.166 Z-5.577
 X43.67 Z-6.236
 X44.426 Z-7.228
 X44.678 Z-7.616
 X45.687 Z-9.243
 X45.813 Z-9.463
 X46.191 Z-10.231
 X46.695 Z-11.259
 X46.947 Z-11.788
 X47.703 Z-13.547
 X48.207 Z-14.738
 X49.216 Z-17.143
 X49.72 Z-18.34
 X50.287 Z-19.67
 X50.303 Z-19.699
 X51.233 Z-21.197
 X51.359 Z-21.408
 X51.485 Z-21.652
 X52.241 Z-23.149
 X52.493 Z-23.656
 X52.745 Z-24.183
 X52.86 Z-24.418
 X52.962 Z-24.66
 X53.05 Z-24.906
 X53.123 Z-25.158
 X53.753 Z-27.22
 G2 X58.753 Z-22.22 I0.0 K5.0 F9991300.0
 G1 X58.604 Y71.707
 Z-22.308 F999800.0
 G3 X53.604 Z-27.308 I-5.0 K0.0 F9991300.0
 G1 X53.35 Z-26.404
 X53.097 Z-25.534
 X53.024 Z-25.266
 X52.937 Z-25.002
 X52.834 Z-24.744
 X52.717 Z-24.492
 X52.083 Z-22.938
 X51.703 Z-22.007
 X51.576 Z-21.721
 X50.943 Z-20.332
 X50.816 Z-20.037
 X50.563 Z-19.412
 X50.056 Z-18.078
 X48.662 Z-14.402
 X48.535 Z-14.081
 X47.775 Z-12.202
 X47.521 Z-11.61
 X46.761 Z-9.997
 X46.508 Z-9.465
 X46.254 Z-9.029
 X46.001 Z-8.602
 X45.24 Z-7.324
 X44.987 Z-6.962
 X43.973 Z-5.576
 X43.846 Z-5.404
 X43.72 Z-5.25
 X42.453 Z-3.848
 X42.292 Z-3.681
 X42.123 Z-3.523
 X41.946 Z-3.374
 X40.932 Z-2.494
 X40.805 Z-2.393
 X40.678 Z-2.303
 X39.918 Z-1.804
 X39.673 Z-1.634
 X39.419 Z-1.477
 X39.158 Z-1.333
 X37.891 Z-0.768
 X37.764 Z-0.715
 X37.473 Z-0.613
 X37.177 Z-0.529
 X36.877 Z-0.461
 X36.37 Z-0.335
 X36.12 Z-0.27
 X35.866 Z-0.222
 X35.61 Z-0.19
 X34.849 Z-0.127
 X34.512 Z-0.098
 X34.174 Z-0.085
 X33.836 Z-0.088
 X33.329 Z-0.126
 X32.568 Z-0.186
 X32.312 Z-0.217
 X32.058 Z-0.264
 X31.808 Z-0.329
 X30.794 Z-0.581
 X30.668 Z-0.617
 X30.366 Z-0.723
 X30.07 Z-0.845
 X29.78 Z-0.983
 X29.02 Z-1.321
 X28.893 Z-1.386
 X28.767 Z-1.458
 X28.26 Z-1.788
 X27.753 Z-2.121
 X27.552 Z-2.248
 X27.357 Z-2.387
 X27.171 Z-2.535
 X26.993 Z-2.693
 X25.979 Z-3.572
 X25.852 Z-3.691
 X25.725 Z-3.822 F999800.0
 X24.458 Z-5.213
 X24.332 Z-5.364
 X23.191 Z-6.894
 X22.938 Z-7.243
 X22.684 Z-7.653
 X21.67 Z-9.304
 X21.417 Z-9.794
 X20.657 Z-11.313
 X20.403 Z-11.834
 X19.389 Z-14.152
 X18.629 Z-15.996
 X18.122 Z-17.219
 X17.362 Z-19.075
 X17.108 Z-19.679
 X16.982 Z-19.976
 X16.095 Z-21.853
 X15.968 Z-22.152
 X15.081 Z-24.274
 X14.969 Z-24.5
 X14.869 Z-24.732
 X14.779 Z-24.967
 X14.701 Z-25.207
 X14.321 Z-26.488
 X14.067 Z-27.37
 G3 X9.067 Z-22.37 I0.0 K5.0 F9991300.0
 G1 X9.184 Y73.294
 Z-22.512 F999800.0
 G2 X14.184 Z-27.512 I5.0 K0.0 F9991300.0
 G1 X14.688 Z-25.714
 X14.814 Z-25.284
 X14.877 Z-25.103
 X15.192 Z-24.323
 X16.074 Z-22.161
 X16.2 Z-21.892
 X16.704 Z-20.795
 X17.208 Z-19.706
 X17.46 Z-19.145
 X18.216 Z-17.384
 X18.468 Z-16.806
 X18.72 Z-16.207
 X19.224 Z-15.001
 X19.728 Z-13.808
 X20.484 Z-12.049
 X20.736 Z-11.503
 X21.492 Z-9.945
 X21.744 Z-9.437
 X22.248 Z-8.592
 X23.004 Z-7.333
 X23.256 Z-6.978
 X24.264 Z-5.593
 X24.39 Z-5.423
 X24.516 Z-5.273
 X25.775 Z-3.862
 X25.901 Z-3.734
 X26.027 Z-3.619
 X27.035 Z-2.728
 X27.195 Z-2.583
 X27.363 Z-2.447
 X27.539 Z-2.322
 X28.799 Z-1.492
 X28.963 Z-1.397
 X29.131 Z-1.312
 X29.303 Z-1.235
 X30.311 Z-0.788
 X30.476 Z-0.717
 X30.644 Z-0.656
 X30.815 Z-0.604
 X31.823 Z-0.353
 X32.071 Z-0.286
 X32.324 Z-0.237
 X32.579 Z-0.205
 X33.839 Z-0.109
 X34.091 Z-0.1
 X34.343 Z-0.111
 X35.603 Z-0.209
 X35.858 Z-0.243
 X36.11 Z-0.294
 X36.359 Z-0.361
 X37.367 Z-0.613
 X37.538 Z-0.666
 X37.706 Z-0.729
 X37.871 Z-0.801
 X38.879 Z-1.25
 X39.052 Z-1.327
 X39.22 Z-1.414
 X39.383 Z-1.51
 X40.391 Z-2.177
 X40.564 Z-2.287
 X40.732 Z-2.406
 X40.895 Z-2.533
 X41.399 Z-2.978
 X42.155 Z-3.649
 X42.281 Z-3.766
 X42.407 Z-3.896 F999800.0
 X43.666 Z-5.32
 X43.792 Z-5.475
 X43.918 Z-5.65
 X44.926 Z-7.06
 X45.178 Z-7.431
 X46.186 Z-9.173
 X46.438 Z-9.629
 X47.446 Z-11.837
 X47.572 Z-12.145
 X48.454 Z-14.366
 X49.336 Z-16.66
 X49.462 Z-16.98
 X50.47 Z-19.481
 X50.974 Z-20.612
 X51.604 Z-22.037
 X51.73 Z-22.333
 X51.982 Z-22.964
 X52.486 Z-24.234
 X52.738 Z-24.875
 X52.864 Z-25.203
 X52.99 Z-25.627
 X53.494 Z-27.47
 G2 X58.494 Z-22.47 I0.0 K5.0 F9991300.0
 G1 X58.325 Y74.882
 Z-22.565 F999800.0
 G3 X53.325 Z-27.565 I-5.0 K0.0 F9991300.0
 G1 X52.945 Z-26.263
 X52.819 Z-25.841
 X52.74 Z-25.588
 X52.656 Z-25.336
 X52.566 Z-25.086
 X52.312 Z-24.542
 X52.186 Z-24.263
 X51.299 Z-22.244
 X51.202 Z-22.041
 X51.093 Z-21.844
 X50.972 Z-21.655
 X50.84 Z-21.472
 X50.287 Z-20.431
 X49.78 Z-19.498
 X49.653 Z-19.24
 X48.767 Z-17.397
 X48.514 Z-16.894
 X47.754 Z-15.193
 X47.501 Z-14.628
 X47.374 Z-14.331
 X46.488 Z-12.184
 X45.728 Z-10.474
 X45.475 Z-9.908
 X45.222 Z-9.454
 X44.462 Z-8.121
 X44.209 Z-7.69
 X43.196 Z-6.252
 X42.943 Z-5.899
 X42.69 Z-5.606
 X41.93 Z-4.736
 X41.677 Z-4.449
 X41.423 Z-4.21
 X40.664 Z-3.512
 X40.157 Z-3.086
 X39.651 Z-2.712
 X39.407 Z-2.523
 X39.154 Z-2.348
 X38.891 Z-2.187
 X38.131 Z-1.796
 X37.625 Z-1.541
 X37.46 Z-1.473
 X37.291 Z-1.415
 X37.118 Z-1.367
 X36.106 Z-1.07
 X35.852 Z-1.007
 X35.599 Z-0.97
 X34.333 Z-0.845
 X34.206 Z-0.836
 X34.08 Z-0.833
 X33.573 Z-0.869
 X32.56 Z-0.965
 X32.307 Z-1.002
 X32.054 Z-1.064
 X31.041 Z-1.358
 X30.869 Z-1.407
 X30.7 Z-1.464
 X30.534 Z-1.53
 X30.028 Z-1.783
 X29.268 Z-2.171
 X29.142 Z-2.243
 X29.015 Z-2.325
 X28.002 Z-3.064
 X27.496 Z-3.486
 X26.736 Z-4.178
 X26.483 Z-4.414
 X26.23 Z-4.697 F999800.0
 X25.47 Z-5.555
 X25.217 Z-5.843
 X24.963 Z-6.185
 X23.95 Z-7.592
 X23.697 Z-7.998
 X22.684 Z-9.711
 X22.431 Z-10.221
 X21.671 Z-11.826
 X21.418 Z-12.377
 X20.658 Z-14.077
 X20.405 Z-14.627
 X19.899 Z-15.67
 X19.519 Z-16.458
 X19.392 Z-16.721
 X19.209 Z-17.022
 X19.04 Z-17.332
 X18.886 Z-17.649
 X18.126 Z-19.163
 X17.999 Z-19.407
 X17.366 Z-20.554
 X17.05 Z-21.134
 X16.607 Z-21.8
 X16.513 Z-21.96
 X16.429 Z-22.125
 X16.353 Z-22.294
 X15.594 Z-24.018
 X15.467 Z-24.296
 X15.341 Z-24.567
 X15.216 Z-24.822
 X15.102 Z-25.082
 X15.001 Z-25.348
 X14.911 Z-25.617
 X14.834 Z-25.891
 X14.707 Z-26.305
 X14.328 Z-27.592
 G3 X9.328 Z-22.592 I0.0 K5.0 F9991300.0
 G1 X9.484 Y76.469
 Z-22.682 F999800.0
 G2 X14.484 Z-27.682 I5.0 K0.0 F9991300.0
 G1 X15.247 Z-25.261
 X15.31 Z-25.096
 X15.374 Z-24.953
 X16.518 Z-22.501
 X16.626 Z-22.262
 X16.747 Z-22.029
 X16.881 Z-21.802
 X17.027 Z-21.583
 X17.789 Z-20.417
 X18.298 Z-19.586
 X18.41 Z-19.393
 X18.532 Z-19.206
 X18.664 Z-19.027
 X18.806 Z-18.855
 X19.315 Z-18.269
 X19.487 Z-18.092
 X19.672 Z-17.928
 X19.869 Z-17.779
 X20.077 Z-17.646
 X20.832 Z-17.241
 X21.873 Z-16.231
 X23.128 Z-14.277
 X23.255 Z-14.072
 X23.636 Z-13.32
 X24.145 Z-12.288
 X24.653 Z-11.233
 X25.162 Z-10.193
 X25.416 Z-9.685
 X25.67 Z-9.269
 X26.687 Z-7.628
 X26.941 Z-7.288
 X27.196 Z-6.966
 X27.704 Z-6.346
 X27.942 Z-6.065
 X28.191 Z-5.794
 X28.451 Z-5.533
 X28.721 Z-5.283
 X29.229 Z-4.809
 X29.738 Z-4.349
 X29.852 Z-4.236
 X29.975 Z-4.133
 X30.107 Z-4.041
 X30.246 Z-3.961
 X30.755 Z-3.707
 X31.772 Z-3.205
 X32.026 Z-3.088
 X32.28 Z-3.009
 X32.789 Z-2.915
 X33.297 Z-2.823
 X33.806 Z-2.728
 X33.932 Z-2.709
 X34.059 Z-2.702
 X34.187 Z-2.707
 X34.314 Z-2.722
 X34.822 Z-2.824
 X35.839 Z-3.021
 X36.094 Z-3.096
 X36.348 Z-3.21
 X37.365 Z-3.726
 X37.873 Z-3.99
 X38.127 Z-4.152
 X38.382 Z-4.381
 X38.89 Z-4.852
 X39.399 Z-5.338
 X39.672 Z-5.598
 X39.933 Z-5.87 F999800.0
 X40.181 Z-6.154
 X40.415 Z-6.449
 X40.924 Z-7.079
 X41.178 Z-7.406
 X41.432 Z-7.773
 X42.449 Z-9.483
 X42.703 Z-9.968
 X42.958 Z-10.522
 X43.466 Z-11.64
 X43.975 Z-12.787
 X44.61 Z-14.157
 X45.929 Z-16.366
 X47.025 Z-17.474
 X47.208 Z-17.667
 X47.433 Z-17.784 F9991300.0
 X47.647 Z-17.918
 X47.851 Z-18.068
 X48.042 Z-18.233
 X48.551 Z-18.718
 X48.691 Z-18.865 F999800.0
 X48.823 Z-19.02
 X48.946 Z-19.182
 X49.059 Z-19.351
 X49.568 Z-20.123
 X50.712 Z-21.839
 X50.839 Z-22.049
 X51.093 Z-22.564
 X51.601 Z-23.63
 X52.237 Z-24.98
 X52.301 Z-25.123
 X52.364 Z-25.29
 X52.618 Z-26.089
 X53.127 Z-27.693
 G2 X58.127 Z-22.693 I0.0 K5.0 F9991300.0
 G1 X57.876 Y78.057
 Z-22.721 F999800.0
 G3 X52.876 Z-27.721 I-5.0 K0.0 F9991300.0
 G1 X52.112 Z-25.361
 X52.038 Z-25.158
 X51.953 Z-24.959
 X51.857 Z-24.765
 X50.838 Z-22.659
 X50.583 Z-22.147
 X50.328 Z-21.746
 X49.309 Z-20.198
 X49.17 Z-19.974
 X49.017 Z-19.759
 X48.85 Z-19.554
 X48.672 Z-19.36
 X47.78 Z-18.509
 X47.62 Z-18.35
 X47.45 Z-18.201
 X47.271 Z-18.064
 X47.083 Z-17.939
 X46.888 Z-17.827
 X46.679 Z-17.724
 X46.467 Z-17.627
 X46.251 Z-17.539
 X46.005 Z-17.413
 X45.753 Z-17.302
 X45.495 Z-17.204
 X45.232 Z-17.12
 X44.722 Z-16.995
 X44.446 Z-16.925
 X44.167 Z-16.864
 X43.886 Z-16.811
 X43.657 Z-16.687
 X43.421 Z-16.574
 X43.18 Z-16.474
 X42.934 Z-16.386
 X42.684 Z-16.31
 X42.551 Z-16.284
 X42.421 Z-16.246
 X42.295 Z-16.197
 X42.174 Z-16.137
 X41.665 Z-15.903
 X41.155 Z-15.688
 X41.012 Z-15.63
 X41.004 Z-15.624
 X40.646 Z-14.979
 X40.558 Z-14.855
 X40.459 Z-14.739
 X40.351 Z-14.632
 X39.881 Z-13.804
 X39.626 Z-13.395
 X39.372 Z-13.126
 X39.117 Z-12.859
 X38.989 Z-12.713
 X38.098 Z-11.386
 X37.588 Z-10.588
 X37.333 Z-10.201
 X37.078 Z-9.88
 X36.824 Z-9.673
 X36.059 Z-9.148
 X35.55 Z-8.806
 X35.04 Z-8.53
 X34.53 Z-8.259
 X34.276 Z-8.126
 X34.148 Z-8.085
 X34.021 Z-8.074
 X33.511 Z-8.265
 X32.492 Z-8.761
 X31.982 Z-9.057
 X31.473 Z-9.371
 X30.963 Z-9.732
 X30.708 Z-10.04 F999800.0
 X30.454 Z-10.4
 X29.944 Z-11.136
 X29.434 Z-11.846
 X28.797 Z-12.711
 X28.415 Z-13.074 F9991300.0
 X28.16 Z-13.325
 X27.906 Z-13.7 F999800.0
 X27.667 Z-14.071
 X27.659 Z-14.082
 X27.33 Z-14.238 F9991300.0
 X27.006 Z-14.406
 X26.688 Z-14.584
 X26.377 Z-14.774
 X25.469 Z-15.242
 X25.421 Z-15.257
 X24.848 Z-15.444
 X24.673 Z-15.507
 X24.391 Z-15.576
 X24.113 Z-15.661
 X23.841 Z-15.764
 X23.576 Z-15.883
 X23.319 Z-16.018
 X23.114 Z-16.15
 X22.901 Z-16.27
 X22.682 Z-16.379
 X22.467 Z-16.465
 X22.255 Z-16.557
 X22.045 Z-16.655
 X21.698 Z-16.826
 X21.359 Z-17.01
 X21.026 Z-17.208
 X20.516 Z-17.561
 X20.323 Z-17.681
 X20.136 Z-17.812
 X19.957 Z-17.954
 X19.787 Z-18.105
 X19.625 Z-18.266
 X18.733 Z-19.288 F999800.0
 X18.547 Z-19.5
 X18.377 Z-19.725
 X18.223 Z-19.961
 X16.949 Z-22.047
 X16.886 Z-22.159
 X16.822 Z-22.284
 X15.548 Z-25.002
 X15.484 Z-25.15
 X15.42 Z-25.324
 X14.656 Z-27.738
 G3 X9.656 Z-22.738 I0.0 K5.0 F9991300.0
 G1 Z-22.712
 X9.865 Y79.644
 G2 X14.865 Z-27.712 I5.0 K0.0
 G1 X15.63 Z-25.308
 X15.694 Z-25.134
 X15.757 Z-24.986
 X16.395 Z-23.626
 X16.905 Z-22.541
 X17.061 Z-22.231
 X17.232 Z-21.928
 X17.415 Z-21.634
 X18.435 Z-19.946
 X18.69 Z-19.601
 X18.945 Z-19.27
 X19.229 Z-18.919
 X19.526 Z-18.58
 X19.838 Z-18.253
 X19.966 Z-18.137
 X20.228 Z-17.904
 X20.501 Z-17.685
 X20.785 Z-17.478
 X21.078 Z-17.286
 X21.38 Z-17.108
 X21.69 Z-16.945
 X22.008 Z-16.796
 X22.333 Z-16.664
 X22.55 Z-16.502
 X22.779 Z-16.357
 X23.017 Z-16.229
 X23.265 Z-16.119
 X23.52 Z-16.027
 X23.781 Z-15.954
 X24.046 Z-15.901
 X24.261 Z-15.875
 X24.476 Z-15.863
 X24.692 Z-15.864
 X25.066 Z-15.708
 X25.576 Z-15.502
 X26.087 Z-15.304
 X26.597 Z-15.113
 X27.107 Z-14.929
 X27.553 Z-14.777
 X27.569 Z-14.771
 X27.784 Z-14.58
 X28.012 Z-14.403
 X28.25 Z-14.24
 X28.498 Z-14.093
 X28.755 Z-13.963
 X29.02 Z-13.849
 X29.291 Z-13.752
 X29.568 Z-13.673
 X29.85 Z-13.611
 X30.135 Z-13.568
 X30.422 Z-13.543
 X30.672 Z-13.54
 X30.922 Z-13.551
 X31.171 Z-13.574
 X31.187 Z-13.571
 X31.952 Z-13.425
 X32.718 Z-13.272
 X32.996 Z-13.233
 X33.277 Z-13.211
 X33.559 Z-13.205
 X33.84 Z-13.215
 X34.12 Z-13.242
 X34.412 Z-13.302
 X34.701 Z-13.374
 X34.986 Z-13.458
 X35.268 Z-13.554
 X35.778 Z-13.728
 X36.033 Z-13.814
 X36.285 Z-13.913
 X36.531 Z-14.023
 X36.771 Z-14.145
 X37.005 Z-14.278
 X37.263 Z-14.343
 X37.515 Z-14.425
 X37.762 Z-14.523
 X38.001 Z-14.638
 X38.233 Z-14.768
 X38.328 Z-14.794
 X38.838 Z-14.948
 X39.349 Z-15.12
 X39.859 Z-15.303
 X40.369 Z-15.494
 X40.879 Z-15.692
 X41.389 Z-15.897
 X41.899 Z-16.111
 X42.409 Z-16.342
 X42.616 Z-16.443
 X42.88 Z-16.472
 X43.14 Z-16.521
 X43.397 Z-16.588
 X43.648 Z-16.674
 X43.891 Z-16.778
 X44.127 Z-16.899
 X44.354 Z-17.037
 X44.686 Z-17.108
 X45.016 Z-17.191
 X45.342 Z-17.287
 X45.469 Z-17.332
 X45.773 Z-17.452
 X46.071 Z-17.586
 X46.362 Z-17.733
 X46.625 Z-17.884
 X46.881 Z-18.048
 X47.127 Z-18.224
 X47.255 Z-18.329
 X47.765 Z-18.791
 X48.02 Z-19.03
 X48.275 Z-19.303 F999800.0
 X48.448 Z-19.479
 X48.611 Z-19.663
 X48.764 Z-19.856
 X48.907 Z-20.056
 X49.04 Z-20.264
 X49.55 Z-21.049
 X50.06 Z-21.825
 X50.315 Z-22.227
 X50.57 Z-22.735
 X51.08 Z-23.768
 X51.59 Z-24.817
 X51.688 Z-25.02
 X51.773 Z-25.228
 X51.845 Z-25.442
 X52.1 Z-26.227
 X52.61 Z-27.761
 G2 X57.61 Z-22.761 I0.0 K5.0 F9991300.0
 G1 Z-22.745
 X57.322 Y81.232
 G3 X52.322 Z-27.745 I-5.0 K0.0
 G1 X52.066 Z-26.978
 X51.811 Z-26.223
 X51.556 Z-25.49
 X51.454 Z-25.2
 X51.335 Z-24.917
 X51.199 Z-24.641
 X51.046 Z-24.374
 X50.281 Z-22.802
 X50.026 Z-22.288
 X49.77 Z-21.883
 X49.26 Z-21.085
 X48.75 Z-20.293
 X48.636 Z-20.119
 X48.513 Z-19.952
 X48.381 Z-19.791
 X48.24 Z-19.639
 X47.475 Z-18.804
 X47.314 Z-18.635
 X47.144 Z-18.476
 X46.964 Z-18.328
 X46.716 Z-18.153
 X46.461 Z-17.988
 X46.199 Z-17.833
 X46.017 Z-17.716
 X45.828 Z-17.609
 X45.634 Z-17.514
 X45.434 Z-17.43
 X45.153 Z-17.337
 X44.868 Z-17.256
 X44.581 Z-17.187
 X44.381 Z-17.052
 X44.172 Z-16.932
 X43.955 Z-16.827
 X43.731 Z-16.738
 X43.501 Z-16.665
 X43.267 Z-16.609
 X43.029 Z-16.57
 X42.789 Z-16.547
 X42.548 Z-16.542
 X42.373 Z-16.46
 X42.117 Z-16.345
 X41.607 Z-16.126
 X41.097 Z-15.919
 X40.587 Z-15.719
 X40.077 Z-15.525
 X39.566 Z-15.339
 X39.056 Z-15.162
 X38.715 Z-15.044
 X38.368 Z-14.943
 X38.016 Z-14.859
 X37.661 Z-14.793
 X37.429 Z-14.67
 X37.189 Z-14.564
 X36.941 Z-14.477
 X36.688 Z-14.407
 X36.431 Z-14.356
 X36.17 Z-14.324
 X35.841 Z-14.175
 X35.505 Z-14.042
 X35.163 Z-13.925
 X34.816 Z-13.825
 X34.464 Z-13.742
 X34.255 Z-13.689
 X34.042 Z-13.649
 X33.827 Z-13.624
 X33.529 Z-13.611
 X33.231
 X32.934 Z-13.626
 X32.679 Z-13.633
 X32.424 Z-13.656
 X31.658 Z-13.771
 X31.586 Z-13.779
 X31.314 Z-13.746
 X31.04 Z-13.732
 X30.766 Z-13.738
 X30.493 Z-13.764
 X30.223 Z-13.81
 X29.957 Z-13.875
 X29.696 Z-13.959
 X29.441 Z-14.062
 X29.195 Z-14.182
 X28.958 Z-14.32
 X28.732 Z-14.475
 X28.517 Z-14.646
 X28.113 Z-14.744
 X27.715 Z-14.861
 X27.321 Z-14.996
 X26.811 Z-15.176
 X26.301 Z-15.364
 X25.791 Z-15.559
 X25.281 Z-15.76
 X24.77 Z-15.97
 X24.515 Z-16.078
 X24.491 Z-16.089
 X24.234 Z-16.085
 X23.976 Z-16.1
 X23.721 Z-16.135
 X23.469 Z-16.19
 X23.222 Z-16.263
 X22.981 Z-16.355
 X22.748 Z-16.465
