( Made using CamBam - http://www.cambam.co.uk )
( craftsmancnc 2/4/2014 9:29:48 PM )
( T1 : 0.3 )
G21 G90 G64 P0.25 G40
G0 Z5.0
( T1 : 0.3 )
T1 M6
( Engrave1 )
M3 S20000
G0 X16.40527 Y16.89404
G0 Z3.5
G1 F700.0 Z-0.5
G1 F1400.0 Y16.10059
G2 X12.6333 Y12.34082 I-31.65001 J27.98078
G2 X9.28857 Y10.05811 I-10.32595 J11.53823
G2 X7.75418 Y9.47311 I-3.72451 J7.46426
G2 X6.12695 Y9.25244 I-1.65457 J6.09099
G2 X3.85645 Y9.77734 I-0.11943 J4.65648
G2 X2.42822 Y11.31543 I1.65928 J2.97291
G2 X1.95215 Y13.6958 I5.05321 J2.24844
G2 X2.29395 Y15.99072 I8.46113 J-0.08725
G2 X3.30713 Y18.44434 I12.21916 J-3.60973
G2 X4.91846 Y21.00781 I19.37512 J-10.39049
G2 X7.17676 Y23.77881 I30.18744 J-22.29637
G2 X9.82568 Y26.3667 I18.99808 J-16.7965
G2 X12.19385 Y28.08789 I11.66462 J-13.55943
G2 X14.15918 Y29.01563 I5.58792 J-9.29201
G2 X15.67285 Y29.3208 I1.76172 J-4.83162
G2 X16.71045 Y29.02783 I0.05296 J-1.79633
G2 X17.36963 Y28.17334 I-1.08854 J-1.52123
G2 X17.60156 Y26.87939 I-3.15049 J-1.23247
G2 X17.3228 Y25.28288 I-5.12309 J0.07192
G2 X16.66162 Y23.80322 I-8.2619 J2.80426
G2 X14.31787 Y20.54395 I-15.97782 J9.01733
G2 X11.63232 Y17.96826 I-15.91609 J13.90708
G2 X10.77633 Y17.36363 I-6.04653 J7.65204
G2 X10.31152 Y17.11388 I-2.13643 J3.41862
G2 X9.80127 Y16.97949 I-0.59285 J1.2151
G2 X9.09326 Y17.27246 I0.0208 J1.05227
G2 X8.77588 Y17.95605 I0.61509 J0.70105
G2 X9.01771 Y18.85242 I2.10758 J-0.0878
G2 X9.5083 Y19.64063 I4.58366 J-2.30616
G2 X11.11963 Y21.44727 I11.46167 J-8.60068
G2 X11.6157 Y21.89877 I10.75743 J-11.32115
G2 X11.87608 Y22.11217 I3.71629 J-4.26879
G2 X12.16943 Y22.27734 I0.54559 J-0.62588
G2 X12.25488 Y22.2041 I0.01445 J-0.06961
G2 X12.12061 Y21.82568 I-1.15045 J0.19519
G3 X11.99854 Y21.49609 I1.44244 J-0.72164
G3 X12.07178 Y21.39844 I0.07696 J-0.01857
G3 X12.25679 Y21.49108 I-0.09306 J0.4169
G3 X13.26807 Y22.50928 I-6.14205 J7.1116
G3 X15.07471 Y24.95068 I-12.90328 J11.43759
G3 X15.62756 Y25.99725 I-6.61345 J4.1629
G3 X15.90479 Y27.14795 I-2.80354 J1.28416
G3 X15.74609 Y27.68506 I-0.81362 J0.05161
G3 X15.29443 Y27.88037 I-0.41318 J-0.3356
G3 X14.56717 Y27.70149 I0.09454 J-1.95223
G3 X13.59323 Y27.15308 I2.50708 J-5.59139
G3 X12.69434 Y26.48877 I7.77443 J-11.46013
G3 X9.12988 Y22.96094 I16.75515 J-20.49373
G3 X6.09033 Y18.54199 I19.00965 J-16.33054
G3 X5.24142 Y16.60645 I10.93033 J-5.94786
G3 X4.86963 Y14.52588 I6.32443 J-2.20367
G3 X5.1626 Y12.85352 I4.24052 J-0.11898
G3 X6.0415 Y11.81592 I2.15605 J0.93526
G3 X7.44531 Y11.44971 I1.33361 J2.23842
G3 X9.54573 Y11.87049 I-0.11708 J6.03723
G3 X11.46143 Y12.8291 I-4.06132 J10.50959
G3 X14.04704 Y14.7233 I-11.68476 J18.66169
G3 X16.40527 Y16.89404 I-24.59012 J29.08036
G1 F700.0 X16.36558 Y16.9267
G3 F1400.0 X17.17432 Y18.0293 I-9.49809 J7.81456
G2 X16.60059 Y18.35889 I0.40999 J1.37784
G2 X16.42969 Y18.94482 I0.7166 J0.5269
G2 X16.54874 Y19.52136 I1.73335 J-0.05738
G2 X16.7959 Y20.05566 I3.755 J-1.41264
G2 X17.69922 Y21.31299 I5.59272 J-3.06492
G2 X18.14714 Y21.74349 I3.29443 J-2.97944
G2 X18.67578 Y22.06982 I1.31274 J-1.53521
G2 X19.00537 Y22.15527 I0.3454 J-0.65388
G2 X19.24951 Y21.92334 I0.03481 J-0.20782
G2 X19.0962 Y21.48607 I-1.28457 J0.20487
G2 X18.87109 Y21.08105 I-5.92732 J3.02931
G2 X20.45346 Y21.31334 I12.75568 J-81.38743
G2 X22.04492 Y21.47168 I2.40197 J-16.06517
G2 X22.39893 Y21.42285 I0.04831 J-0.95745
G2 X22.61511 Y21.19669 I-0.29873 J-0.50195
G2 X22.74072 Y20.91016 I-1.31794 J-0.74859
G2 X22.875 Y20.10449 I-2.40135 J-0.81425
G2 X22.64307 Y19.54297 I-0.97556 J0.07429
G2 X21.87402 Y18.67627 I-9.00072 J7.21201
G3 X20.7876 Y17.1626 I5.31454 J-4.96119
G3 X20.50471 Y16.56866 I5.25794 J-2.86868
G3 X20.34814 Y15.92969 I1.72215 J-0.76063
G3 X20.56331 Y15.47148 I0.51047 J-0.03992
G3 X21.05615 Y15.35596 I0.44642 J0.79545
G3 X21.78362 Y15.57597 I-0.14921 J1.80604
G3 X22.74675 Y16.17546 I-3.38916 J6.51838
G3 X23.64404 Y16.86963 I-10.31722 J14.26323
G1 Y16.05176
G2 X21.97168 Y14.37939 I-29.90778 J28.23542
G2 X20.75098 Y13.40283 I-6.51762 J6.8958
G2 X19.75 Y13.04883 I-1.13736 J1.6238
G2 X18.89551 Y13.5127 I0.00519 J1.02853
G2 X18.62109 Y14.17041 I1.44584 J0.98936
G2 X18.55371 Y14.87988 I3.34662 J0.67576
G2 X18.82227 Y16.07617 I3.31726 J-0.1164
G2 X19.60352 Y17.52881 I7.75454 J-3.23411
G2 X20.77539 Y19.10352 I15.25575 J-10.12971
G2 X20.00635 Y18.94482 I-12.24978 J57.42152
G3 X19.10303 Y18.78613 I36.50265 J-210.43466
G3 X18.37061 Y18.65186 I20.94091 J-116.28779
G2 X16.17334 Y15.90527 I-7.84663 J4.02511
G1 Y16.69873
G3 X16.36558 Y16.9267 I-9.30585 J8.04253
G0 Z5.0
G0 X23.47855 Y16.5058
G0 Z3.5
G1 F700.0 Z-0.5
G2 F1400.0 X23.58301 Y17.1748 I3.53391 J-0.20911
G2 X24.01025 Y17.96826 I2.22246 J-0.68495
G2 X25.02344 Y19.03027 I8.72641 J-7.31089
G2 X26.73179 Y20.41415 I12.40234 J-13.5639
G2 X28.62451 Y21.53271 I7.20803 J-10.03609
G2 X29.9345 Y22.06994 I5.53286 J-11.62568
G2 X31.32227 Y22.35059 I1.59855 J-4.33318
G2 X31.79834 Y22.13086 I-0.01969 J-0.66828
G2 X32.14014 Y21.64258 I-1.00916 J-1.07018
G2 X32.27441 Y21.22754 I-1.06349 J-0.57331
G2 X32.10352 Y20.89795 I-0.36567 J-0.0195
G2 X31.50537 Y20.65381 I-1.88026 J3.75184
G3 X31.7251 Y20.15332 I96.14307 J41.91068
G2 X31.93262 Y19.65283 I-9.57064 J-4.26158
G2 X32.00586 Y19.32324 I-0.83606 J-0.35872
G2 X31.91637 Y19.01991 I-0.80301 J0.07203
G2 X31.40771 Y18.22461 I-4.72685 J2.4629
G3 X30.57764 Y17.05273 I21.86159 J-16.36522
G3 X30.3457 Y16.125 I1.52204 J-0.87337
G3 X30.53612 Y15.46693 I1.01449 J-0.06304
G3 X31.17578 Y15.22168 I0.5795 J0.55466
G3 X31.93747 Y15.4393 I-0.1177 J1.85372
G3 X32.93508 Y16.07223 I-2.9742 J5.79056
G3 X33.84912 Y16.8208 I-9.19883 J12.16455
G1 Y16.07617
G2 X31.86926 Y14.06528 I-20.43378 J18.13839
G2 X30.75245 Y13.17909 I-6.9773 J7.64622
G2 X30.1271 Y12.82377 I-2.49558 J3.66418
G2 X29.43018 Y12.646 I-0.77446 J1.58113
G2 X29.04639 Y12.71425 I-0.02099 J0.99515
G2 X28.74658 Y12.96338 I0.24665 J0.60178
G2 X28.58779 Y13.4081 I1.0539 J0.62701
G2 X28.55127 Y13.87891 I2.70595 J0.44674
G2 X28.78942 Y15.30393 I5.70255 J-0.22062
G2 X29.24707 Y16.67432 I15.18282 J-4.30876
G2 X26.59814 Y13.85449 I-52.64566 J46.80091
G2 X25.95214 Y13.32226 I-3.43378 J3.50962
G2 X25.16992 Y13.02441 I-0.90925 J1.21185
G2 X24.79291 Y13.19654 I0.07217 J0.65702
G2 X24.49854 Y13.48828 I1.54528 J1.85363
G2 X23.77832 Y14.68457 I3.57913 J2.96972
G2 X23.47314 Y16.22266 I3.71401 J1.53623
G2 X23.47855 Y16.5058 I3.53931 J0.07403
G0 Z5.0
G0 X25.04078 Y16.18072
G0 Z3.5
G1 F700.0 Z-0.5
G3 F1400.0 X24.99902 Y15.81982 I1.97938 J-0.41188
G3 X25.1333 Y15.17285 I1.40231 J-0.04638
G3 X25.49951 Y14.92871 I0.37493 J0.16567
G3 X25.97559 Y15.09961 I-0.26285 J1.48078
G3 X28.31934 Y17.06494 I-4.96026 J8.29552
G3 X30.87061 Y20.37305 I-35.36071 J29.90865
G3 X28.55004 Y19.24328 I19.99215 J-44.01263
G3 X26.3418 Y17.90723 I7.90951 J-15.56579
G3 X25.43039 Y17.01793 I2.61656 J-3.59329
G3 X25.04078 Y16.18072 I1.58977 J-1.24909
G0 Z5.0
G0 X33.56972 Y16.48971
G0 Z3.5
G1 F700.0 Z-0.5
G2 F1400.0 X33.56836 Y16.55225 I2.153 J0.078
G2 X33.63439 Y17.05921 I1.79459 J0.02405
G2 X33.88574 Y17.50439 I1.02806 J-0.2869
G2 X34.78906 Y18.10254 I2.07757 J-2.15638
G2 X35.59473 Y19.23779 I10.29331 J-6.45142
G2 X36.64453 Y20.49512 I103.66807 J-85.49087
G2 X39.62305 Y26.59863 I46.57217 J-18.9487
G2 X40.30664 Y27.70947 I13.21216 J-7.36481
G2 X40.49131 Y27.90854 I0.75307 J-0.5134
G2 X40.74609 Y28.00244 I0.26417 J-0.32419
G2 X40.97062 Y27.89956 I-0.00948 J-0.31711
G2 X41.1123 Y27.69727 I-0.58973 J-0.56382
G2 X41.271 Y26.90381 I-1.58748 J-0.73009
G2 X41.13672 Y25.80518 I-4.24369 J-0.03885
G2 X40.77051 Y24.79199 I-5.1066 J1.27299
G2 X40.11133 Y23.5835 I-11.96727 J5.74358
G3 X39.59863 Y22.70459 I104.14041 J-61.33756
G2 X38.21924 Y20.32422 I-161.51816 J92.00785
G2 X36.99854 Y18.26123 I-496.62573 J292.46873
G3 X36.36377 Y17.12598 I26.40961 J-15.51175
G2 X37.40137 Y16.13721 I-8.57682 J-10.03917
G2 X38.07275 Y15.14844 I-2.93098 J-2.7125
G3 X38.82959 Y15.52686 I-1.44963 J3.84531
G3 X39.63525 Y16.125 I-5.13704 J7.76093
G2 X40.53857 Y16.84521 I13.21506 J-15.64823
G1 Y16.00293
G2 X39.42773 Y14.94092 I-18.65091 J18.39646
G2 X38.39014 Y14.26953 I-3.45278 J4.19863
G2 X38.28027 Y12.37744 I-14.06842 J-0.13236
G2 X37.79199 Y10.7417 I-6.13304 J0.94001
G2 X36.62012 Y8.84961 I-8.42465 J3.9089
G2 X35.08203 Y7.29932 I-6.09977 J4.5136
G2 X34.52638 Y6.94622 I-2.78926 J3.77555
G2 X33.89795 Y6.75 I-0.74005 J1.26571
G2 X33.35723 Y7.02671 I0.04291 J0.75051
G2 X33.01904 Y7.53125 I1.72069 J1.51898
G2 X32.70286 Y8.47789 I3.1017 J1.56211
G2 X32.61621 Y9.47217 I5.26369 J0.95963
G2 X32.99463 Y11.81592 I8.01268 J-0.09129
G2 X34.1665 Y15.00195 I39.51551 J-12.72591
G2 X33.73889 Y15.72751 I2.54191 J1.98689
G2 X33.56972 Y16.48971 I1.98382 J0.8402
G0 Z5.0
G0 X35.06982 Y14.2207
G0 Z3.5
G1 F700.0 Z-0.5
G3 F1400.0 X34.43447 Y12.3769 I14.61677 J-6.06815
G3 X34.14209 Y10.44873 I7.3002 J-2.09322
G3 X34.36182 Y9.1792 I3.31426 J-0.08016
G3 X34.55884 Y8.84355 I1.34585 J0.56436
G3 X34.89893 Y8.6543 I0.36755 J0.26028
G3 X35.346 Y8.86392 I-0.08863 J0.77059
G3 X35.69238 Y9.21582 I-1.88231 J2.19921
G3 X36.19341 Y10.00537 I-2.73035 J2.28634
G3 X36.53467 Y10.87598 I-6.2558 J2.95434
G3 X36.81412 Y12.21141 I-6.78901 J2.11761
G3 X36.88867 Y13.57373 I-11.55642 J1.31564
G1 X36.86426 Y13.83008
G2 X36.31494 Y13.80566 I-0.43356 J3.5631
G2 X35.82666 Y13.91553 I0.39134 J2.8793
G2 X35.39941 Y14.07422 I1.1523 J3.75682
G3 X35.06982 Y14.2207 I-1.93214 J-3.90329
G0 Z5.0
G0 X40.4043 Y15.90527
G0 Z3.5
G1 F700.0 Z-0.5
G1 F1400.0 Y16.74756
G3 X42.07055 Y18.53823 I-8.39431 J9.48163
G3 X43.50488 Y20.51953 I-25.88668 J20.25013
G3 X43.16309 Y20.53174 I-0.35329 J-5.10097
G3 X42.78467 Y20.54395 I-0.35272 J-5.06277
G3 X41.71045 Y20.44629 I-0.12388 J-4.59437
G3 X41.42969 Y20.36084 I0.68428 J-2.75232
G2 X41.25879 Y20.32422 I-0.24903 J0.74507
G2 X41.20996 Y20.39746 I0.00852 J0.05858
G2 X41.39203 Y21.02994 I1.65539 J-0.13409
G2 X41.71045 Y21.60596 I5.13397 J-2.462
G2 X42.46729 Y22.61914 I4.12575 J-2.29262
G2 X43.34619 Y23.05859 I1.24899 J-1.39934
G2 X44.81104 Y23.18066 I1.31614 J-6.94363
G1 X45.33594
G2 X45.86254 Y24.04104 I9.8513 J-5.43822
G2 X46.50781 Y24.81641 I3.77579 J-2.48611
G2 X47.7041 Y25.30469 I1.19608 J-1.2208
G2 X48.09213 Y25.26723 I0.03133 J-1.704
G2 X48.28222 Y25.18461 I-0.10839 J-0.50935
G2 X48.37549 Y24.99951 I-0.12934 J-0.18122
G2 X48.27822 Y24.78065 I-0.58726 J0.12995
G2 X47.85059 Y24.20605 I-5.53436 J3.67243
G3 X47.05713 Y23.11963 I8.35191 J-6.93267
G1 X47.78955 Y23.03418
G2 X48.30225 Y22.97314 I-2.59903 J-24.0157
G2 X46.55664 Y20.32422 I-16.90626 J9.24137
G3 X45.98291 Y20.36084 I-2.20731 J-30.06861
G3 X45.50684 Y20.39746 I-0.89996 J-8.58664
G3 X44.93311 Y20.44629 I-1.83097 J-18.11882
G3 X43.82227 Y18.54199 I30.15837 J-18.86853
G3 X43.13867 Y17.01611 I10.02603 J-5.40773
G3 X42.90674 Y15.69775 I3.95539 J-1.37544
G3 X43.03965 Y15.11497 I1.10423 J-0.05471
G3 X43.57813 Y14.85547 I0.49235 J0.3332
G3 X44.21403 Y15.02125 I-0.08136 J1.61455
G3 X44.78662 Y15.34375 I-1.83619 J3.92969
G3 X46.80078 Y16.86963 I-15.91718 J23.10296
G1 Y16.05176
G2 X44.62136 Y13.91498 I-19.28935 J17.49446
G2 X43.38238 Y12.99577 I-6.64228 J7.65839
G2 X42.68991 Y12.64164 I-2.43566 J3.90854
G2 X41.93018 Y12.4751 I-0.82342 J1.9402
G2 X41.03906 Y12.90234 I-0.02675 J1.08713
G2 X40.70947 Y14.00098 I1.42815 J1.0272
G2 X40.89258 Y15.0752 I3.96057 J-0.12238
G2 X41.57617 Y16.95508 I33.45158 J-11.09998
G3 X41.24658 Y16.66211 I7.96955 J-9.29762
G2 X40.96582 Y16.40576 I-29.64416 J32.18548
G1 X40.69727 Y16.16162
G3 X40.4043 Y15.90527 I5.31671 J-6.37182
G0 Z5.0
G0 X46.73023 Y16.13343
G0 Z3.5
G1 F700.0 Z-0.5
G2 F1400.0 X46.72754 Y16.50342 I6.42707 J0.23181
G1 Y16.79639
G3 X51.06104 Y21.44727 I-187.59941 J179.14168
G2 X51.42117 Y22.44519 I2.62356 J-0.38286
G2 X52.35498 Y22.94873 I0.90735 J-0.56503
G2 X52.9043 Y22.80225 I-0.03758 J-1.24413
G1 X52.97754 Y22.57031
G3 X52.92871 Y22.15527 I1.37561 J-0.37223
G3 X53.09961 Y21.28857 I4.57872 J0.45265
G2 X53.38037 Y20.23877 I-17.83898 J-5.33334
G2 X53.47803 Y19.27441 I-4.26739 J-0.91926
G2 X53.11182 Y17.72412 I-3.47165 J0.00167
G2 X52.0498 Y16.30811 I-4.78792 J2.48468
G2 X50.25537 Y14.92871 I-8.13325 J8.72355
G3 X50.95117 Y14.85547 I0.83296 J4.57148
G3 X52.02539 Y15.09961 I-0.06487 J2.77079
G3 X53.20947 Y15.771 I-2.86469 J6.43212
G3 X54.62549 Y16.86963 I-12.8477 J18.02111
G1 Y16.05176
G2 X53.28362 Y14.82479 I-17.94827 J18.28174
G2 X51.83008 Y13.73242 I-9.24373 J10.78681
G2 X50.82029 Y13.19982 I-3.51888 J5.44809
G2 X49.70605 Y12.95117 I-1.20255 J2.76795
G2 X48.54422 Y13.22233 I-0.00021 J2.62374
G2 X47.58203 Y13.92773 I1.62405 J3.22417
G2 X47.1525 Y14.44474 I2.67652 J2.66063
G2 X46.86182 Y15.05078 I1.69325 J1.18488
G2 X46.73023 Y16.13343 I6.29548 J1.31446
G0 Z5.0
G0 X47.82617 Y16.86963
G0 Z3.5
G1 F700.0 Z-0.5
G2 F1400.0 X48.35364 Y16.7192 I-0.7687 J-3.69545
G2 X48.82715 Y16.44238 I-0.43723 J-1.29128
G2 X49.58398 Y15.40479 I-5.51963 J-4.8209
G3 X50.85352 Y16.33252 I-1.04461 J2.76196
G3 X51.21076 Y17.10773 I-1.71048 J1.25817
G3 X51.30518 Y17.95605 I-3.43827 J0.81208
G3 X51.29297 Y18.17578 I-1.80402 J0.00998
G3 X51.28076 Y18.37109 I-1.57323 J-0.00029
G1 X51.06104 Y20.15332
G2 X49.46393 Y18.49145 I-35.26413 J32.2913
G2 X47.82617 Y16.86963 I-149.31603 J149.14626
G0 Z5.0
G0 X54.39306 Y16.28794
G0 Z3.5
G1 F700.0 Z-0.5
G2 F1400.0 X54.62549 Y17.23584 I3.20785 J-0.28415
G2 X55.40674 Y18.60303 I11.29146 J-5.54546
G2 X56.03686 Y19.47309 I17.74275 J-12.1865
G2 X56.7373 Y20.2876 I6.4426 J-4.83197
G2 X57.23558 Y20.65332 I1.42907 J-1.4247
G2 X57.83594 Y20.80029 I0.60683 J-1.17916
G2 X58.43408 Y20.65381 I0.03535 J-1.1501
G2 X58.67822 Y20.27539 I-0.17271 J-0.37939
G2 X58.5025 Y19.82738 I-1.03049 J0.14571
G2 X58.22656 Y19.43311 I-3.85815 J2.40654
G2 X57.10352 Y18.22461 I-7.04659 J5.42228
G3 X56.40771 Y17.3457 I3.30224 J-3.32915
G3 X56.20221 Y16.99141 I3.28148 J-2.14008
G3 X56.07813 Y16.60107 I0.88093 J-0.49494
G3 X56.12761 Y16.37508 I0.44431 J-0.02113
G3 X56.33447 Y16.27148 I0.18964 J0.12035
G3 X56.63522 Y16.43325 I-0.18934 J0.71249
G3 X57.38428 Y17.12598 I-5.41418 J6.60576
G2 X59.22754 Y18.98145 I232.43092 J-229.05847
G2 X61.09521 Y20.65381 I14.26153 J-14.04803
G2 X61.77702 Y21.09994 I2.82021 J-3.566
G2 X62.56006 Y21.3252 I0.86795 J-1.54352
G2 X63.1582 Y21.04443 I0.01755 J-0.74014
G2 X63.40234 Y20.37305 I-0.71743 J-0.64097
G2 X63.26077 Y19.86919 I-1.57246 J0.17003
G2 X63.03613 Y19.39648 I-6.22299 J2.66746
G2 X61.96191 Y17.66309 I-16.72602 J9.16586
G2 X60.15527 Y15.17285 I-50.49969 J34.73657
G3 X63.04834 Y17.76074 I-187.9673 J213.04431
G3 X64.94043 Y19.50635 I-475.02059 J516.78069
G2 X66.16113 Y20.58057 I26.69487 J-29.10439
G2 X66.47701 Y20.83056 I4.08308 J-4.83459
G2 X66.6449 Y20.94381 I1.39609 J-1.88852
G2 X66.83252 Y21.02002 I0.26762 J-0.38982
G2 X67.17524 Y20.79504 I-0.04349 J-0.43978
G2 X67.36963 Y20.43408 I-1.62773 J-1.10941
G2 X67.62598 Y19.49414 I-2.3614 J-1.14895
G2 X67.48598 Y19.18404 I-0.74905 J0.1515
G2 X66.84473 Y18.39551 I-6.31784 J4.48286
G3 X65.68506 Y17.02832 I17.93997 J-16.39235
G3 X65.30664 Y15.9541 I1.40823 J-1.09984
G3 X65.52637 Y15.41699 I0.70583 J-0.02475
G3 X66.05127 Y15.22168 I0.51015 J0.56804
G3 X66.49997 Y15.3414 I-0.0403 J1.05179
G3 X66.89355 Y15.58789 I-1.11052 J2.21065
G3 X68.45605 Y16.89404 I-16.43841 J21.2523
G1 Y16.02734
G2 X66.52734 Y14.29395 I-33.51858 J35.35561
G2 X65.01367 Y13.20752 I-7.15695 J8.3738
G2 X64.50364 Y12.96761 I-1.81696 J3.20059
G2 X63.95166 Y12.85352 I-0.60294 J1.52477
G2 X63.31689 Y13.13428 I-0.0146 J0.82494
G2 X63.06055 Y13.85449 I0.7996 J0.69033
G2 X63.20703 Y14.69678 I2.58861 J-0.01631
G2 X63.65869 Y15.70996 I7.27362 J-2.6352
G2 X64.46436 Y17.11377 I21.58074 J-11.45237
G1 X65.37988 Y18.62744
G3 X63.17041 Y16.67432 I20.88392 J-25.85123
G3 X61.5957 Y15.02637 I18.99906 J-19.73099
G2 X60.63135 Y13.92773 I-304.31582 J266.1491
G2 X60.07154 Y13.42358 I-2.42592 J2.13082
G2 X59.36182 Y13.1709 I-0.76692 J1.03104
G2 X58.83774 Y13.47731 I-0.03619 J0.5395
G2 X58.72705 Y14.07422 I1.26121 J0.54259
G2 X58.90952 Y14.74755 I2.12426 J-0.21427
G2 X59.20313 Y15.38037 I8.14436 J-3.39418
G2 X60.55811 Y17.79736 I34.39447 J-17.69345
G3 X60.63135 Y18.10254 I-0.45609 J0.27084
G3 X60.38721 Y18.34668 I-0.21362 J0.03052
G3 X59.95857 Y18.14825 I0.12276 J-0.82736
G3 X59.60596 Y17.83398 I2.19418 J-2.81688
G3 X57.65283 Y15.72217 I57.51352 J-55.15078
G3 X56.7373 Y14.53809 I10.07775 J-8.73806
G2 X56.01709 Y13.57373 I-10.53038 J7.11334
G2 X55.57764 Y13.32959 I-0.49844 J0.37961
G2 X55.06847 Y13.61528 I0.05373 J0.69233
G2 X54.75977 Y14.11084 I1.84328 J1.49217
G2 X54.38135 Y15.92969 I3.76494 J1.7321
G2 X54.39306 Y16.28794 I3.21956 J0.07411
G0 Z5.0
G0 X59.20842 Y9.93767
G0 Z3.5
G1 F700.0 Z-0.5
G2 F1400.0 X60.08203 Y10.43164 I2.26651 J-2.98896
G2 X61.69336 Y10.73633 I1.58431 J-3.96547
G2 X62.64695 Y10.63941 I0.02157 J-4.52738
G2 X63.55078 Y10.32031 I-0.76294 J-3.60062
G2 X64.23773 Y9.88084 I-1.78806 J-3.55154
G2 X64.79883 Y9.28906 I-1.82206 J-2.28951
G2 X65.10466 Y8.74536 I-2.18661 J-1.58781
G2 X65.23242 Y8.13477 I-1.49513 J-0.63152
G2 X65.02148 Y7.60742 I-0.75447 J-0.00407
G2 X64.51172 Y7.37891 I-0.5035 J0.44036
G2 X64.24494 Y7.41078 I-0.01315 J1.02222
G2 X64.00781 Y7.53711 I0.13574 J0.54052
G2 X63.80423 Y7.79669 I1.08366 J1.05954
G2 X63.63867 Y8.08203 I3.26333 J2.08405
G3 X63.29476 Y8.60786 I-2.88398 J-1.51088
G3 X62.83594 Y9.03711 I-1.70697 J-1.36471
G3 X62.2949 Y9.28249 I-0.96219 J-1.40233
G3 X61.70508 Y9.35352 I-0.57042 J-2.25258
G3 X60.75058 Y9.15433 I-0.03405 J-2.2234
G3 X59.99414 Y8.53906 I0.90093 J-1.88027
G3 X59.48892 Y7.43346 I2.29525 J-1.71709
G3 X59.36133 Y6.22461 I5.12797 J-1.1524
G3 X59.42047 Y5.37593 I5.684 J-0.03031
G3 X59.64258 Y4.55469 I3.42673 J0.48613
G3 X59.96482 Y3.99825 I2.27066 J0.94347
G3 X60.43945 Y3.56445 I1.49183 J1.15569
G3 X61.64648 Y3.23633 I1.15799 J1.87562
G3 X62.30863 Y3.32031 I0.02088 J2.48768
G3 X62.91211 Y3.60547 I-0.49374 J1.82605
G3 X63.388 Y4.09362 I-1.17342 J1.61998
G3 X63.69727 Y4.70117 I-2.2044 J1.50462
G2 X63.97266 Y5.25195 I1.75307 J-0.5323
G2 X64.21027 Y5.42373 I0.40323 J-0.30755
G2 X64.5 Y5.46875 I0.27415 J-0.80946
G2 X65.0332 Y5.25195 I0.01091 J-0.73727
G2 X65.25586 Y4.71289 I-0.49921 J-0.52171
G2 X65.05078 Y3.82227 I-2.29981 J0.06064
G2 X64.41797 Y2.88477 I-2.94345 J1.3045
G2 X63.31055 Y2.14063 I-2.34232 J2.28971
G2 X62.53985 Y1.91798 I-1.33792 J3.18611
G2 X61.74023 Y1.85352 I-0.77825 J4.66169
G2 X60.50391 Y1.98242 I-0.05052 J5.50864
G2 X59.49023 Y2.38086 I0.78283 J3.48029
G2 X58.6582 Y3.10156 I1.84484 J2.97045
G2 X58.07813 Y4.00391 I3.29514 J2.75593
G2 X57.71484 Y5.07617 I4.41365 J2.09301
G2 X57.59766 Y6.2832 I5.85952 J1.17809
G2 X57.89648 Y8.14063 I5.42229 J0.08039
G2 X58.76367 Y9.54102 I3.73483 J-1.34409
G2 X59.20842 Y9.93767 I2.71126 J-2.5923
G0 Z5.0
G0 X66.84435 Y9.62078
G0 Z3.5
G1 F700.0 Z-0.5
G2 F1400.0 X66.9375 Y10.13867 I1.93206 J-0.08018
G2 X67.30664 Y10.56641 I0.85477 J-0.36453
G2 X67.86328 Y10.73633 I0.55535 J-0.82255
G2 X68.26172 Y10.66016 I0.02497 J-0.94952
G2 X68.55469 Y10.45508 I-0.37179 J-0.84293
G2 X68.8125 Y10.12109 I-1.38816 J-1.33806
G2 X69.08789 Y9.69336 I-22.7872 J-14.97373
G1 X72.43359 Y4.63086
G1 Y9.74023
G2 X72.47463 Y10.13057 I1.68708 J0.01996
G2 X72.64453 Y10.48438 I0.81948 J-0.17582
G2 X73.22461 Y10.73633 I0.55108 J-0.47503
G2 X73.81641 Y10.48438 I0.0341 J-0.7409
G2 X73.99079 Y10.13153 I-0.63368 J-0.53269
G2 X74.0332 Y9.74023 I-1.59956 J-0.37133
G1 Y2.98438
G2 X73.99487 Y2.57328 I-2.018 J-0.01917
G2 X73.69132 Y2.03096 I-0.89354 J0.14402
G2 X73.0957 Y1.85352 I-0.55167 J0.7634
G2 X72.67383 Y1.92383 I-0.01709 J1.19827
G2 X72.32227 Y2.13477 I0.34407 J0.97189
G2 X72.01758 Y2.47461 I1.4356 J1.5936
G2 X71.73633 Y2.87891 I30.41369 J21.45732
G1 X68.47266 Y7.88281
G1 Y2.84961
G2 X68.42672 Y2.45656 I-1.53923 J-0.01932
G2 X68.24414 Y2.10547 I-0.81 J0.19821
G2 X67.6582 Y1.85352 I-0.56363 J0.50346
G2 X67.06641 Y2.10547 I-0.02964 J0.75137
G2 X66.88895 Y2.45775 I0.66534 J0.55598
G2 X66.84375 Y2.84961 I1.51438 J0.37322
G1 Y9.47656
G2 X66.84435 Y9.62078 I1.93266 J0.06404
G0 Z5.0
G0 X69.6105 Y13.16062
G0 Z3.5
G1 F700.0 Z-0.5
G2 F1400.0 X69.5683 Y13.19654 I0.40699 J0.52082
G2 X69.27393 Y13.48828 I1.54528 J1.85363
G2 X68.55371 Y14.68457 I3.57913 J2.96972
G2 X68.24854 Y16.22266 I3.71401 J1.53623
G2 X68.3584 Y17.1748 I3.53931 J0.07403
G2 X68.78564 Y17.96826 I2.22246 J-0.68495
G2 X69.79883 Y19.03027 I8.72641 J-7.31089
G2 X71.50718 Y20.41415 I12.40234 J-13.5639
G2 X73.3999 Y21.53271 I7.20803 J-10.03609
G2 X74.70989 Y22.06994 I5.53286 J-11.62568
G2 X76.09766 Y22.35059 I1.59855 J-4.33318
G2 X76.57373 Y22.13086 I-0.01969 J-0.66828
G2 X76.91553 Y21.64258 I-1.00916 J-1.07018
G2 X77.0498 Y21.22754 I-1.06349 J-0.57331
G2 X76.87891 Y20.89795 I-0.36567 J-0.0195
G2 X76.28076 Y20.65381 I-1.88026 J3.75184
G3 X76.50049 Y20.15332 I96.14307 J41.91068
G2 X76.70801 Y19.65283 I-9.57064 J-4.26158
G2 X76.78125 Y19.32324 I-0.83606 J-0.35872
G2 X76.69176 Y19.01991 I-0.80301 J0.07203
G2 X76.18311 Y18.22461 I-4.72685 J2.4629
G3 X75.35303 Y17.05273 I21.86159 J-16.36522
G3 X75.12109 Y16.125 I1.52204 J-0.87337
G3 X75.31151 Y15.46693 I1.01449 J-0.06304
G3 X75.95117 Y15.22168 I0.5795 J0.55466
G3 X76.71286 Y15.4393 I-0.1177 J1.85372
G3 X77.71047 Y16.07223 I-2.9742 J5.79056
G3 X78.62451 Y16.8208 I-9.19883 J12.16455
G1 Y16.07617
G2 X76.64465 Y14.06528 I-20.43378 J18.13839
G2 X75.52784 Y13.17909 I-6.9773 J7.64622
G2 X74.90249 Y12.82377 I-2.49558 J3.66418
G2 X74.20557 Y12.646 I-0.77446 J1.58113
G2 X73.82178 Y12.71425 I-0.02099 J0.99515
G2 X73.52197 Y12.96338 I0.24665 J0.60178
G2 X73.36318 Y13.4081 I1.0539 J0.62701
G2 X73.32666 Y13.87891 I2.70595 J0.44674
G2 X73.56481 Y15.30393 I5.70255 J-0.22062
G2 X74.02246 Y16.67432 I15.18282 J-4.30876
G2 X71.37354 Y13.85449 I-52.64566 J46.80091
G2 X70.72754 Y13.32226 I-3.43378 J3.50962
G2 X69.94531 Y13.02441 I-0.90925 J1.21185
G2 X69.6105 Y13.16062 I0.07217 J0.65702
G0 Z5.0
G0 X70.16258 Y14.9469
G0 Z3.5
G1 F700.0 Z-0.5
G3 F1400.0 X70.2749 Y14.92871 I0.12104 J0.39162
G3 X70.75098 Y15.09961 I-0.26285 J1.48078
G3 X73.09473 Y17.06494 I-4.96026 J8.29552
G3 X75.646 Y20.37305 I-35.36071 J29.90865
G3 X73.32543 Y19.24328 I19.99215 J-44.01263
G3 X71.11719 Y17.90723 I7.90951 J-15.56579
G3 X70.20578 Y17.01793 I2.61656 J-3.59329
G3 X69.77441 Y15.81982 I1.58977 J-1.24909
G3 X69.90869 Y15.17285 I1.40231 J-0.04638
G3 X70.16258 Y14.9469 I0.37493 J0.16567
G0 Z5.0
G0 X78.40829 Y15.615
G0 Z3.5
G1 F700.0 Z-0.5
G2 F1400.0 X78.39258 Y16.125 I5.08354 J0.41189
G2 X78.53906 Y17.1748 I3.0964 J0.10307
G2 X79.14941 Y18.24902 I7.26015 J-3.41458
G2 X79.82915 Y19.23083 I15.95434 J-10.31955
G2 X80.60205 Y20.14111 I6.52374 J-4.75587
G2 X81.12896 Y20.55962 I1.89223 J-1.84138
G2 X81.77393 Y20.75146 I0.6766 J-1.09463
G2 X82.39648 Y20.61719 I0.05345 J-1.26253
G2 X82.64063 Y20.20215 I-0.19823 J-0.39593
G2 X82.56738 Y19.9458 I-0.53979 J0.01559
G2 X82.39648 Y19.70166 I-1.15102 J0.62383
G2 X82.01807 Y19.27441 I-7.54309 J6.29982
G3 X80.91939 Y17.98241 I18.1928 J-16.58377
G3 X80.42178 Y17.28926 I7.15791 J-5.66377
G3 X80.2103 Y16.91549 I3.06607 J-1.98147
G3 X80.08936 Y16.50342 I0.93784 J-0.49905
G3 X80.12718 Y16.27522 I0.58411 J-0.0204
G3 X80.32129 Y16.14941 I0.18357 J0.07058
G3 X80.48833 Y16.22871 I-0.0606 J0.34323
G3 X80.88281 Y16.61328 I-1.981 J2.42667
G3 X81.96924 Y17.84619 I-92.86636 J82.92786
G2 X83.54395 Y19.44531 I15.47418 J-13.66304
G2 X85.61914 Y21.04443 I11.64675 J-12.96804
G2 X86.12496 Y21.34468 I2.06177 J-2.89718
G2 X86.69336 Y21.49609 I0.63286 J-1.2332
G2 X86.84519 Y21.41292 I-0.01838 J-0.21371
G2 X87.07178 Y20.95898 I-1.16106 J-0.86309
G2 X87.26709 Y19.87256 I-2.96318 J-1.09348
G2 X87.06184 Y19.42691 I-0.89228 J0.14086
G2 X86.74219 Y19.05469 I-3.1962 J2.42143
G3 X85.47043 Y17.51578 I15.57884 J-14.16932
G3 X84.91932 Y16.67409 I6.5441 J-4.88617
G3 X84.70181 Y16.21685 I3.13116 J-1.76978
G3 X84.59375 Y15.72217 I1.33934 J-0.55173
G3 X84.68018 Y15.35618 I0.67207 J-0.03449
G3 X85.021 Y15.19727 I0.31101 J0.22207
G3 X85.50253 Y15.32094 I-0.05941 J1.23058
G3 X85.93652 Y15.56348 I-1.35917 J2.94169
G3 X87.71875 Y16.89404 I-18.28239 J26.34723
G1 Y16.05176
G2 X85.05762 Y13.58594 I-31.83239 J31.6849
G2 X84.35739 Y13.09429 I-3.34596 J4.02102
G2 X83.54395 Y12.8291 I-0.93298 J1.48164
G2 X83.07761 Y12.92462 I-0.02501 J1.06407
G2 X82.63785 Y13.46065 I0.39908 J0.77581
G2 X82.54297 Y14.14746 I2.09554 J0.63945
G2 X82.66504 Y14.9165 I2.49043 J-0.0011
G2 X82.99463 Y15.69775 I4.94665 J-1.62672
G2 X83.65381 Y16.86963 I34.06404 J-18.38969
G2 X84.66699 Y18.60303 I100.94784 J-57.84192
G3 X83.7452 Y17.96203 I2.48337 J-4.55454
G3 X82.92139 Y17.19922 I8.50657 J-10.01308
G3 X81.76172 Y15.94189 I9.11026 J-9.56613
G3 X80.73633 Y14.62354 I33.95583 J-27.46803
G2 X79.94287 Y13.64697 I-8.99412 J6.4971
G2 X79.44238 Y13.40283 I-0.54267 J0.4774
G2 X79.17246 Y13.50612 I0.01144 J0.43425
G2 X78.90552 Y13.83708 I0.76757 J0.89222
G2 X78.72217 Y14.2207 I2.62941 J1.49237
G2 X78.40829 Y15.615 I4.76967 J1.80619
G0 Z5.0
G0 X79.08462 Y10.69661
G0 Z3.5
G1 F700.0 Z-0.5
G2 F1400.0 X79.69336 Y10.73633 I0.58172 J-4.23043
G2 X80.64695 Y10.63941 I0.02157 J-4.52738
G2 X81.55078 Y10.32031 I-0.76294 J-3.60062
G2 X82.23773 Y9.88084 I-1.78806 J-3.55154
G2 X82.79883 Y9.28906 I-1.82206 J-2.28951
G2 X83.10466 Y8.74536 I-2.18661 J-1.58781
G2 X83.23242 Y8.13477 I-1.49513 J-0.63152
G2 X83.02148 Y7.60742 I-0.75447 J-0.00407
G2 X82.51172 Y7.37891 I-0.5035 J0.44036
G2 X82.24494 Y7.41078 I-0.01315 J1.02222
G2 X82.00781 Y7.53711 I0.13574 J0.54052
G2 X81.80423 Y7.79669 I1.08366 J1.05954
G2 X81.63867 Y8.08203 I3.26333 J2.08405
G3 X81.29476 Y8.60786 I-2.88398 J-1.51088
G3 X80.83594 Y9.03711 I-1.70697 J-1.36471
G3 X80.2949 Y9.28249 I-0.96219 J-1.40233
G3 X79.70508 Y9.35352 I-0.57042 J-2.25258
G3 X78.75058 Y9.15433 I-0.03405 J-2.2234
G3 X77.99414 Y8.53906 I0.90093 J-1.88027
G3 X77.48892 Y7.43346 I2.29525 J-1.71709
G3 X77.36133 Y6.22461 I5.12797 J-1.1524
G3 X77.42047 Y5.37593 I5.684 J-0.03031
G3 X77.64258 Y4.55469 I3.42673 J0.48613
G3 X77.96482 Y3.99825 I2.27066 J0.94347
G3 X78.43945 Y3.56445 I1.49183 J1.15569
G3 X79.64648 Y3.23633 I1.15799 J1.87562
G3 X80.30863 Y3.32031 I0.02088 J2.48768
G3 X80.91211 Y3.60547 I-0.49374 J1.82605
G3 X81.388 Y4.09362 I-1.17342 J1.61998
G3 X81.69727 Y4.70117 I-2.2044 J1.50462
G2 X81.97266 Y5.25195 I1.75307 J-0.5323
G2 X82.21027 Y5.42373 I0.40323 J-0.30755
G2 X82.5 Y5.46875 I0.27415 J-0.80946
G2 X83.0332 Y5.25195 I0.01091 J-0.73727
G2 X83.25586 Y4.71289 I-0.49921 J-0.52171
G2 X83.05078 Y3.82227 I-2.29981 J0.06064
G2 X82.41797 Y2.88477 I-2.94345 J1.3045
G2 X81.31055 Y2.14063 I-2.34232 J2.28971
G2 X80.53985 Y1.91798 I-1.33792 J3.18611
G2 X79.74023 Y1.85352 I-0.77825 J4.66169
G2 X78.50391 Y1.98242 I-0.05052 J5.50864
G2 X77.49023 Y2.38086 I0.78283 J3.48029
G2 X76.6582 Y3.10156 I1.84484 J2.97045
G2 X76.07813 Y4.00391 I3.29514 J2.75593
G2 X75.71484 Y5.07617 I4.41365 J2.09301
G2 X75.59766 Y6.2832 I5.85952 J1.17809
G2 X75.89648 Y8.14063 I5.42229 J0.08039
G2 X76.76367 Y9.54102 I3.73483 J-1.34409
G2 X78.08203 Y10.43164 I2.71126 J-2.5923
G2 X79.08462 Y10.69661 I1.58431 J-3.96547
G0
Z5
G0
G0
G0
M5
M30
