
; from
; linuxcnc.org/docs/html/gcode/g-code.html#gcode::g5.2-g5.3
; 

G19 ; Plane YZ

G0 Y0 Z0 (rapid move)
F100 (set feed rate)

G5.2 P1 L3
     Y0 Z1 P1
     Y2 Z2 P1
     Y2 Z0 P1
     Y0 Z0 P2
G5.3

; The rapid moves show the same path without the NURBS Block
G0 Y0 Z1
   Y2 Z2
   Y2 Z0
   Y0 Z0

G0 Y0 Z0 (rapid move)
M2



