; generated by Slic3r 0.9.1 on 2012-09-06 at 13:14:52

; layer_height = 0.4
; perimeters = 3
; solid_layers = 3
; fill_density = 0.4
; perimeter_speed = 30
; infill_speed = 60
; travel_speed = 130
; scale = 1
; nozzle_diameter = 0.5
; filament_diameter = 2.8
; extrusion_multiplier = 1.0
; single wall width = 0.53mm
; first layer single wall width = 1.00mm

M190 P60 ; wait for bed temperature to be reached
M104 P185 ; set temperature
;G28 ; home all axes
G92 A0
M109 P185 ; wait for temperature to be reached
G90 ; use absolute coordinates
G21 ; set units to millimeters
G0 Z0.500 F7800.000
G0 X68.840 Y114.224
G0 F1800.000 A1.00000
G1 X69.010 Y114.034 F540.000 A1.01848
G1 X69.570 Y113.524 A1.07339
G1 X69.980 Y113.204 A1.11109
G1 X70.670 Y112.744 A1.17120
G1 X71.070 Y112.514 A1.20465
G1 X71.800 Y112.174 A1.26302
G1 X72.850 Y111.834 A1.34303
G1 X73.630 Y111.664 A1.40089
G1 X73.820 Y111.634 A1.41484
G1 X74.900 Y111.544 A1.49340
G1 X145.090 Y111.544 A6.58136
G1 X146.170 Y111.634 A6.65992
G1 X146.360 Y111.664 A6.67387
G1 X147.140 Y111.834 A6.73174
G1 X148.220 Y112.184 A6.81403
G1 X149.020 Y112.564 A6.87823
G1 X149.870 Y113.114 A6.95162
G1 X150.470 Y113.574 A7.00642
G1 X150.810 Y113.864 A7.03882
G1 X151.350 Y114.424 A7.09521
G1 X151.630 Y114.774 A7.12770
G1 X152.100 Y115.434 A7.18643
G1 X152.600 Y116.314 A7.25980
G1 X152.680 Y116.484 A7.27342
G1 X152.980 Y117.244 A7.33265
G1 X153.040 Y117.424 A7.34640
G1 X153.300 Y118.484 A7.42552
G1 X153.330 Y118.664 A7.43875
G1 X153.420 Y119.474 A7.49782
G1 X153.420 Y130.404 A8.29012
G1 X153.370 Y131.184 A8.34678
G1 X153.290 Y131.754 A8.38850
G1 X153.080 Y132.594 A8.45127
G1 X152.880 Y133.134 A8.49301
G1 X152.640 Y133.654 A8.53453
G1 X152.100 Y134.554 A8.61061
G1 X151.630 Y135.214 A8.66934
G1 X151.510 Y135.364 A8.68327
G1 X150.820 Y136.114 A8.75714
G1 X150.680 Y136.244 A8.77099
G1 X150.060 Y136.754 A8.82918
G1 X149.910 Y136.864 A8.84267
G1 X149.050 Y137.404 A8.91628
G1 X148.880 Y137.494 A8.93022
G1 X148.100 Y137.844 A8.99219
G1 X146.970 Y138.204 A9.07816
G1 X146.170 Y138.354 A9.13716
G1 X145.090 Y138.444 A9.21572
G1 X74.900 Y138.444 A14.30369
G1 X73.820 Y138.354 A14.38225
G1 X73.020 Y138.204 A14.44125
G1 X71.890 Y137.844 A14.52722
G1 X71.110 Y137.494 A14.58919
G1 X70.940 Y137.404 A14.60313
G1 X70.080 Y136.864 A14.67675
G1 X69.930 Y136.754 A14.69023
G1 X69.310 Y136.244 A14.74842
G1 X69.170 Y136.114 A14.76227
G1 X68.480 Y135.364 A14.83615
G1 X68.360 Y135.214 A14.85007
G1 X67.890 Y134.554 A14.90880
G1 X67.390 Y133.674 A14.98217
G1 X67.310 Y133.504 A14.99579
G1 X67.010 Y132.744 A15.05502
G1 X66.950 Y132.564 A15.06877
G1 X66.690 Y131.504 A15.14789
G1 X66.580 Y130.674 A15.20858
G1 X66.540 Y129.984 A15.25868
G1 X66.570 Y119.354 A16.02924
G1 X66.690 Y118.484 A16.09290
G1 X66.950 Y117.424 A16.17201
G1 X67.010 Y117.244 A16.18577
G1 X67.310 Y116.484 A16.24500
G1 X67.390 Y116.314 A16.25862
G1 X67.890 Y115.434 A16.33198
G1 X68.320 Y114.824 A16.38608
G1 X68.739 Y114.335 A16.43277
G1 F1800.000 A15.43277
G0 X75.393 Y129.603 F7800.000
G0 F1800.000 A16.43277
G1 X75.393 Y120.397 F540.000 A17.10015
G1 X144.607 Y120.397 A22.11742
G1 X144.607 Y129.603 A22.78480
G1 X75.543 Y129.603 A27.79119
G0 X74.965 Y130.550 F7800.000
G1 X74.897 Y130.541 F540.000 A27.79619
G1 X74.830 Y130.524 A27.80123
G1 X74.765 Y130.498 A27.80625
G1 X74.705 Y130.465 A27.81124
G1 X74.649 Y130.424 A27.81626
G1 X74.598 Y130.377 A27.82129
G1 X74.554 Y130.324 A27.82629
G1 X74.517 Y130.265 A27.83130
G1 X74.488 Y130.203 A27.83633
G1 X74.466 Y130.137 A27.84134
G1 X74.454 Y130.069 A27.84635
G1 X74.446 Y129.955 A27.85466
G1 X74.446 Y120.045 A28.57296
G1 X74.454 Y119.931 A28.58127
G1 X74.467 Y119.863 A28.58629
G1 X74.488 Y119.797 A28.59130
G1 X74.517 Y119.735 A28.59632
G1 X74.554 Y119.676 A28.60133
G1 X74.598 Y119.623 A28.60635
G1 X74.649 Y119.576 A28.61136
G1 X74.705 Y119.535 A28.61637
G1 X74.765 Y119.502 A28.62138
G1 X74.830 Y119.476 A28.62640
G1 X74.897 Y119.459 A28.63141
G1 X74.965 Y119.450 A28.63643
G1 X145.035 Y119.450 A33.71564
G1 X145.103 Y119.459 A33.72065
G1 X145.170 Y119.476 A33.72567
G1 X145.235 Y119.502 A33.73069
G1 X145.295 Y119.535 A33.73568
G1 X145.351 Y119.575 A33.74069
G1 X145.401 Y119.623 A33.74572
G1 X145.446 Y119.676 A33.75074
G1 X145.483 Y119.735 A33.75576
G1 X145.512 Y119.797 A33.76077
G1 X145.533 Y119.863 A33.76576
G1 X145.546 Y119.931 A33.77078
G1 X145.554 Y120.045 A33.77911
G1 X145.554 Y129.954 A34.49740
G1 X145.544 Y130.104 A34.50826
G1 X145.512 Y130.203 A34.51577
G1 X145.483 Y130.265 A34.52079
G1 X145.446 Y130.324 A34.52581
G1 X145.402 Y130.377 A34.53082
G1 X145.351 Y130.425 A34.53586
G1 X145.295 Y130.465 A34.54088
G1 X145.235 Y130.498 A34.54585
G1 X145.170 Y130.524 A34.55088
G1 X145.103 Y130.541 A34.55591
G1 X145.035 Y130.550 A34.56091
G1 X75.115 Y130.550 A39.62924
G0 X74.906 Y131.496 F7800.000
G1 X74.719 Y131.472 F540.000 A39.64289
G1 X74.537 Y131.426 A39.65654
G1 X74.362 Y131.356 A39.67018
G1 X74.197 Y131.266 A39.68382
G1 X74.045 Y131.155 A39.69747
G1 X73.907 Y131.026 A39.71112
G1 X73.787 Y130.881 A39.72476
G1 X73.686 Y130.722 A39.73841
G1 X73.606 Y130.552 A39.75206
G1 X73.548 Y130.373 A39.76570
G1 X73.513 Y130.188 A39.77935
G1 X73.500 Y129.984 A39.79414
G1 X73.500 Y120.016 A40.51674
G1 X73.513 Y119.812 A40.53153
G1 X73.548 Y119.627 A40.54518
G1 X73.606 Y119.448 A40.55882
G1 X73.686 Y119.278 A40.57247
G1 X73.787 Y119.119 A40.58611
G1 X73.907 Y118.974 A40.59976
G1 X74.044 Y118.845 A40.61340
G1 X74.197 Y118.734 A40.62705
G1 X74.362 Y118.644 A40.64070
G1 X74.537 Y118.574 A40.65434
G1 X74.719 Y118.528 A40.66799
G1 X74.906 Y118.504 A40.68163
G1 X145.094 Y118.504 A45.76948
G1 X145.281 Y118.528 A45.78312
G1 X145.463 Y118.574 A45.79676
G1 X145.638 Y118.644 A45.81042
G1 X145.803 Y118.734 A45.82406
G1 X145.955 Y118.845 A45.83770
G1 X146.093 Y118.974 A45.85135
G1 X146.213 Y119.119 A45.86499
G1 X146.314 Y119.278 A45.87864
G1 X146.394 Y119.448 A45.89229
G1 X146.452 Y119.627 A45.90593
G1 X146.487 Y119.812 A45.91957
G1 X146.500 Y120.016 A45.93437
G1 X146.500 Y129.984 A46.65697
G1 X146.469 Y130.479 A46.69289
G1 X146.417 Y130.479 A46.69662
G1 X146.394 Y130.552 A46.70217
G1 X146.314 Y130.722 A46.71582
G1 X146.213 Y130.881 A46.72947
G1 X146.093 Y131.026 A46.74311
G1 X145.955 Y131.155 A46.75677
G1 X145.803 Y131.266 A46.77041
G1 X145.638 Y131.356 A46.78405
G1 X145.463 Y131.426 A46.79770
G1 X145.281 Y131.472 A46.81135
G1 X145.094 Y131.496 A46.82499
G1 X75.056 Y131.496 A51.90196
G0 X76.622 Y128.940 F1800.000 A50.90196
G0 A51.90196
G1 X76.056 Y128.374 F1080.000 A51.96083
G1 X76.056 Y127.017 A52.06068
G1 X77.979 Y128.940 A52.26072
G1 X79.336 Y128.940 A52.36052
G1 X76.056 Y125.660 A52.70173
G1 X76.056 Y124.303 A52.80158
G1 X80.693 Y128.940 A53.28397
G1 X82.050 Y128.940 A53.38376
G1 X76.056 Y122.946 A54.00732
G1 X76.056 Y121.589 A54.10716
G1 X83.407 Y128.940 A54.87190
G1 X84.764 Y128.940 A54.97174
G1 X76.884 Y121.060 A55.79150
G1 X78.241 Y121.060 A55.89129
G1 X86.121 Y128.940 A56.71105
G1 X87.478 Y128.940 A56.81090
G1 X79.598 Y121.060 A57.63065
G1 X80.955 Y121.060 A57.73045
G1 X88.835 Y128.940 A58.55021
G1 X90.192 Y128.940 A58.65006
G1 X82.312 Y121.060 A59.46982
G1 X83.669 Y121.060 A59.56962
G1 X91.549 Y128.940 A60.38937
G1 X92.906 Y128.940 A60.48922
G1 X85.026 Y121.060 A61.30898
G1 X86.383 Y121.060 A61.40878
G1 X94.263 Y128.940 A62.22854
G1 X95.620 Y128.940 A62.32839
G1 X87.740 Y121.060 A63.14815
G1 X89.098 Y121.060 A63.24800
G1 X96.978 Y128.940 A64.06776
G1 X98.334 Y128.940 A64.16755
G1 X90.454 Y121.060 A64.98731
G1 X91.812 Y121.060 A65.08715
G1 X99.692 Y128.940 A65.90692
G1 X101.048 Y128.940 A66.00671
G1 X93.168 Y121.060 A66.82646
G1 X94.526 Y121.060 A66.92631
G1 X102.406 Y128.940 A67.74607
G1 X103.762 Y128.940 A67.84586
G1 X95.882 Y121.060 A68.66562
G1 X97.239 Y121.060 A68.76546
G1 X105.119 Y128.940 A69.58523
G1 X106.476 Y128.940 A69.68502
G1 X98.596 Y121.060 A70.50478
G1 X99.953 Y121.060 A70.60462
G1 X107.833 Y128.940 A71.42438
G1 X109.191 Y128.940 A71.52423
G1 X101.311 Y121.060 A72.34399
G1 X102.667 Y121.060 A72.44379
G1 X110.547 Y128.940 A73.26355
G1 X111.905 Y128.940 A73.36340
G1 X104.025 Y121.060 A74.18316
G1 X105.381 Y121.060 A74.28296
G1 X113.261 Y128.940 A75.10271
G1 X114.619 Y128.940 A75.20256
G1 X106.739 Y121.060 A76.02233
G1 X108.095 Y121.060 A76.12212
G1 X115.975 Y128.940 A76.94188
G1 X117.333 Y128.940 A77.04173
G1 X109.453 Y121.060 A77.86148
G1 X110.809 Y121.060 A77.96128
G1 X118.689 Y128.940 A78.78104
G1 X120.047 Y128.940 A78.88088
G1 X112.167 Y121.060 A79.70064
G1 X113.524 Y121.060 A79.80048
G1 X121.404 Y128.940 A80.62025
G1 X122.761 Y128.940 A80.72004
G1 X114.881 Y121.060 A81.53979
G1 X116.238 Y121.060 A81.63964
G1 X124.118 Y128.940 A82.45940
G1 X125.474 Y128.940 A82.55919
G1 X117.595 Y121.060 A83.37895
G1 X118.952 Y121.060 A83.47880
G1 X126.832 Y128.940 A84.29856
G1 X128.188 Y128.940 A84.39835
G1 X120.308 Y121.060 A85.21812
G1 X121.666 Y121.060 A85.31797
G1 X129.546 Y128.940 A86.13772
G1 X130.902 Y128.940 A86.23752
G1 X123.022 Y121.060 A87.05728
G1 X124.380 Y121.060 A87.15713
G1 X132.260 Y128.940 A87.97689
G1 X133.617 Y128.940 A88.07674
G1 X125.737 Y121.060 A88.89650
G1 X127.094 Y121.060 A88.99630
G1 X134.974 Y128.940 A89.81605
G1 X136.331 Y128.940 A89.91590
G1 X128.451 Y121.060 A90.73566
G1 X129.808 Y121.060 A90.83545
G1 X137.688 Y128.940 A91.65521
G1 X139.045 Y128.940 A91.75506
G1 X131.165 Y121.060 A92.57481
G1 X132.522 Y121.060 A92.67461
G1 X140.402 Y128.940 A93.49437
G1 X141.759 Y128.940 A93.59421
G1 X133.879 Y121.060 A94.41397
G1 X135.236 Y121.060 A94.51376
G1 X143.116 Y128.941 A95.33355
G1 X143.944 Y128.411 A95.40586
G1 X136.593 Y121.060 A96.17058
G1 X137.950 Y121.060 A96.27043
G1 X143.944 Y127.054 A96.89398
G1 X143.944 Y125.697 A96.99377
G1 X139.307 Y121.060 A97.47616
G1 X140.664 Y121.060 A97.57600
G1 X143.944 Y124.340 A97.91721
G1 X143.944 Y122.983 A98.01700
G1 X142.021 Y121.060 A98.21704
G1 X143.378 Y121.060 A98.31689
G1 X143.944 Y121.626 A98.37576
M140 P50 ; set bed temperature
G0 Z0.900 F1800.000 A97.37576
G0 X145.605 Y130.332 F7800.000
G0 F1800.000 A98.37576
G1 X145.558 Y130.406 F1800.000 A98.37869
G1 X145.503 Y130.472 A98.38161
G1 X145.408 Y130.562 A98.38603
G1 X145.294 Y130.624 A98.39041
G1 X145.213 Y130.656 A98.39334
G1 X145.129 Y130.678 A98.39627
G1 X145.043 Y130.689 A98.39919
G1 X75.062 Y130.689 A100.76148
G1 X75.062 Y130.821 A100.76592
G1 X74.630 Y130.583 A100.78256
G1 X74.560 Y130.532 A100.78549
G1 X74.497 Y130.472 A100.78843
G1 X74.442 Y130.406 A100.79135
G1 X74.395 Y130.333 A100.79427
G1 X74.358 Y130.254 A100.79720
G1 X74.331 Y130.172 A100.80013
G1 X74.325 Y130.137 A100.80131
G1 X74.325 Y130.137 A100.80131
G1 X74.315 Y130.087 A100.80305
G1 X74.313 Y130.052 A100.80423
G1 X74.313 Y130.052 A100.80423
G1 X74.307 Y129.959 A100.80737
G1 X74.307 Y120.041 A101.14216
G1 X74.315 Y119.913 A101.14647
G1 X74.331 Y119.828 A101.14940
G1 X74.347 Y119.779 A101.15114
G1 X74.347 Y119.779 A101.15114
G1 X74.358 Y119.746 A101.15232
G1 X74.395 Y119.667 A101.15525
G1 X74.442 Y119.594 A101.15818
G1 X74.497 Y119.527 A101.16110
G1 X74.560 Y119.468 A101.16403
G1 X74.630 Y119.417 A101.16696
G1 X74.706 Y119.375 A101.16988
G1 X75.085 Y119.225 A101.18364
G1 X75.085 Y119.267 A101.18505
G1 X75.163 Y119.247 A101.18776
G1 X75.163 Y119.311 A101.18992
G1 X145.043 Y119.311 A103.54881
G1 X145.129 Y119.322 A103.55174
G1 X145.213 Y119.343 A103.55467
G1 X145.294 Y119.375 A103.55760
G1 X145.370 Y119.417 A103.56052
G1 X145.440 Y119.468 A103.56344
G1 X145.503 Y119.527 A103.56637
G1 X145.558 Y119.594 A103.56930
G1 X145.605 Y119.668 A103.57223
G1 X145.627 Y119.714 A103.57398
G1 X145.627 Y119.714 A103.57398
G1 X145.642 Y119.746 A103.57515
G1 X145.669 Y119.828 A103.57807
G1 X145.685 Y119.913 A103.58100
G1 X145.693 Y120.041 A103.58532
G1 X145.693 Y129.959 A103.92010
G1 X145.685 Y130.087 A103.92442
G1 X145.669 Y130.172 A103.92735
G1 X145.642 Y130.254 A103.93027
G1 X145.638 Y130.261 A103.93054
G0 X146.128 Y130.447 F7800.000
G1 X146.064 Y130.585 F1800.000 A103.93569
G1 X146.027 Y130.642 A103.93798
G1 X146.027 Y130.642 A103.93798
G1 X145.982 Y130.713 A103.94083
G1 X145.939 Y130.766 A103.94312
G1 X145.939 Y130.766 A103.94312
G1 X145.885 Y130.831 A103.94598
G1 X145.717 Y130.988 A103.95373
G1 X145.517 Y131.098 A103.96145
G1 X145.375 Y131.154 A103.96660
G1 X145.227 Y131.192 A103.97175
G1 X145.076 Y131.211 A103.97689
G1 X74.924 Y131.211 A106.34496
G1 X74.773 Y131.192 A106.35010
G1 X74.625 Y131.154 A106.35525
G1 X74.483 Y131.098 A106.36040
G1 X74.350 Y131.025 A106.36554
G1 X74.226 Y130.935 A106.37068
G1 X74.115 Y130.831 A106.37583
G1 X74.018 Y130.713 A106.38097
G1 X73.937 Y130.585 A106.38612
G1 X73.872 Y130.447 A106.39127
G1 X73.824 Y130.302 A106.39641
G1 X73.796 Y130.152 A106.40155
G1 X73.785 Y129.975 A106.40753
G1 X73.785 Y120.025 A106.74343
G1 X73.792 Y119.916 A106.74712
G1 X73.792 Y119.916 A106.74712
G1 X73.796 Y119.848 A106.74941
G1 X73.824 Y119.698 A106.75455
G1 X73.872 Y119.553 A106.75970
G1 X73.936 Y119.415 A106.76484
G1 X74.018 Y119.287 A106.76999
G1 X74.115 Y119.169 A106.77513
G1 X74.226 Y119.065 A106.78027
G1 X74.350 Y118.975 A106.78542
G1 X74.483 Y118.902 A106.79056
G1 X74.625 Y118.846 A106.79571
G1 X74.773 Y118.808 A106.80085
G1 X75.150 Y118.760 A106.81371
G1 X75.150 Y118.789 A106.81467
G1 X145.076 Y118.789 A109.17510
G1 X145.160 Y118.799 A109.17795
G1 X145.160 Y118.799 A109.17795
G1 X145.227 Y118.808 A109.18024
G1 X145.375 Y118.846 A109.18539
G1 X145.517 Y118.902 A109.19054
G1 X145.591 Y118.943 A109.19339
G1 X145.591 Y118.943 A109.19339
G1 X145.650 Y118.975 A109.19568
G1 X145.773 Y119.065 A109.20082
G1 X145.885 Y119.169 A109.20597
G1 X145.982 Y119.287 A109.21111
G1 X146.064 Y119.415 A109.21626
G1 X146.128 Y119.553 A109.22140
G1 X146.175 Y119.698 A109.22654
G1 X146.204 Y119.848 A109.23169
G1 X146.215 Y120.025 A109.23767
G1 X146.215 Y129.975 A109.57356
G1 X146.204 Y130.152 A109.57955
G1 X146.176 Y130.302 A109.58469
G1 X146.153 Y130.372 A109.58717
G0 X146.651 Y130.528 F7800.000
G1 X146.615 Y130.639 F1800.000 A109.59113
G1 X146.572 Y130.730 A109.59453
G1 X146.572 Y130.730 A109.59453
G1 X146.522 Y130.837 A109.59850
G1 X146.405 Y131.021 A109.60586
G1 X146.266 Y131.189 A109.61322
G1 X145.941 Y131.494 A109.62826
G1 X145.908 Y131.479 A109.62951
G1 X145.740 Y131.572 A109.63598
G1 X145.537 Y131.652 A109.64334
G1 X145.325 Y131.706 A109.65070
G1 X145.109 Y131.734 A109.65807
G1 X75.086 Y131.734 A112.02176
G1 X75.086 Y131.758 A112.02259
G1 X74.675 Y131.706 A112.03661
G1 X74.463 Y131.652 A112.04397
G1 X74.260 Y131.572 A112.05134
G1 X74.069 Y131.467 A112.05870
G1 X73.893 Y131.338 A112.06606
G1 X73.734 Y131.189 A112.07343
G1 X73.595 Y131.021 A112.08079
G1 X73.478 Y130.837 A112.08815
G1 X73.385 Y130.639 A112.09552
G1 X73.318 Y130.432 A112.10288
G1 X73.277 Y130.218 A112.11024
G1 X73.263 Y129.992 A112.11788
G1 X73.263 Y120.008 A112.45489
G1 X73.277 Y119.782 A112.46253
G1 X73.318 Y119.568 A112.46989
G1 X73.385 Y119.361 A112.47726
G1 X73.478 Y119.163 A112.48462
G1 X73.595 Y118.979 A112.49198
G1 X73.734 Y118.811 A112.49935
G1 X73.893 Y118.662 A112.50671
G1 X73.988 Y118.593 A112.51068
G1 X73.988 Y118.593 A112.51068
G1 X74.069 Y118.533 A112.51407
G1 X74.260 Y118.428 A112.52144
G1 X74.463 Y118.348 A112.52880
G1 X74.675 Y118.294 A112.53616
G1 X74.891 Y118.266 A112.54353
G1 X145.109 Y118.266 A114.91382
G1 X145.326 Y118.294 A114.92118
G1 X145.537 Y118.348 A114.92854
G1 X145.646 Y118.391 A114.93251
G1 X145.646 Y118.391 A114.93251
G1 X145.740 Y118.428 A114.93591
G1 X145.931 Y118.533 A114.94327
G1 X146.107 Y118.662 A114.95063
G1 X146.266 Y118.811 A114.95800
G1 X146.405 Y118.979 A114.96536
G1 X146.522 Y119.163 A114.97273
G1 X146.615 Y119.361 A114.98009
G1 X146.682 Y119.568 A114.98745
G1 X146.704 Y119.683 A114.99141
G1 X146.704 Y119.683 A114.99141
G1 X146.723 Y119.782 A114.99481
G1 X146.738 Y120.008 A115.00246
G1 X146.738 Y129.992 A115.33946
G1 X146.723 Y130.218 A115.34710
G1 X146.682 Y130.432 A115.35447
G1 X146.676 Y130.453 A115.35521
G0 X145.251 Y129.984 F7800.000
G1 X144.949 Y130.285 F3600.000 A115.36970
G1 X144.174 Y130.315 A115.39610
G1 X145.319 Y129.170 A115.45121
G1 X145.319 Y128.426 A115.47651
G1 X143.429 Y130.316 A115.56743
G1 X142.685 Y130.315 A115.59276
G1 X145.319 Y127.681 A115.71950
G1 X145.319 Y126.935 A115.74485
G1 X141.939 Y130.315 A115.90744
G1 X141.194 Y130.315 A115.93279
G1 X145.319 Y126.190 A116.13123
G1 X145.319 Y125.445 A116.15658
G1 X140.449 Y130.315 A116.39088
G1 X139.703 Y130.315 A116.41623
G1 X145.319 Y124.699 A116.68638
G1 X145.319 Y123.954 A116.71173
G1 X138.958 Y130.315 A117.01773
G1 X138.214 Y130.315 A117.04303
G1 X145.319 Y123.210 A117.38481
G1 X145.319 Y122.465 A117.41016
G1 X137.469 Y130.315 A117.78780
G1 X136.724 Y130.315 A117.81315
G1 X145.319 Y121.720 A118.22663
G1 X145.319 Y120.974 A118.25198
G1 X135.978 Y130.315 A118.70132
G1 X135.233 Y130.315 A118.72667
G1 X145.319 Y120.229 A119.21186
G1 X145.116 Y119.687 A119.23154
G1 X134.488 Y130.315 A119.74279
G1 X133.743 Y130.316 A119.76811
G1 X144.372 Y119.687 A120.27939
G1 X143.626 Y119.687 A120.30474
G1 X132.999 Y130.315 A120.81599
G1 X132.253 Y130.315 A120.84134
G1 X142.881 Y119.687 A121.35258
G1 X142.136 Y119.687 A121.37793
G1 X131.508 Y130.315 A121.88918
G1 X130.763 Y130.315 A121.91453
G1 X141.391 Y119.687 A122.42577
G1 X140.646 Y119.687 A122.45110
G1 X130.017 Y130.315 A122.96238
G1 X129.272 Y130.315 A122.98773
G1 X139.901 Y119.687 A123.49900
G1 X139.156 Y119.687 A123.52433
G1 X128.528 Y130.315 A124.03558
G1 X127.783 Y130.315 A124.06093
G1 X138.411 Y119.687 A124.57217
G1 X137.665 Y119.687 A124.59752
G1 X127.038 Y130.315 A125.10877
G1 X126.292 Y130.315 A125.13412
G1 X136.921 Y119.687 A125.64539
G1 X136.176 Y119.687 A125.67075
G1 X125.547 Y130.315 A126.18202
G1 X124.802 Y130.315 A126.20737
G1 X135.430 Y119.687 A126.71865
G1 X134.686 Y119.687 A126.74398
G1 X124.058 Y130.315 A127.25522
G1 X123.313 Y130.315 A127.28057
G1 X133.940 Y119.687 A127.79182
G1 X133.195 Y119.687 A127.81717
G1 X122.567 Y130.315 A128.32841
G1 X121.822 Y130.315 A128.35376
G1 X132.451 Y119.687 A128.86504
G1 X131.705 Y119.687 A128.89039
G1 X121.077 Y130.315 A129.40167
G1 X120.331 Y130.315 A129.42702
G1 X130.960 Y119.687 A129.93830
G1 X130.215 Y119.687 A129.96365
G1 X119.586 Y130.315 A130.47493
G1 X118.842 Y130.315 A130.50023
G1 X129.470 Y119.687 A131.01148
G1 X128.726 Y119.687 A131.03680
G1 X118.097 Y130.315 A131.54808
G1 X117.352 Y130.315 A131.57343
G1 X127.980 Y119.687 A132.08471
G1 X127.235 Y119.687 A132.11006
G1 X116.606 Y130.315 A132.62134
G1 X115.861 Y130.315 A132.64669
G1 X126.490 Y119.687 A133.15797
G1 X125.744 Y119.687 A133.18332
G1 X115.116 Y130.315 A133.69460
G1 X114.372 Y130.315 A133.71990
G1 X125.000 Y119.687 A134.23118
G1 X124.255 Y119.687 A134.25653
G1 X113.627 Y130.315 A134.76781
G1 X112.881 Y130.315 A134.79316
G1 X123.510 Y119.687 A135.30444
G1 X122.765 Y119.687 A135.32979
G1 X112.136 Y130.315 A135.84106
G1 X111.391 Y130.315 A135.86642
G1 X122.019 Y119.687 A136.37769
G1 X121.275 Y119.686 A136.40302
G1 X110.646 Y130.315 A136.91433
G1 X109.900 Y130.315 A136.93968
G1 X120.529 Y119.686 A137.45100
G1 X119.785 Y119.687 A137.47632
G1 X109.156 Y130.315 A137.98760
G1 X108.411 Y130.315 A138.01295
G1 X119.040 Y119.687 A138.52423
G1 X118.294 Y119.687 A138.54958
G1 X107.666 Y130.315 A139.06086
G1 X106.920 Y130.315 A139.08621
G1 X117.550 Y119.686 A139.59752
G1 X116.804 Y119.686 A139.62287
G1 X106.175 Y130.315 A140.13418
G1 X105.430 Y130.315 A140.15953
G1 X116.059 Y119.686 A140.67085
G1 X115.315 Y119.687 A140.69617
G1 X104.686 Y130.315 A141.20745
G1 X103.941 Y130.315 A141.23280
G1 X114.569 Y119.687 A141.74408
G1 X113.825 Y119.686 A141.76941
G1 X103.195 Y130.315 A142.28072
G1 X102.450 Y130.315 A142.30607
G1 X113.079 Y119.686 A142.81738
G1 X112.334 Y119.686 A142.84273
G1 X101.705 Y130.315 A143.35405
G1 X100.960 Y130.315 A143.37940
G1 X111.589 Y119.686 A143.89071
G1 X110.844 Y119.686 A143.91606
G1 X100.214 Y130.315 A144.42737
G1 X99.470 Y130.315 A144.45267
G1 X110.100 Y119.686 A144.96399
G1 X109.354 Y119.686 A144.98934
G1 X98.725 Y130.315 A145.50065
G1 X97.980 Y130.315 A145.52600
G1 X108.609 Y119.686 A146.03731
G1 X107.864 Y119.686 A146.06266
G1 X97.235 Y130.315 A146.57398
G1 X96.489 Y130.315 A146.59933
G1 X107.118 Y119.686 A147.11064
G1 X106.373 Y119.686 A147.13599
G1 X95.744 Y130.315 A147.64730
G1 X95.000 Y130.315 A147.67260
G1 X105.629 Y119.686 A148.18392
G1 X104.884 Y119.686 A148.20927
G1 X94.255 Y130.315 A148.72058
G1 X93.509 Y130.315 A148.74593
G1 X104.139 Y119.686 A149.25724
G1 X103.393 Y119.686 A149.28259
G1 X92.764 Y130.315 A149.79391
G1 X92.019 Y130.315 A149.81926
G1 X102.648 Y119.686 A150.33057
G1 X101.904 Y119.685 A150.35590
G1 X91.274 Y130.315 A150.86724
G1 X90.528 Y130.315 A150.89259
G1 X101.158 Y119.685 A151.40394
G1 X100.414 Y119.686 A151.42927
G1 X89.784 Y130.315 A151.94058
G1 X89.039 Y130.315 A151.96593
G1 X99.668 Y119.686 A152.47724
G1 X98.923 Y119.686 A152.50259
G1 X88.294 Y130.315 A153.01390
G1 X87.549 Y130.315 A153.03925
G1 X98.179 Y119.685 A153.55060
G1 X97.433 Y119.685 A153.57595
G1 X86.803 Y130.315 A154.08730
G1 X86.058 Y130.315 A154.11265
G1 X96.688 Y119.685 A154.62399
G1 X95.943 Y119.686 A154.64932
G1 X85.314 Y130.315 A155.16063
G1 X84.569 Y130.315 A155.18598
G1 X95.198 Y119.686 A155.69730
G1 X94.453 Y119.685 A155.72262
G1 X83.824 Y130.315 A156.23397
G1 X83.078 Y130.315 A156.25932
G1 X93.708 Y119.685 A156.77067
G1 X92.963 Y119.685 A156.79602
G1 X82.333 Y130.315 A157.30736
G1 X81.588 Y130.315 A157.33271
G1 X92.218 Y119.685 A157.84406
G1 X91.472 Y119.685 A157.86941
G1 X80.842 Y130.315 A158.38076
G1 X80.099 Y130.315 A158.40606
G1 X90.728 Y119.685 A158.91741
G1 X89.983 Y119.685 A158.94276
G1 X79.353 Y130.315 A159.45410
G1 X78.608 Y130.315 A159.47945
G1 X89.238 Y119.685 A159.99080
G1 X88.493 Y119.685 A160.01615
G1 X77.863 Y130.315 A160.52750
G1 X77.117 Y130.315 A160.55285
G1 X87.747 Y119.685 A161.06419
G1 X87.003 Y119.685 A161.08952
G1 X76.372 Y130.315 A161.60090
G1 X75.628 Y130.315 A161.62620
G1 X86.258 Y119.685 A162.13755
G1 X85.513 Y119.685 A162.16290
G1 X74.883 Y130.315 A162.67425
G1 X74.681 Y129.772 A162.69396
G1 X84.768 Y119.685 A163.17918
G1 X84.022 Y119.685 A163.20453
G1 X74.681 Y129.027 A163.65390
G1 X74.681 Y128.282 A163.67925
G1 X83.277 Y119.685 A164.09277
G1 X82.532 Y119.685 A164.11810
G1 X74.681 Y127.536 A164.49580
G1 X74.681 Y126.791 A164.52115
G1 X81.787 Y119.685 A164.86300
G1 X81.042 Y119.685 A164.88833
G1 X74.681 Y126.046 A165.19433
G1 X74.681 Y125.302 A165.21965
G1 X80.297 Y119.685 A165.48983
G1 X79.552 Y119.685 A165.51519
G1 X74.681 Y124.557 A165.74951
G1 X74.681 Y123.811 A165.77486
G1 X78.807 Y119.685 A165.97338
G1 X78.062 Y119.685 A165.99873
G1 X74.681 Y123.066 A166.16139
G1 X74.681 Y122.321 A166.18674
G1 X77.317 Y119.685 A166.31354
G1 X76.572 Y119.685 A166.33887
G1 X74.681 Y121.576 A166.42983
G1 X74.681 Y120.831 A166.45518
G1 X75.827 Y119.685 A166.51028
G1 X75.014 Y119.752 A166.53801
G1 X74.717 Y120.050 A166.55233
G0 Z1.300 F1800.000 A165.55233
G0 X74.957 Y119.311 F7800.000
G0 F1800.000 A166.55233
G1 X145.043 Y119.311 F1800.000 A168.91819
G1 X145.129 Y119.322 A168.92111
G1 X145.213 Y119.343 A168.92404
G1 X145.395 Y119.416 A168.93065
G1 X145.395 Y119.436 A168.93133
G1 X145.440 Y119.468 A168.93319
G1 X145.503 Y119.527 A168.93612
G1 X145.558 Y119.594 A168.93905
G1 X145.605 Y119.668 A168.94198
G1 X145.660 Y119.785 A168.94637
G1 X145.693 Y119.956 A168.95222
G1 X145.693 Y129.959 A169.28990
G1 X145.685 Y130.087 A169.29421
G1 X145.669 Y130.172 A169.29714
G1 X145.628 Y130.296 A169.30153
G1 X145.558 Y130.406 A169.30594
G1 X145.503 Y130.472 A169.30886
G1 X145.440 Y130.532 A169.31180
G1 X145.370 Y130.583 A169.31473
G1 X145.294 Y130.624 A169.31763
G1 X145.213 Y130.656 A169.32057
G1 X145.087 Y130.689 A169.32497
G1 X74.957 Y130.689 A171.69230
G1 X74.871 Y130.678 A171.69522
G1 X74.787 Y130.656 A171.69815
G1 X74.706 Y130.625 A171.70108
G1 X74.630 Y130.583 A171.70400
G1 X74.560 Y130.532 A171.70693
G1 X74.497 Y130.473 A171.70985
G1 X74.442 Y130.406 A171.71278
G1 X74.372 Y130.296 A171.71718
G1 X74.331 Y130.172 A171.72158
G1 X74.315 Y130.087 A171.72451
G1 X74.307 Y129.959 A171.72883
G1 X74.307 Y120.041 A172.06361
G1 X74.315 Y119.913 A172.06793
G1 X74.331 Y119.828 A172.07085
G1 X74.358 Y119.746 A172.07378
G1 X74.395 Y119.667 A172.07671
G1 X74.442 Y119.594 A172.07964
G1 X74.525 Y119.494 A172.08403
G1 X74.630 Y119.417 A172.08843
G1 X74.706 Y119.375 A172.09136
G1 X74.787 Y119.343 A172.09429
G1 X74.871 Y119.322 A172.09721
G1 X74.879 Y119.321 A172.09748
G0 X74.790 Y118.806 F7800.000
G1 X74.924 Y118.789 F1800.000 A172.10203
G1 X145.076 Y118.789 A174.47011
G1 X145.227 Y118.808 A174.47525
G1 X145.375 Y118.846 A174.48039
G1 X145.517 Y118.902 A174.48554
G1 X145.650 Y118.975 A174.49069
G1 X145.774 Y119.065 A174.49583
G1 X145.885 Y119.169 A174.50097
G1 X145.896 Y119.183 A174.50157
G1 X145.896 Y119.183 A174.50157
G1 X145.982 Y119.287 A174.50612
G1 X146.064 Y119.415 A174.51126
G1 X146.161 Y119.623 A174.51900
G1 X146.238 Y120.025 A174.53284
G1 X146.215 Y120.025 A174.53360
G1 X146.215 Y129.975 A174.86948
G1 X146.204 Y130.152 A174.87546
G1 X146.175 Y130.302 A174.88060
G1 X146.141 Y130.409 A174.88439
G1 X146.157 Y130.438 A174.88551
G1 X145.982 Y130.713 A174.89653
G1 X145.885 Y130.831 A174.90167
G1 X145.773 Y130.935 A174.90683
G1 X145.650 Y131.025 A174.91197
G1 X145.517 Y131.098 A174.91710
G1 X145.375 Y131.154 A174.92225
G1 X145.153 Y131.211 A174.92999
G1 X74.924 Y131.211 A177.30066
G1 X74.773 Y131.192 A177.30580
G1 X74.625 Y131.154 A177.31095
G1 X74.483 Y131.098 A177.31609
G1 X74.350 Y131.025 A177.32123
G1 X74.226 Y130.935 A177.32638
G1 X74.115 Y130.831 A177.33153
G1 X74.029 Y130.727 A177.33608
G1 X74.029 Y130.727 A177.33608
G1 X74.018 Y130.713 A177.33667
G1 X73.895 Y130.520 A177.34441
G1 X73.824 Y130.302 A177.35215
G1 X73.796 Y130.152 A177.35729
G1 X73.787 Y130.018 A177.36184
G1 X73.787 Y130.018 A177.36184
G1 X73.785 Y129.975 A177.36327
G1 X73.785 Y120.025 A177.69917
G1 X73.796 Y119.848 A177.70514
G1 X73.824 Y119.698 A177.71029
G1 X73.872 Y119.553 A177.71543
G1 X73.936 Y119.415 A177.72058
G1 X73.946 Y119.400 A177.72117
G1 X73.946 Y119.400 A177.72117
G1 X74.018 Y119.287 A177.72572
G1 X74.164 Y119.110 A177.73346
G1 X74.350 Y118.975 A177.74120
G1 X74.483 Y118.902 A177.74634
G1 X74.625 Y118.846 A177.75149
G1 X74.713 Y118.823 A177.75457
G0 X74.675 Y118.294 F7800.000
G1 X74.891 Y118.266 F1800.000 A177.76193
G1 X145.109 Y118.266 A180.13222
G1 X145.326 Y118.294 A180.13959
G1 X145.537 Y118.348 A180.14695
G1 X145.740 Y118.428 A180.15431
G1 X145.931 Y118.533 A180.16168
G1 X146.107 Y118.662 A180.16904
G1 X146.266 Y118.811 A180.17640
G1 X146.405 Y118.979 A180.18376
G1 X146.599 Y119.284 A180.19595
G1 X146.588 Y119.303 A180.19670
G1 X146.720 Y119.583 A180.20715
G1 X146.685 Y119.583 A180.20831
G1 X146.723 Y119.782 A180.21515
G1 X146.738 Y120.008 A180.22280
G1 X146.738 Y129.888 A180.55631
G1 X146.744 Y129.888 A180.55653
G1 X146.723 Y130.218 A180.56767
G1 X146.682 Y130.432 A180.57503
G1 X146.615 Y130.639 A180.58239
G1 X146.522 Y130.837 A180.58976
G1 X146.405 Y131.021 A180.59712
G1 X146.266 Y131.189 A180.60449
G1 X146.107 Y131.338 A180.61185
G1 X145.931 Y131.467 A180.61921
G1 X145.740 Y131.572 A180.62657
G1 X145.537 Y131.652 A180.63394
G1 X145.046 Y131.778 A180.65103
G1 X145.046 Y131.734 A180.65252
G1 X74.891 Y131.734 A183.02070
G1 X74.675 Y131.706 A183.02806
G1 X74.463 Y131.652 A183.03543
G1 X74.260 Y131.572 A183.04279
G1 X74.114 Y131.491 A183.04845
G1 X74.114 Y131.491 A183.04845
G1 X74.069 Y131.467 A183.05015
G1 X73.893 Y131.338 A183.05752
G1 X73.734 Y131.189 A183.06488
G1 X73.595 Y131.021 A183.07224
G1 X73.339 Y130.617 A183.08838
G1 X73.363 Y130.572 A183.09011
G1 X73.333 Y130.480 A183.09339
G1 X73.333 Y130.480 A183.09339
G1 X73.318 Y130.432 A183.09510
G1 X73.277 Y130.218 A183.10246
G1 X73.263 Y129.992 A183.11010
G1 X73.263 Y120.008 A183.44711
G1 X73.277 Y119.782 A183.45475
G1 X73.286 Y119.733 A183.45645
G1 X73.286 Y119.733 A183.45645
G1 X73.318 Y119.568 A183.46211
G1 X73.333 Y119.520 A183.46382
G1 X73.333 Y119.520 A183.46382
G1 X73.385 Y119.361 A183.46948
G1 X73.478 Y119.163 A183.47684
G1 X73.595 Y118.979 A183.48420
G1 X73.711 Y118.839 A183.49036
G1 X73.685 Y118.813 A183.49160
G1 X74.069 Y118.533 A183.50763
G1 X74.260 Y118.428 A183.51499
G1 X74.463 Y118.348 A183.52236
G1 X74.598 Y118.313 A183.52706
G0 X75.016 Y130.249 F1800.000 A182.52706
G0 A183.52706
G1 X74.716 Y129.949 F3600.000 A183.54147
G1 X74.681 Y129.169 A183.56804
G1 X75.827 Y130.315 A183.62319
G1 X76.573 Y130.315 A183.64853
G1 X74.681 Y128.424 A183.73951
G1 X74.681 Y127.679 A183.76483
G1 X77.317 Y130.316 A183.89166
G1 X78.062 Y130.315 A183.91700
G1 X74.681 Y126.934 A184.07966
G1 X74.681 Y126.189 A184.10501
G1 X78.807 Y130.315 A184.30351
G1 X79.553 Y130.315 A184.32886
G1 X74.681 Y125.444 A184.56320
G1 X74.681 Y124.698 A184.58855
G1 X80.298 Y130.315 A184.85873
G1 X81.043 Y130.315 A184.88407
G1 X74.681 Y123.953 A185.19009
G1 X74.681 Y123.209 A185.21542
G1 X81.787 Y130.316 A185.55728
G1 X82.533 Y130.315 A185.58262
G1 X74.681 Y122.464 A185.96032
G1 X74.681 Y121.718 A185.98567
G1 X83.278 Y130.315 A186.39921
G1 X84.023 Y130.315 A186.42456
G1 X74.681 Y120.973 A186.87394
G1 X74.681 Y120.228 A186.89929
G1 X84.768 Y130.315 A187.38451
G1 X85.513 Y130.315 A187.40985
G1 X74.883 Y119.684 A187.92122
G1 X75.627 Y119.685 A187.94654
G1 X86.258 Y130.316 A188.45791
G1 X87.003 Y130.315 A188.48325
G1 X76.372 Y119.685 A188.99461
G1 X77.118 Y119.685 A189.01996
G1 X87.748 Y130.315 A189.53132
G1 X88.493 Y130.315 A189.55666
G1 X77.863 Y119.685 A190.06802
G1 X78.608 Y119.685 A190.09337
G1 X89.238 Y130.315 A190.60473
G1 X89.984 Y130.315 A190.63007
G1 X79.353 Y119.685 A191.14143
G1 X80.098 Y119.685 A191.16675
G1 X90.728 Y130.316 A191.67811
G1 X91.473 Y130.315 A191.70345
G1 X80.843 Y119.685 A192.21481
G1 X81.588 Y119.685 A192.24016
G1 X92.218 Y130.315 A192.75151
G1 X92.964 Y130.315 A192.77686
G1 X82.333 Y119.685 A193.28820
G1 X83.079 Y119.685 A193.31355
G1 X93.709 Y130.315 A193.82490
G1 X94.454 Y130.315 A193.85025
G1 X83.824 Y119.685 A194.36160
G1 X84.568 Y119.685 A194.38692
G1 X95.198 Y130.316 A194.89827
G1 X95.944 Y130.315 A194.92361
G1 X85.313 Y119.685 A195.43496
G1 X86.059 Y119.685 A195.46031
G1 X96.689 Y130.315 A195.97165
G1 X97.434 Y130.315 A195.99700
G1 X86.804 Y119.685 A196.50834
G1 X87.549 Y119.685 A196.53369
G1 X98.179 Y130.315 A197.04503
G1 X98.924 Y130.315 A197.07037
G1 X88.294 Y119.685 A197.58171
G1 X89.039 Y119.686 A197.60703
G1 X99.669 Y130.316 A198.11838
G1 X100.414 Y130.315 A198.14372
G1 X89.784 Y119.685 A198.65506
G1 X90.529 Y119.685 A198.68041
G1 X101.159 Y130.315 A199.19174
G1 X101.904 Y130.315 A199.21709
G1 X91.274 Y119.685 A199.72843
G1 X92.020 Y119.685 A199.75377
G1 X102.649 Y130.315 A200.26511
G1 X103.395 Y130.315 A200.29045
G1 X92.765 Y119.685 A200.80178
G1 X93.509 Y119.686 A200.82711
G1 X104.139 Y130.316 A201.33844
G1 X104.884 Y130.315 A201.36378
G1 X94.255 Y119.686 A201.87511
G1 X95.000 Y119.686 A201.90046
G1 X105.629 Y130.315 A202.41179
G1 X106.375 Y130.315 A202.43713
G1 X95.745 Y119.685 A202.94846
G1 X96.490 Y119.685 A202.97381
G1 X107.120 Y130.315 A203.48513
G1 X107.865 Y130.315 A203.51048
G1 X97.235 Y119.685 A204.02181
G1 X97.980 Y119.686 A204.04713
G1 X108.609 Y130.316 A204.55845
G1 X109.355 Y130.315 A204.58380
G1 X98.725 Y119.686 A205.09512
G1 X99.470 Y119.686 A205.12047
G1 X110.100 Y130.315 A205.63179
G1 X110.845 Y130.315 A205.65714
G1 X100.215 Y119.686 A206.16845
G1 X100.961 Y119.686 A206.19380
G1 X111.590 Y130.315 A206.70512
G1 X112.335 Y130.315 A206.73046
G1 X101.706 Y119.685 A207.24178
G1 X102.450 Y119.686 A207.26711
G1 X113.080 Y130.316 A207.77842
G1 X113.825 Y130.315 A207.80377
G1 X103.196 Y119.686 A208.31508
G1 X103.941 Y119.686 A208.34043
G1 X114.570 Y130.315 A208.85174
G1 X115.315 Y130.315 A208.87708
G1 X104.686 Y119.686 A209.38839
G1 X105.431 Y119.686 A209.41374
G1 X116.060 Y130.315 A209.92505
G1 X116.806 Y130.315 A209.95040
G1 X106.176 Y119.686 A210.46171
G1 X106.922 Y119.686 A210.48706
G1 X117.551 Y130.315 A210.99836
G1 X118.295 Y130.316 A211.02368
G1 X107.666 Y119.686 A211.53499
G1 X108.411 Y119.686 A211.56034
G1 X119.040 Y130.315 A212.07164
G1 X119.786 Y130.315 A212.09699
G1 X109.156 Y119.686 A212.60829
G1 X109.902 Y119.686 A212.63364
G1 X120.531 Y130.315 A213.14494
G1 X121.276 Y130.315 A213.17029
G1 X110.647 Y119.686 A213.68158
G1 X111.392 Y119.686 A213.70693
G1 X122.021 Y130.315 A214.21823
G1 X122.766 Y130.316 A214.24355
G1 X112.137 Y119.686 A214.75485
G1 X112.882 Y119.686 A214.78020
G1 X123.511 Y130.315 A215.29149
G1 X124.256 Y130.315 A215.31684
G1 X113.627 Y119.686 A215.82813
G1 X114.372 Y119.686 A215.85348
G1 X125.001 Y130.315 A216.36477
G1 X125.746 Y130.315 A216.39012
G1 X115.117 Y119.686 A216.90141
G1 X115.863 Y119.686 A216.92676
G1 X126.491 Y130.315 A217.43805
G1 X127.236 Y130.316 A217.46337
G1 X116.607 Y119.687 A217.97466
G1 X117.352 Y119.686 A218.00000
G1 X127.981 Y130.315 A218.51129
G1 X128.726 Y130.315 A218.53664
G1 X118.097 Y119.686 A219.04793
G1 X118.843 Y119.686 A219.07328
G1 X129.471 Y130.315 A219.58456
G1 X130.217 Y130.315 A219.60991
G1 X119.588 Y119.686 A220.12119
G1 X120.333 Y119.686 A220.14654
G1 X130.962 Y130.315 A220.65782
G1 X131.706 Y130.316 A220.68314
G1 X121.078 Y119.687 A221.19442
G1 X121.823 Y119.687 A221.21977
G1 X132.451 Y130.315 A221.73105
G1 X133.197 Y130.315 A221.75640
G1 X122.568 Y119.687 A222.26767
G1 X123.313 Y119.686 A222.29302
G1 X133.942 Y130.315 A222.80430
G1 X134.687 Y130.315 A222.82965
G1 X124.058 Y119.686 A223.34092
G1 X124.804 Y119.686 A223.36627
G1 X135.432 Y130.315 A223.87755
G1 X136.177 Y130.316 A223.90287
G1 X125.548 Y119.687 A224.41414
G1 X126.293 Y119.687 A224.43948
G1 X136.922 Y130.315 A224.95076
G1 X137.667 Y130.315 A224.97610
G1 X127.038 Y119.687 A225.48737
G1 X127.784 Y119.687 A225.51272
G1 X138.412 Y130.315 A226.02399
G1 X139.157 Y130.315 A226.04934
G1 X128.529 Y119.687 A226.56060
G1 X129.274 Y119.687 A226.58595
G1 X139.902 Y130.315 A227.09722
G1 X140.647 Y130.316 A227.12254
G1 X130.019 Y119.687 A227.63381
G1 X130.764 Y119.687 A227.65915
G1 X141.392 Y130.315 A228.17041
G1 X142.137 Y130.315 A228.19576
G1 X131.509 Y119.687 A228.70702
G1 X132.254 Y119.687 A228.73236
G1 X142.883 Y130.315 A229.24362
G1 X143.628 Y130.315 A229.26897
G1 X132.999 Y119.687 A229.78024
G1 X133.745 Y119.687 A229.80559
G1 X144.373 Y130.315 A230.31686
G1 X145.117 Y130.315 A230.34216
G1 X134.489 Y119.687 A230.85340
G1 X135.234 Y119.687 A230.87875
G1 X145.319 Y129.772 A231.36387
G1 X145.319 Y129.027 A231.38922
G1 X135.979 Y119.687 A231.83850
G1 X136.725 Y119.687 A231.86384
G1 X145.319 Y128.282 A232.27727
G1 X145.319 Y127.536 A232.30262
G1 X137.470 Y119.687 A232.68020
G1 X138.215 Y119.687 A232.70555
G1 X145.319 Y126.791 A233.04728
G0 X145.319 Y126.047 F7800.000
G1 X138.960 Y119.687 F3600.000 A233.35319
G1 X139.705 Y119.687 A233.37854
G1 X145.319 Y125.302 A233.64860
G1 X145.319 Y124.556 A233.67394
G1 X140.450 Y119.687 A233.90816
G1 X141.195 Y119.687 A233.93351
G1 X145.319 Y123.811 A234.13189
G1 X145.319 Y123.066 A234.15723
G1 X141.940 Y119.687 A234.31977
G1 X142.686 Y119.687 A234.34512
G1 X145.319 Y122.321 A234.47182
G1 X145.319 Y121.576 A234.49716
G1 X143.431 Y119.687 A234.58802
G1 X144.175 Y119.688 A234.61334
G1 X145.319 Y120.831 A234.66835
G1 X145.284 Y120.051 A234.69493
G1 X144.986 Y119.753 A234.70926
G0 Z1.700 F1800.000 A233.70926
G0 X74.315 Y130.087 F7800.000
G0 F1800.000 A234.70926
G1 X74.307 Y129.959 F1800.000 A234.71357
G1 X74.307 Y120.041 A235.04836
G1 X74.315 Y119.913 A235.05268
G1 X74.331 Y119.828 A235.05560
G1 X74.358 Y119.746 A235.05853
G1 X74.395 Y119.667 A235.06145
G1 X74.442 Y119.594 A235.06438
G1 X74.497 Y119.527 A235.06731
G1 X74.560 Y119.468 A235.07023
G1 X74.630 Y119.417 A235.07316
G1 X74.706 Y119.375 A235.07608
G1 X74.787 Y119.343 A235.07901
G1 X74.871 Y119.322 A235.08194
G1 X74.957 Y119.311 A235.08486
G1 X145.043 Y119.311 A237.45072
G1 X145.129 Y119.322 A237.45364
G1 X145.213 Y119.343 A237.45657
G1 X145.294 Y119.375 A237.45950
G1 X145.370 Y119.417 A237.46242
G1 X145.440 Y119.468 A237.46534
G1 X145.503 Y119.527 A237.46827
G1 X145.558 Y119.594 A237.47120
G1 X145.605 Y119.668 A237.47413
G1 X145.642 Y119.746 A237.47706
G1 X145.669 Y119.828 A237.47997
G1 X145.685 Y119.913 A237.48290
G1 X145.693 Y120.041 A237.48722
G1 X145.693 Y129.959 A237.82201
G1 X145.685 Y130.087 A237.82633
G1 X145.669 Y130.172 A237.82926
G1 X145.642 Y130.254 A237.83217
G1 X145.605 Y130.332 A237.83510
G1 X145.558 Y130.406 A237.83803
G1 X145.503 Y130.472 A237.84095
G1 X145.440 Y130.532 A237.84389
G1 X145.370 Y130.583 A237.84682
G1 X145.294 Y130.624 A237.84973
G1 X145.213 Y130.656 A237.85266
G1 X145.129 Y130.678 A237.85559
G1 X145.043 Y130.689 A237.85852
G1 X74.957 Y130.689 A240.22437
G1 X74.871 Y130.678 A240.22729
G1 X74.787 Y130.656 A240.23022
G1 X74.706 Y130.625 A240.23315
G1 X74.630 Y130.583 A240.23607
G1 X74.560 Y130.532 A240.23900
G1 X74.497 Y130.472 A240.24193
G1 X74.442 Y130.406 A240.24485
G1 X74.395 Y130.333 A240.24777
G1 X74.358 Y130.254 A240.25071
G1 X74.331 Y130.172 A240.25363
G1 X74.330 Y130.164 A240.25390
G0 X73.824 Y130.302 F7800.000
G1 X73.796 Y130.152 F1800.000 A240.25904
G1 X73.785 Y129.975 A240.26502
G1 X73.785 Y120.025 A240.60092
G1 X73.796 Y119.848 A240.60689
G1 X73.824 Y119.698 A240.61204
G1 X73.872 Y119.553 A240.61718
G1 X73.936 Y119.415 A240.62233
G1 X74.018 Y119.287 A240.62747
G1 X74.115 Y119.169 A240.63262
G1 X74.226 Y119.065 A240.63776
G1 X74.350 Y118.975 A240.64291
G1 X74.483 Y118.902 A240.64805
G1 X74.625 Y118.846 A240.65320
G1 X74.773 Y118.808 A240.65834
G1 X74.924 Y118.789 A240.66349
G1 X145.076 Y118.789 A243.03156
G1 X145.227 Y118.808 A243.03670
G1 X145.375 Y118.846 A243.04185
G1 X145.517 Y118.902 A243.04700
G1 X145.650 Y118.975 A243.05214
G1 X145.773 Y119.065 A243.05728
G1 X145.885 Y119.169 A243.06243
G1 X145.982 Y119.287 A243.06757
G1 X146.064 Y119.415 A243.07272
G1 X146.128 Y119.553 A243.07786
G1 X146.176 Y119.698 A243.08300
G1 X146.204 Y119.848 A243.08815
G1 X146.215 Y120.025 A243.09413
G1 X146.215 Y129.975 A243.43002
G1 X146.204 Y130.152 A243.43601
G1 X146.176 Y130.302 A243.44115
G1 X146.128 Y130.447 A243.44629
G1 X146.064 Y130.585 A243.45144
G1 X145.982 Y130.713 A243.45658
G1 X145.885 Y130.831 A243.46173
G1 X145.773 Y130.935 A243.46688
G1 X145.650 Y131.025 A243.47202
G1 X145.517 Y131.098 A243.47716
G1 X145.375 Y131.154 A243.48231
G1 X145.227 Y131.192 A243.48745
G1 X145.076 Y131.211 A243.49260
G1 X74.924 Y131.211 A245.86067
G1 X74.773 Y131.192 A245.86581
G1 X74.625 Y131.154 A245.87096
G1 X74.483 Y131.098 A245.87611
G1 X74.350 Y131.025 A245.88125
G1 X74.226 Y130.935 A245.88639
G1 X74.115 Y130.831 A245.89154
G1 X74.018 Y130.713 A245.89668
G1 X73.937 Y130.585 A245.90183
G1 X73.872 Y130.447 A245.90697
G1 X73.849 Y130.377 A245.90946
G0 X73.385 Y130.639 F7800.000
G1 X73.318 Y130.432 F1800.000 A245.91682
G1 X73.277 Y130.218 A245.92418
G1 X73.263 Y129.992 A245.93183
G1 X73.263 Y120.008 A246.26883
G1 X73.277 Y119.782 A246.27647
G1 X73.318 Y119.568 A246.28384
G1 X73.385 Y119.361 A246.29120
G1 X73.478 Y119.163 A246.29856
G1 X73.595 Y118.979 A246.30593
G1 X73.734 Y118.811 A246.31329
G1 X73.893 Y118.662 A246.32065
G1 X74.069 Y118.533 A246.32802
G1 X74.260 Y118.428 A246.33538
G1 X74.463 Y118.348 A246.34274
G1 X74.675 Y118.294 A246.35011
G1 X74.891 Y118.266 A246.35747
G1 X145.109 Y118.266 A248.72776
G1 X145.326 Y118.294 A248.73512
G1 X145.537 Y118.348 A248.74249
G1 X145.740 Y118.428 A248.74985
G1 X145.931 Y118.533 A248.75721
G1 X146.107 Y118.662 A248.76457
G1 X146.266 Y118.811 A248.77194
G1 X146.405 Y118.979 A248.77930
G1 X146.522 Y119.163 A248.78667
G1 X146.615 Y119.361 A248.79403
G1 X146.682 Y119.568 A248.80139
G1 X146.723 Y119.782 A248.80876
G1 X146.738 Y120.008 A248.81640
G1 X146.738 Y129.992 A249.15340
G1 X146.723 Y130.218 A249.16105
G1 X146.682 Y130.432 A249.16841
G1 X146.615 Y130.639 A249.17577
G1 X146.522 Y130.837 A249.18313
G1 X146.405 Y131.021 A249.19050
G1 X146.266 Y131.189 A249.19786
G1 X146.107 Y131.338 A249.20523
G1 X145.931 Y131.467 A249.21259
G1 X145.740 Y131.572 A249.21995
G1 X145.537 Y131.652 A249.22732
G1 X145.325 Y131.706 A249.23468
G1 X145.109 Y131.734 A249.24204
G1 X74.891 Y131.734 A251.61233
G1 X74.675 Y131.706 A251.61969
G1 X74.463 Y131.652 A251.62706
G1 X74.260 Y131.572 A251.63442
G1 X74.069 Y131.467 A251.64178
G1 X73.893 Y131.338 A251.64915
G1 X73.734 Y131.189 A251.65651
G1 X73.595 Y131.021 A251.66388
G1 X73.478 Y130.837 A251.67124
G1 X73.419 Y130.711 A251.67595
G0 X74.717 Y120.050 F1800.000 A250.67595
G0 A251.67595
G1 X75.014 Y119.753 F3000.000 A251.69023
G1 X75.827 Y119.685 A251.71799
G1 X74.681 Y120.831 A251.77309
G1 X74.681 Y121.576 A251.79844
G1 X76.572 Y119.685 A251.88940
G1 X77.317 Y119.685 A251.91472
G1 X74.681 Y122.321 A252.04153
G1 X74.681 Y123.066 A252.06688
G1 X78.062 Y119.685 A252.22954
G1 X78.807 Y119.685 A252.25489
G1 X74.681 Y123.811 A252.45339
G1 X74.681 Y124.557 A252.47875
G1 X79.552 Y119.685 A252.71307
G1 X80.297 Y119.685 A252.73842
G1 X74.681 Y125.301 A253.00856
G1 X74.681 Y126.046 A253.03391
G1 X81.042 Y119.685 A253.33991
G1 X81.787 Y119.685 A253.36523
G1 X74.681 Y126.791 A253.70708
G1 X74.681 Y127.536 A253.73243
G1 X82.532 Y119.685 A254.11013
G1 X83.277 Y119.685 A254.13545
G1 X74.681 Y128.282 A254.54896
G1 X74.681 Y129.027 A254.57432
G1 X84.022 Y119.685 A255.02368
G1 X84.768 Y119.685 A255.04903
G1 X74.681 Y129.771 A255.53421
G1 X74.883 Y130.315 A255.55394
G1 X85.513 Y119.685 A256.06527
G1 X86.257 Y119.685 A256.09060
G1 X75.627 Y130.315 A256.60197
G1 X76.372 Y130.315 A256.62732
G1 X87.002 Y119.685 A257.13866
G1 X87.747 Y119.685 A257.16401
G1 X77.117 Y130.315 A257.67535
G1 X77.863 Y130.315 A257.70070
G1 X88.493 Y119.685 A258.21204
G1 X89.238 Y119.685 A258.23739
G1 X78.608 Y130.315 A258.74873
G1 X79.353 Y130.315 A258.77408
G1 X89.983 Y119.685 A259.28542
G1 X90.727 Y119.685 A259.31072
G1 X80.097 Y130.315 A259.82206
G1 X80.842 Y130.315 A259.84741
G1 X91.472 Y119.685 A260.35875
G1 X92.218 Y119.685 A260.38410
G1 X81.588 Y130.315 A260.89544
G1 X82.333 Y130.315 A260.92079
G1 X92.963 Y119.685 A261.43213
G1 X93.708 Y119.685 A261.45748
G1 X83.078 Y130.315 A261.96882
G1 X83.824 Y130.315 A261.99417
G1 X94.453 Y119.686 A262.50547
G1 X95.197 Y119.685 A262.53080
G1 X84.567 Y130.315 A263.04214
G1 X85.313 Y130.315 A263.06749
G1 X95.943 Y119.685 A263.57882
G1 X96.688 Y119.685 A263.60417
G1 X86.058 Y130.315 A264.11551
G1 X86.803 Y130.315 A264.14086
G1 X97.433 Y119.685 A264.65220
G1 X98.178 Y119.686 A264.67753
G1 X87.549 Y130.315 A265.18883
G1 X88.294 Y130.315 A265.21418
G1 X98.923 Y119.686 A265.72549
G1 X99.668 Y119.686 A265.75084
G1 X89.038 Y130.316 A266.26218
G1 X89.783 Y130.315 A266.28750
G1 X100.413 Y119.685 A266.79884
G1 X101.158 Y119.685 A266.82419
G1 X90.528 Y130.315 A267.33553
G1 X91.274 Y130.315 A267.36088
G1 X101.903 Y119.686 A267.87219
G1 X102.648 Y119.686 A267.89754
G1 X92.019 Y130.315 A268.40884
G1 X92.764 Y130.315 A268.43419
G1 X103.393 Y119.686 A268.94550
G1 X104.139 Y119.686 A268.97085
G1 X93.509 Y130.315 A269.48215
G1 X94.253 Y130.315 A269.50745
G1 X104.883 Y119.685 A270.01879
G1 X105.628 Y119.686 A270.04412
G1 X94.999 Y130.315 A270.55542
G1 X95.744 Y130.315 A270.58077
G1 X106.373 Y119.686 A271.09208
G1 X107.118 Y119.686 A271.11743
G1 X96.489 Y130.315 A271.62873
G1 X97.235 Y130.315 A271.65408
G1 X107.864 Y119.686 A272.16539
G1 X108.608 Y119.687 A272.19071
G1 X97.980 Y130.315 A272.70198
G1 X98.724 Y130.315 A272.72729
G1 X109.353 Y119.686 A273.23859
G1 X110.098 Y119.686 A273.26394
G1 X99.469 Y130.315 A273.77525
G1 X100.214 Y130.315 A273.80060
G1 X110.844 Y119.686 A274.31190
G1 X111.589 Y119.686 A274.33725
G1 X100.960 Y130.315 A274.84855
G1 X101.705 Y130.315 A274.87391
G1 X112.333 Y119.687 A275.38518
G1 X113.079 Y119.687 A275.41053
G1 X102.450 Y130.315 A275.92180
G1 X103.194 Y130.315 A275.94710
G1 X113.823 Y119.686 A276.45840
G1 X114.569 Y119.686 A276.48375
G1 X103.939 Y130.315 A276.99506
G1 X104.685 Y130.315 A277.02041
G1 X115.314 Y119.686 A277.53171
G1 X116.058 Y119.687 A277.55704
G1 X105.430 Y130.315 A278.06831
G1 X106.175 Y130.315 A278.09366
G1 X116.804 Y119.687 A278.60493
G1 X117.549 Y119.687 A278.63028
G1 X106.920 Y130.315 A279.14155
G1 X107.664 Y130.315 A279.16685
G1 X118.294 Y119.686 A279.67816
G1 X119.039 Y119.686 A279.70351
G1 X108.410 Y130.315 A280.21481
G1 X109.155 Y130.315 A280.24016
G1 X119.783 Y119.687 A280.75143
G1 X120.529 Y119.687 A280.77679
G1 X109.900 Y130.315 A281.28806
G1 X110.646 Y130.315 A281.31341
G1 X121.274 Y119.687 A281.82468
G1 X122.019 Y119.687 A281.85003
G1 X111.391 Y130.315 A282.36130
G1 X112.135 Y130.315 A282.38660
G1 X122.764 Y119.686 A282.89790
G1 X123.508 Y119.687 A282.92323
G1 X112.880 Y130.315 A283.43450
G1 X113.625 Y130.315 A283.45985
G1 X124.254 Y119.687 A283.97112
G1 X124.999 Y119.687 A283.99647
G1 X114.371 Y130.315 A284.50774
G1 X115.116 Y130.315 A284.53309
G1 X125.744 Y119.687 A285.04436
G1 X126.490 Y119.687 A285.06971
G1 X115.861 Y130.315 A285.58098
G1 X116.605 Y130.315 A285.60629
G1 X127.234 Y119.687 A286.11756
G1 X127.979 Y119.687 A286.14291
G1 X117.350 Y130.315 A286.65418
G1 X118.096 Y130.315 A286.67953
G1 X128.724 Y119.687 A287.19080
G1 X129.469 Y119.687 A287.21615
G1 X118.841 Y130.315 A287.72742
G1 X119.586 Y130.315 A287.75277
G1 X130.215 Y119.687 A288.26404
G1 X130.959 Y119.687 A288.28937
G1 X120.331 Y130.315 A288.80060
G1 X121.075 Y130.315 A288.82591
G1 X131.704 Y119.687 A289.33718
G1 X132.449 Y119.687 A289.36253
G1 X121.821 Y130.315 A289.87380
G1 X122.566 Y130.315 A289.89915
G1 X133.194 Y119.687 A290.41042
G1 X133.940 Y119.687 A290.43577
G1 X123.311 Y130.315 A290.94704
G1 X124.057 Y130.315 A290.97239
G1 X134.684 Y119.687 A291.48363
G1 X135.430 Y119.687 A291.50898
G1 X124.802 Y130.315 A292.02021
G1 X125.546 Y130.315 A292.04552
G1 X136.174 Y119.687 A292.55679
G1 X136.919 Y119.687 A292.58214
G1 X126.291 Y130.315 A293.09341
G1 X127.036 Y130.315 A293.11876
G1 X137.665 Y119.687 A293.63003
G1 X138.409 Y119.687 A293.65535
G1 X127.782 Y130.315 A294.16659
G1 X128.527 Y130.315 A294.19194
G1 X139.155 Y119.687 A294.70318
G1 X139.900 Y119.687 A294.72853
G1 X129.272 Y130.315 A295.23976
G1 X130.017 Y130.315 A295.26512
G1 X140.645 Y119.687 A295.77635
G1 X141.390 Y119.687 A295.80168
G1 X130.761 Y130.315 A296.31295
G1 X131.507 Y130.315 A296.33830
G1 X142.134 Y119.687 A296.84954
G1 X142.880 Y119.687 A296.87489
G1 X132.252 Y130.315 A297.38612
G1 X132.997 Y130.315 A297.41147
G1 X143.625 Y119.687 A297.92271
G1 X144.370 Y119.687 A297.94806
G1 X133.742 Y130.315 A298.45930
G1 X134.488 Y130.315 A298.48465
G1 X145.116 Y119.687 A298.99588
G1 X145.319 Y120.228 A299.01552
G1 X135.232 Y130.315 A299.50077
G1 X135.977 Y130.315 A299.52612
G1 X145.319 Y120.973 A299.97552
G1 X145.319 Y121.718 A300.00087
G1 X136.722 Y130.315 A300.41442
G1 X137.467 Y130.315 A300.43977
G1 X145.319 Y122.464 A300.81746
G1 X145.319 Y123.209 A300.84281
G1 X138.213 Y130.315 A301.18466
G1 X138.958 Y130.315 A301.21001
G1 X145.319 Y123.954 A301.51600
G1 X145.319 Y124.698 A301.54130
G1 X139.702 Y130.315 A301.81152
G1 X140.447 Y130.315 A301.83687
G1 X145.319 Y125.443 A302.07122
G1 X145.319 Y126.189 A302.09658
G1 X141.193 Y130.315 A302.29508
G1 X141.938 Y130.315 A302.32043
G1 X145.319 Y126.934 A302.48309
G1 X145.319 Y127.679 A302.50844
G1 X142.683 Y130.315 A302.63525
G1 X143.428 Y130.315 A302.66060
G1 X145.319 Y128.424 A302.75155
G1 X145.319 Y129.168 A302.77685
G1 X144.172 Y130.315 A302.83203
G1 X144.984 Y130.249 A302.85973
G1 X145.284 Y129.949 A302.87415
G0 Z2.100 F1800.000 A301.87415
G0 X120.425 Y130.022 F7800.000
G0 F1800.000 A302.87415
G1 X120.101 Y130.101 F1800.000 A302.88540
G1 X119.660 Y130.162 A302.90044
G1 X119.214 Y130.179 A302.91551
G1 X118.677 Y130.153 A302.93365
G1 X118.352 Y130.099 A302.94476
G1 X118.352 Y130.123 A302.94555
G1 X117.635 Y129.922 A302.97069
G1 X117.140 Y129.721 A302.98871
G1 X116.669 Y129.466 A303.00681
G1 X116.286 Y129.204 A303.02247
G1 X115.932 Y128.905 A303.03812
G1 X115.609 Y128.570 A303.05383
G1 X115.319 Y128.205 A303.06956
G1 X115.063 Y127.814 A303.08533
G1 X114.841 Y127.404 A303.10106
G1 X114.765 Y127.218 A303.10787
G1 X114.765 Y127.218 A303.10787
G1 X114.545 Y126.685 A303.12732
G1 X114.334 Y125.932 A303.15372
G1 X114.319 Y125.856 A303.15633
G1 X114.211 Y125.126 A303.18126
G1 X114.177 Y124.391 A303.20608
G1 X114.181 Y124.252 A303.21078
G1 X114.181 Y124.252 A303.21078
G1 X114.195 Y123.840 A303.22471
G1 X114.263 Y123.293 A303.24330
G1 X114.380 Y122.757 A303.26181
G1 X114.535 Y122.289 A303.27846
G1 X114.546 Y122.289 A303.27886
G1 X114.677 Y122.011 A303.28924
G1 X114.890 Y121.669 A303.30282
G1 X115.157 Y121.336 A303.31723
G1 X115.163 Y121.336 A303.31742
G1 X115.404 Y121.108 A303.32864
G1 X115.625 Y120.944 A303.33793
G1 X115.625 Y120.944 A303.33793
G1 X115.698 Y120.890 A303.34099
G1 X116.016 Y120.709 A303.35335
G1 X116.353 Y120.567 A303.36569
G1 X116.832 Y120.434 A303.38246
G1 X117.199 Y120.376 A303.39500
G1 X117.199 Y120.376 A303.39500
G1 X117.323 Y120.357 A303.39925
G1 X117.824 Y120.335 A303.41617
G1 X117.910 Y120.338 A303.41907
G1 X117.910 Y120.338 A303.41907
G1 X118.306 Y120.356 A303.43245
G1 X118.360 Y120.363 A303.43431
G1 X118.360 Y120.363 A303.43431
G1 X118.780 Y120.423 A303.44863
G1 X119.246 Y120.537 A303.46479
G1 X119.693 Y120.700 A303.48087
G1 X120.120 Y120.913 A303.49697
G1 X120.519 Y121.173 A303.51305
G1 X120.907 Y121.495 A303.53007
G1 X121.257 Y121.861 A303.54717
G1 X121.565 Y122.265 A303.56431
G1 X121.924 Y122.849 A303.58746
G1 X121.915 Y122.865 A303.58807
G1 X122.150 Y123.332 A303.60573
G1 X120.592 Y123.568 A303.65890
G1 X120.497 Y123.316 A303.66798
G1 X120.431 Y123.192 A303.67272
G1 X120.431 Y123.192 A303.67272
G1 X120.263 Y122.878 A303.68473
G1 X120.069 Y122.598 A303.69626
G1 X120.004 Y122.524 A303.69958
G1 X120.004 Y122.524 A303.69958
G1 X119.842 Y122.341 A303.70781
G1 X119.588 Y122.116 A303.71927
G1 X119.351 Y121.945 A303.72912
G1 X119.096 Y121.802 A303.73902
G1 X118.825 Y121.687 A303.74893
G1 X118.543 Y121.605 A303.75886
G1 X118.253 Y121.556 A303.76877
G1 X117.963 Y121.539 A303.77858
G1 X117.733 Y121.548 A303.78638
G1 X117.501 Y121.583 A303.79430
G1 X117.275 Y121.643 A303.80219
G1 X117.210 Y121.669 A303.80453
G1 X117.210 Y121.669 A303.80453
G1 X117.057 Y121.729 A303.81008
G1 X116.851 Y121.836 A303.81794
G1 X116.793 Y121.875 A303.82030
G1 X116.793 Y121.875 A303.82030
G1 X116.656 Y121.967 A303.82586
G1 X116.478 Y122.118 A303.83374
G1 X116.318 Y122.288 A303.84161
G1 X116.150 Y122.510 A303.85102
G1 X116.008 Y122.750 A303.86042
G1 X115.839 Y123.125 A303.87429
G1 X115.809 Y123.268 A303.87925
G1 X115.809 Y123.268 A303.87925
G1 X115.736 Y123.616 A303.89124
G1 X115.693 Y123.967 A303.90317
G1 X115.681 Y124.319 A303.91508
G1 X115.681 Y124.319 A303.91508
G1 X115.681 Y124.337 A303.91569
G1 X115.682 Y124.337 A303.91575
G1 X115.714 Y124.908 A303.93503
G1 X115.802 Y125.492 A303.95497
G1 X115.947 Y126.064 A303.97487
G1 X116.146 Y126.618 A303.99477
G1 X116.146 Y126.618 A303.99477
G1 X116.153 Y126.640 A303.99553
G1 X116.156 Y126.640 A303.99560
G1 X116.367 Y127.104 A304.01283
G1 X116.726 Y127.699 A304.03628
G1 X116.722 Y127.706 A304.03656
G1 X117.130 Y128.125 A304.05629
G1 X117.418 Y128.359 A304.06880
G1 X117.734 Y128.559 A304.08143
G1 X118.074 Y128.718 A304.09410
G1 X118.428 Y128.833 A304.10669
G1 X118.691 Y128.883 A304.11570
G1 X118.691 Y128.883 A304.11570
G1 X118.796 Y128.904 A304.11934
G1 X119.167 Y128.928 A304.13189
G1 X119.415 Y128.919 A304.14025
G1 X119.658 Y128.887 A304.14853
G1 X119.901 Y128.832 A304.15692
G1 X120.085 Y128.769 A304.16350
G1 X120.261 Y128.687 A304.17004
G1 X120.429 Y128.587 A304.17664
G1 X120.585 Y128.469 A304.18327
G1 X120.739 Y128.322 A304.19044
G1 X120.873 Y128.160 A304.19753
G1 X120.988 Y127.985 A304.20461
G1 X121.084 Y127.795 A304.21179
G1 X121.084 Y127.795 A304.21179
G1 X121.336 Y127.295 A304.23069
G1 X122.740 Y127.431 A304.27830
G1 X122.583 Y127.991 A304.29794
G1 X122.426 Y128.383 A304.31219
G1 X122.278 Y128.657 A304.32270
G1 X122.101 Y128.914 A304.33323
G1 X121.898 Y129.152 A304.34380
G1 X121.672 Y129.368 A304.35434
G1 X121.607 Y129.419 A304.35714
G1 X121.625 Y129.438 A304.35803
G1 X121.135 Y129.743 A304.37752
G1 X120.841 Y129.885 A304.38855
G1 X120.533 Y129.996 A304.39960
G1 X120.501 Y130.004 A304.40070
G0 X126.057 Y129.487 F1800.000 A303.40070
G0 A304.40070
G1 X125.762 Y128.075 F1800.000 A304.44940
G1 X125.762 Y128.075 A304.44940
G1 X125.644 Y127.507 A304.46898
G1 X127.551 Y127.675 A304.53362
G1 X126.818 Y129.487 A304.59960
G1 X126.136 Y129.487 A304.62263
G0 X129.156 Y122.869 F1800.000 A303.62263
G0 A304.62263
G1 X129.893 Y121.035 F1800.000 A304.68938
G1 X130.646 Y121.035 A304.71479
G1 X131.065 Y123.040 A304.78395
G1 X129.234 Y122.876 A304.84599
G0 X128.885 Y122.143 F7800.000
G1 X129.540 Y120.512 F1800.000 A304.90532
G1 X131.071 Y120.512 A304.95698
G1 X133.053 Y130.009 A305.28447
G1 X131.675 Y130.009 A305.33098
G1 X130.315 Y123.498 A305.55553
G1 X129.823 Y123.454 A305.57222
G1 X127.170 Y130.009 A305.81095
G1 X125.632 Y130.009 A305.86286
G1 X124.328 Y123.759 A306.07838
G1 X124.328 Y123.759 A306.07838
G1 X123.650 Y120.512 A306.19035
G1 X125.035 Y120.512 A306.23709
G1 X126.402 Y127.050 A306.46253
G1 X126.895 Y127.093 A306.47923
G1 X128.855 Y122.216 A306.65665
G0 X140.322 Y130.101 F1800.000 A305.65665
G0 A306.65665
G1 X139.881 Y130.162 F1800.000 A306.67169
G1 X139.435 Y130.179 A306.68676
G1 X138.898 Y130.153 A306.70490
G1 X138.370 Y130.066 A306.72296
G1 X138.048 Y129.976 A306.73425
G1 X138.048 Y129.976 A306.73425
G1 X137.856 Y129.922 A306.74098
G1 X137.566 Y129.805 A306.75153
G1 X137.566 Y129.805 A306.75153
G1 X137.360 Y129.721 A306.75903
G1 X136.890 Y129.466 A306.77710
G1 X136.507 Y129.204 A306.79277
G1 X136.151 Y128.905 A306.80844
G1 X135.829 Y128.570 A306.82414
G1 X135.540 Y128.205 A306.83984
G1 X135.284 Y127.814 A306.85562
G1 X135.062 Y127.404 A306.87135
G1 X134.765 Y126.685 A306.89762
G1 X134.557 Y125.938 A306.92379
G1 X134.436 Y125.171 A306.95001
G1 X134.398 Y124.387 A306.97649
G1 X134.399 Y124.132 A306.98513
G1 X134.461 Y123.436 A307.00870
G1 X134.601 Y122.756 A307.03214
G1 X134.756 Y122.289 A307.04874
G1 X134.767 Y122.289 A307.04913
G1 X134.897 Y122.011 A307.05951
G1 X135.110 Y121.669 A307.07309
G1 X135.360 Y121.358 A307.08656
G1 X135.625 Y121.107 A307.09887
G1 X135.919 Y120.890 A307.11119
G1 X136.237 Y120.709 A307.12357
G1 X136.574 Y120.567 A307.13592
G1 X137.052 Y120.434 A307.15265
G1 X137.420 Y120.376 A307.16521
G1 X137.420 Y120.376 A307.16521
G1 X137.544 Y120.357 A307.16947
G1 X138.045 Y120.335 A307.18639
G1 X138.526 Y120.356 A307.20264
G1 X139.001 Y120.423 A307.21885
G1 X139.467 Y120.537 A307.23501
G1 X139.914 Y120.700 A307.25110
G1 X140.341 Y120.913 A307.26719
G1 X140.740 Y121.173 A307.28327
G1 X141.128 Y121.495 A307.30030
G1 X141.478 Y121.861 A307.31740
G1 X141.786 Y122.265 A307.33453
G1 X142.052 Y122.699 A307.35172
G1 X142.371 Y123.332 A307.37566
G1 X140.813 Y123.568 A307.42885
G1 X140.716 Y123.316 A307.43794
G1 X140.485 Y122.878 A307.45467
G1 X140.290 Y122.598 A307.46620
G1 X140.225 Y122.524 A307.46952
G1 X140.225 Y122.524 A307.46952
G1 X140.063 Y122.341 A307.47775
G1 X139.809 Y122.116 A307.48922
G1 X139.572 Y121.945 A307.49907
G1 X139.317 Y121.802 A307.50896
G1 X139.046 Y121.687 A307.51887
G1 X138.764 Y121.605 A307.52881
G1 X138.474 Y121.556 A307.53872
G1 X138.184 Y121.539 A307.54852
G1 X137.953 Y121.548 A307.55636
G1 X137.722 Y121.583 A307.56424
G1 X137.495 Y121.643 A307.57217
G1 X137.278 Y121.729 A307.58002
G1 X137.070 Y121.836 A307.58792
G1 X136.877 Y121.968 A307.59582
G1 X136.699 Y122.118 A307.60367
G1 X136.538 Y122.288 A307.61158
G1 X136.371 Y122.510 A307.62096
G1 X136.253 Y122.707 A307.62871
G1 X136.253 Y122.707 A307.62871
G1 X136.228 Y122.749 A307.63037
G1 X136.113 Y123.004 A307.63981
G1 X136.032 Y123.263 A307.64897
G1 X136.032 Y123.263 A307.64897
G1 X135.977 Y123.436 A307.65510
G1 X135.914 Y123.967 A307.67314
G1 X135.902 Y124.319 A307.68504
G1 X135.902 Y124.319 A307.68504
G1 X135.902 Y124.337 A307.68565
G1 X135.903 Y124.337 A307.68570
G1 X135.935 Y124.908 A307.70499
G1 X136.023 Y125.492 A307.72493
G1 X136.168 Y126.063 A307.74482
G1 X136.311 Y126.465 A307.75923
G1 X136.311 Y126.465 A307.75923
G1 X136.366 Y126.618 A307.76470
G1 X136.588 Y127.104 A307.78274
G1 X136.788 Y127.436 A307.79583
G1 X136.788 Y127.436 A307.79583
G1 X136.866 Y127.565 A307.80092
G1 X137.092 Y127.859 A307.81344
G1 X137.351 Y128.125 A307.82596
G1 X137.639 Y128.359 A307.83847
G1 X137.864 Y128.501 A307.84746
G1 X137.864 Y128.501 A307.84746
G1 X137.955 Y128.559 A307.85109
G1 X138.294 Y128.718 A307.86374
G1 X138.649 Y128.833 A307.87636
G1 X139.017 Y128.904 A307.88902
G1 X139.512 Y128.936 A307.90574
G1 X139.512 Y128.936 A307.90574
G1 X139.564 Y128.939 A307.90749
G1 X139.564 Y128.928 A307.90786
G1 X139.879 Y128.887 A307.91861
G1 X140.049 Y128.848 A307.92450
G1 X140.049 Y128.848 A307.92450
G1 X140.120 Y128.832 A307.92695
G1 X140.306 Y128.769 A307.93356
G1 X140.482 Y128.687 A307.94013
G1 X140.649 Y128.587 A307.94668
G1 X140.807 Y128.469 A307.95333
G1 X140.959 Y128.322 A307.96048
G1 X141.093 Y128.161 A307.96757
G1 X141.209 Y127.985 A307.97468
G1 X141.304 Y127.796 A307.98180
G1 X141.492 Y127.289 A308.00007
G1 X142.960 Y127.431 A308.04985
G1 X142.804 Y127.992 A308.06949
G1 X142.647 Y128.383 A308.08372
G1 X142.498 Y128.657 A308.09424
G1 X142.321 Y128.914 A308.10480
G1 X142.119 Y129.152 A308.11534
G1 X141.929 Y129.333 A308.12417
G1 X141.929 Y129.339 A308.12439
G1 X141.633 Y129.570 A308.13705
G1 X141.356 Y129.743 A308.14808
G1 X141.061 Y129.885 A308.15913
G1 X140.753 Y129.996 A308.17019
G1 X140.398 Y130.082 A308.18251
G0 X112.615 Y127.064 F1800.000 A307.18251
G0 A308.18251
G1 X112.533 Y127.247 F1800.000 A308.18931
G1 X111.099 Y127.247 A308.23773
G1 X109.084 Y124.977 A308.34018
G1 X107.922 Y127.247 A308.42626
G1 X106.431 Y127.247 A308.47661
G1 X108.161 Y123.929 A308.60296
G1 X105.245 Y120.698 A308.74988
G1 X105.327 Y120.512 A308.75672
G1 X106.776 Y120.512 A308.80563
G1 X108.756 Y122.748 A308.90645
G1 X109.904 Y120.512 A308.99130
G1 X111.395 Y120.512 A309.04162
G1 X109.680 Y123.782 A309.16625
G1 X112.563 Y127.005 A309.31222
G0 X103.097 Y122.664 F1800.000 A308.31222
G0 A309.31222
G1 X102.748 Y122.798 F1800.000 A309.32481
G1 X102.361 Y122.134 A309.35076
G1 X102.108 Y121.774 A309.36562
G1 X102.823 Y121.356 A309.39359
G1 X103.080 Y122.587 A309.43603
G0 X102.189 Y122.930 F7800.000
G1 X102.066 Y122.664 F1800.000 A309.44591
G1 X101.921 Y122.416 A309.45561
G1 X101.753 Y122.177 A309.46547
G1 X101.505 Y121.906 A309.47787
G1 X101.238 Y121.676 A309.48977
G1 X102.031 Y121.214 A309.52074
G1 X101.885 Y120.512 A309.54492
G1 X103.181 Y120.512 A309.58866
G1 X104.250 Y125.628 A309.76506
G1 X104.250 Y125.628 A309.76506
G1 X104.588 Y127.247 A309.82092
G1 X103.162 Y127.247 A309.86905
G1 X102.357 Y123.464 A309.99963
G1 X102.213 Y123.005 A310.01586
G0 X101.080 Y121.466 F7800.000
G1 X100.924 Y121.418 F1800.000 A310.02139
G1 X100.924 Y121.418 A310.02139
G1 X100.447 Y121.269 A310.03826
G1 X100.244 Y121.230 A310.04523
G1 X100.042 Y121.217 A310.05205
G1 X99.923 Y121.220 A310.05609
G1 X99.800 Y121.237 A310.06027
G1 X99.682 Y121.267 A310.06440
G1 X99.567 Y121.311 A310.06855
G1 X99.457 Y121.368 A310.07271
G1 X99.355 Y121.436 A310.07686
G1 X99.261 Y121.515 A310.08102
G1 X99.182 Y121.600 A310.08493
G1 X99.113 Y121.691 A310.08880
G1 X99.052 Y121.793 A310.09279
G1 X99.005 Y121.904 A310.09685
G1 X98.973 Y122.016 A310.10078
G1 X98.953 Y122.131 A310.10473
G1 X98.947 Y122.254 A310.10889
G1 X98.976 Y122.525 A310.11809
G1 X99.007 Y122.710 A310.12442
G1 X99.007 Y122.710 A310.12442
G1 X99.947 Y127.247 A310.28085
G1 X98.521 Y127.247 A310.32898
G1 X97.520 Y122.313 A310.49894
G1 X97.491 Y121.960 A310.51089
G1 X97.500 Y121.742 A310.51828
G1 X97.534 Y121.523 A310.52575
G1 X97.592 Y121.311 A310.53317
G1 X97.652 Y121.166 A310.53848
G1 X97.729 Y121.025 A310.54390
G1 X97.820 Y120.896 A310.54922
G1 X97.925 Y120.779 A310.55453
G1 X98.047 Y120.671 A310.56004
G1 X98.180 Y120.578 A310.56551
G1 X98.324 Y120.501 A310.57100
G1 X98.474 Y120.442 A310.57646
G1 X98.693 Y120.384 A310.58410
G1 X98.918 Y120.351 A310.59177
G1 X99.146 Y120.342 A310.59948
G1 X99.486 Y120.360 A310.61099
G1 X99.821 Y120.416 A310.62244
G1 X100.147 Y120.507 A310.63387
G1 X100.460 Y120.634 A310.64527
G1 X100.862 Y120.854 A310.66074
G1 X101.248 Y121.126 A310.67668
G1 X101.115 Y121.396 A310.68682
G0 X95.259 Y123.316 F1800.000 A309.68682
G0 A310.68682
G1 X95.679 Y125.473 F1800.000 A310.76099
G1 X95.707 Y125.813 A310.77252
G1 X95.697 Y126.029 A310.77982
G1 X95.662 Y126.245 A310.78720
G1 X95.603 Y126.455 A310.79456
G1 X95.542 Y126.598 A310.79982
G1 X95.465 Y126.736 A310.80516
G1 X95.372 Y126.863 A310.81046
G1 X95.265 Y126.981 A310.81585
G1 X95.143 Y127.089 A310.82135
G1 X95.114 Y127.110 A310.82255
G1 X95.114 Y127.110 A310.82255
G1 X95.011 Y127.182 A310.82680
G1 X94.868 Y127.258 A310.83228
G1 X94.716 Y127.318 A310.83777
G1 X94.498 Y127.375 A310.84537
G1 X94.273 Y127.408 A310.85305
G1 X94.243 Y127.410 A310.85409
G1 X94.243 Y127.428 A310.85471
G1 X93.740 Y127.403 A310.87169
G1 X93.667 Y127.392 A310.87419
G1 X93.667 Y127.392 A310.87419
G1 X93.443 Y127.358 A310.88185
G1 X93.150 Y127.283 A310.89204
G1 X92.867 Y127.179 A310.90222
G1 X92.540 Y127.019 A310.91450
G1 X91.936 Y126.643 A310.93853
G1 X92.126 Y126.258 A310.95302
G1 X92.675 Y126.465 A310.97284
G1 X92.826 Y126.506 A310.97812
G1 X92.980 Y126.531 A310.98336
G1 X93.131 Y126.541 A310.98848
G1 X93.249 Y126.541 A310.99246
G1 X93.333 Y126.533 A310.99531
G1 X93.333 Y126.533 A310.99531
G1 X93.375 Y126.528 A310.99675
G1 X93.498 Y126.499 A311.00103
G1 X93.616 Y126.457 A311.00523
G1 X93.729 Y126.402 A311.00948
G1 X93.835 Y126.334 A311.01374
G1 X93.938 Y126.251 A311.01821
G1 X94.023 Y126.153 A311.02259
G1 X94.094 Y126.052 A311.02676
G1 X94.151 Y125.942 A311.03091
G1 X94.197 Y125.827 A311.03511
G1 X94.217 Y125.743 A311.03801
G1 X94.217 Y125.743 A311.03801
G1 X94.226 Y125.705 A311.03934
G1 X94.243 Y125.582 A311.04353
G1 X94.243 Y125.454 A311.04787
G1 X93.251 Y120.512 A311.21798
G1 X94.676 Y120.512 A311.26610
G1 X95.243 Y123.239 A311.36010
G0 X91.102 Y126.010 F1800.000 A310.36010
G0 A311.36010
G1 X90.379 Y126.460 F1800.000 A311.38884
G1 X90.090 Y125.077 A311.43653
G1 X90.446 Y124.944 A311.44937
G1 X90.815 Y125.602 A311.47484
G1 X91.057 Y125.946 A311.48904
G0 X91.420 Y125.553 F7800.000
G1 X91.604 Y125.768 F1800.000 A311.49858
G1 X91.953 Y126.096 A311.51477
G1 X91.197 Y126.566 A311.54482
G1 X91.335 Y127.247 A311.56828
G1 X90.010 Y127.247 A311.61300
G1 X88.602 Y120.512 A311.84526
G1 X90.028 Y120.512 A311.89339
G1 X90.506 Y122.805 A311.97244
G1 X90.506 Y122.805 A311.97244
G1 X90.812 Y124.173 A312.01976
G1 X90.942 Y124.624 A312.03561
G1 X91.117 Y125.072 A312.05185
G1 X91.258 Y125.323 A312.06155
G1 X91.374 Y125.489 A312.06840
G0 X87.180 Y125.628 F1800.000 A311.06840
G0 A312.06840
G1 X87.519 Y127.247 F1800.000 A312.12426
G1 X86.093 Y127.247 A312.17239
G1 X84.685 Y120.512 A312.40465
G1 X86.111 Y120.512 A312.45278
G1 X87.164 Y125.551 A312.62652
G0 X87.833 Y128.756 F1800.000 A311.62652
G0 A312.62652
G1 X88.093 Y130.009 F1800.000 A312.66972
G1 X86.668 Y130.009 A312.71785
G1 X86.408 Y128.756 A312.76105
G1 X87.755 Y128.756 A312.80652
G0 X79.712 Y130.009 F1800.000 A311.80652
G0 A312.80652
G1 X78.191 Y130.009 F1800.000 A312.85786
G1 X76.202 Y120.512 A313.18539
G1 X82.830 Y120.512 A313.40911
G1 X83.069 Y121.662 A313.44876
G1 X77.969 Y121.662 A313.62092
G1 X79.696 Y129.932 A313.90610
G0 X116.028 Y127.906 F1800.000 A312.90610
G0 A313.90610
G1 X116.472 Y128.465 F3600.000 A313.93020
G1 X117.108 Y128.951 A313.95722
G1 X117.943 Y129.374 A313.98881
G1 X118.857 Y129.570 A314.02037
G1 X119.893 Y129.506 A314.05541
G1 X120.638 Y129.246 A314.08204
G1 X121.227 Y128.825 A314.10650
G1 X121.896 Y128.060 A314.14080
G0 X114.917 Y124.268 F1800.000 A313.14080
G0 A314.14080
G1 X114.960 Y123.800 F3600.000 A314.15666
G1 X115.098 Y122.957 A314.18550
G1 X115.515 Y122.085 A314.21814
G1 X115.914 Y121.647 A314.23813
G1 X116.270 Y121.370 A314.25335
G1 X117.130 Y121.015 A314.28474
G1 X117.424 Y121.008 A314.29470
G0 X117.854 Y120.979 F7800.000
G1 X117.986 Y120.916 F3600.000 A314.29964
G1 X118.166 Y120.926 A314.30572
G1 X118.761 Y121.068 A314.32635
G1 X119.084 Y121.107 A314.33735
G1 X120.314 Y121.843 A314.38573
G1 X121.016 Y122.724 A314.42375
G1 X121.082 Y122.786 A314.42681
G0 X124.874 Y123.119 F1800.000 A313.42681
G0 A314.42681
G1 X124.507 Y121.204 F3600.000 A314.49261
G0 X124.959 Y123.587 F1800.000 A313.49261
G0 A314.49261
G1 X124.874 Y123.119 F3600.000 A314.50869
G0 X125.222 Y124.843 F7800.000
G1 X124.959 Y123.587 F3600.000 A314.55199
G0 X125.640 Y126.852 F1800.000 A313.55199
G0 A314.55199
G1 X125.774 Y127.391 F3600.000 A314.57071
G0 X127.497 Y127.337 F7800.000
G1 X128.943 Y123.755 F3600.000 A314.70109
G0 X127.443 Y127.540 F1800.000 A313.70109
G0 A314.70109
G1 X127.497 Y127.337 F3600.000 A314.70820
G0 X128.943 Y123.755 F1800.000 A313.70820
G0 A314.70820
G1 X129.263 Y123.011 F3600.000 A314.73555
G0 X131.005 Y123.618 F7800.000
G1 X131.322 Y124.931 F3600.000 A314.78114
G0 X130.934 Y123.155 F7800.000
G1 X131.005 Y123.618 F3600.000 A314.79696
G0 X131.322 Y124.931 F7800.000
G1 X131.373 Y125.179 F3600.000 A314.80553
G1 X131.525 Y125.925 A314.83122
G1 X131.877 Y127.666 A314.89118
G1 X132.208 Y129.322 A314.94819
G0 X135.524 Y126.535 F1800.000 A313.94819
G0 A314.94819
G1 X135.918 Y127.389 F3600.000 A314.97995
G1 X136.419 Y128.180 A315.01154
G1 X137.154 Y128.850 A315.04512
G1 X138.163 Y129.374 A315.08351
G1 X139.078 Y129.560 A315.11502
G1 X140.125 Y129.587 A315.15037
G1 X140.206 Y129.464 A315.15535
G1 X140.748 Y129.298 A315.17448
G1 X141.299 Y128.964 A315.19624
G1 X142.104 Y128.054 A315.23725
G0 X135.151 Y124.764 F1800.000 A314.23725
G0 A315.23725
G1 X135.524 Y126.535 F3600.000 A315.29835
G0 X135.158 Y124.032 F1800.000 A314.29835
G0 A315.29835
G1 X135.165 Y124.020 F3600.000 A315.29880
G1 X135.211 Y123.596 A315.31319
G1 X135.387 Y122.745 A315.34253
G1 X135.654 Y122.220 A315.36241
G1 X136.106 Y121.667 A315.38652
G1 X136.688 Y121.257 A315.41056
G1 X138.048 Y120.904 A315.45799
G1 X138.904 Y120.983 A315.48698
G1 X139.504 Y121.208 A315.50862
G1 X140.535 Y121.843 A315.54949
G1 X141.262 Y122.762 A315.58905
G0 X110.431 Y125.546 F1800.000 A314.58905
G0 A315.58905
G1 X111.332 Y126.598 F3600.000 A315.63579
G0 X108.468 Y124.797 F1800.000 A314.63579
G0 A315.63579
G1 X108.923 Y123.798 F3600.000 A315.67285
G0 X108.107 Y125.438 F7800.000
G1 X108.468 Y124.797 F3600.000 A315.69771
G0 X107.993 Y125.643 F7800.000
G1 X108.107 Y125.438 F3600.000 A315.70559
G0 X107.883 Y125.849 F7800.000
G1 X107.525 Y126.598 F3600.000 A315.73364
G0 X108.917 Y123.922 F1800.000 A314.73364
G0 A315.73364
G1 X109.092 Y123.994 F3600.000 A315.74001
G1 X110.431 Y125.546 A315.80922
G0 X107.969 Y122.746 F1800.000 A314.80922
G0 A315.80922
G1 X108.755 Y123.723 F3600.000 A315.85157
G1 X108.923 Y123.798 A315.85779
G1 X110.285 Y121.216 A315.95632
G0 X107.341 Y122.049 F1800.000 A314.95632
G0 A315.95632
G1 X107.969 Y122.746 F3600.000 A315.98797
G0 X107.027 Y121.701 F7800.000
G1 X107.341 Y122.049 F3600.000 A316.00381
G0 X106.554 Y121.180 F7800.000
G1 X107.027 Y121.701 F3600.000 A316.02756
G0 X102.890 Y122.886 F1800.000 A315.02756
G0 A316.02756
G1 X102.992 Y122.834 F3600.000 A316.03146
G0 X102.884 Y122.997 F7800.000
G1 X102.890 Y122.886 F3600.000 A316.03520
G0 X103.132 Y123.985 F7800.000
G1 X103.310 Y124.543 F3600.000 A316.05499
G1 X103.364 Y124.785 A316.06336
G1 X103.709 Y126.466 A316.12127
G1 X103.730 Y126.552 A316.12427
G0 X98.436 Y123.399 F1800.000 A315.12427
G0 A316.12427
G1 X99.073 Y126.541 F3600.000 A316.23250
G0 X98.224 Y122.008 F1800.000 A315.23250
G0 A316.23250
G1 X98.436 Y123.399 F3600.000 A316.27998
G0 X98.240 Y121.897 F7800.000
G1 X98.339 Y121.538 F3600.000 A316.29256
G1 X98.477 Y121.288 A316.30219
G1 X98.886 Y120.982 A316.31943
G0 X94.855 Y124.831 F1800.000 A315.31943
G0 A316.31943
G1 X94.123 Y121.216 F3600.000 A316.44395
G0 X94.886 Y126.120 F1800.000 A315.44395
G0 A316.44395
G1 X95.008 Y125.158 F3600.000 A316.47666
G1 X94.855 Y124.831 A316.48884
G0 X94.443 Y126.700 F7800.000
G1 X94.886 Y126.120 F3600.000 A316.51350
G0 X94.290 Y126.789 F7800.000
G1 X94.443 Y126.700 F3600.000 A316.51948
G0 X94.238 Y126.787 F7800.000
G1 X94.290 Y126.789 F3600.000 A316.52123
G0 X90.506 Y126.581 F1800.000 A315.52123
G0 A316.52123
G1 X90.515 Y126.526 F3600.000 A316.52310
G0 X90.184 Y124.841 F7800.000
G1 X90.238 Y124.790 F3600.000 A316.52560
G0 X89.896 Y123.352 F7800.000
G1 X90.295 Y124.811 F3600.000 A316.57667
G0 X89.851 Y123.103 F7800.000
G1 X89.896 Y123.352 F3600.000 A316.58521
G0 X89.736 Y122.610 F7800.000
G1 X89.851 Y123.103 F3600.000 A316.60228
G0 X89.730 Y122.427 F7800.000
G1 X89.736 Y122.610 F3600.000 A316.60847
G0 X89.681 Y122.364 F7800.000
G1 X89.730 Y122.427 F3600.000 A316.61117
G0 X89.527 Y121.621 F7800.000
G1 X89.476 Y121.218 F3600.000 A316.62488
G0 X85.818 Y122.611 F1800.000 A315.62488
G0 A316.62488
G1 X85.973 Y123.169 F3600.000 A316.64445
G1 X86.024 Y123.417 A316.65298
G1 X86.386 Y125.148 A316.71269
G1 X86.645 Y126.542 A316.76054
G0 X85.611 Y121.438 F1800.000 A315.76054
G0 A316.76054
G1 X85.818 Y122.611 F3600.000 A316.80075
G0 X85.559 Y121.218 F7800.000
G1 X85.611 Y121.438 F3600.000 A316.80837
G0 X77.450 Y122.913 F1800.000 A315.80837
G0 A316.80837
G1 X77.132 Y121.376 F3600.000 A316.86138
G1 X77.224 Y121.061 A316.87245
G1 X79.499 Y121.036 A316.94923
G0 X77.770 Y124.451 F1800.000 A315.94923
G0 A316.94923
G1 X77.824 Y124.707 F3600.000 A316.95807
G1 X77.877 Y124.963 A316.96690
G1 X78.037 Y125.732 A316.99340
G1 X78.467 Y127.781 A317.06407
G1 X78.789 Y129.264 A317.11531
G0 Z2.500 F1800.000 A316.11531
G0 X120.907 Y121.495 F7800.000
G0 F1800.000 A317.11531
G1 X121.070 Y121.665 F1800.000 A317.12326
G1 X121.070 Y121.665 A317.12326
G1 X121.257 Y121.861 A317.13241
G1 X121.565 Y122.265 A317.14955
G1 X121.688 Y122.466 A317.15750
G1 X121.688 Y122.466 A317.15750
G1 X121.831 Y122.699 A317.16674
G1 X122.150 Y123.332 A317.19067
G1 X121.353 Y123.453 A317.21789
G1 X121.353 Y123.453 A317.21789
G1 X120.592 Y123.568 A317.24384
G1 X120.497 Y123.316 A317.25293
G1 X120.263 Y122.878 A317.26968
G1 X120.107 Y122.652 A317.27896
G1 X120.112 Y122.647 A317.27922
G1 X120.069 Y122.598 A317.28143
G1 X120.069 Y122.598 A317.28143
G1 X119.842 Y122.341 A317.29299
G1 X119.588 Y122.116 A317.30445
G1 X119.351 Y121.945 A317.31430
G1 X119.096 Y121.802 A317.32419
G1 X118.825 Y121.687 A317.33411
G1 X118.676 Y121.644 A317.33937
G1 X118.676 Y121.644 A317.33937
G1 X118.543 Y121.605 A317.34404
G1 X118.253 Y121.556 A317.35395
G1 X117.963 Y121.539 A317.36376
G1 X117.733 Y121.548 A317.37156
G1 X117.501 Y121.583 A317.37947
G1 X117.275 Y121.643 A317.38737
G1 X117.057 Y121.729 A317.39526
G1 X116.851 Y121.836 A317.40312
G1 X116.656 Y121.967 A317.41104
G1 X116.478 Y122.118 A317.41892
G1 X116.318 Y122.288 A317.42679
G1 X116.150 Y122.510 A317.43620
G1 X116.008 Y122.750 A317.44560
G1 X115.893 Y123.004 A317.45501
G1 X115.809 Y123.269 A317.46439
G1 X115.736 Y123.616 A317.47637
G1 X115.693 Y123.966 A317.48828
G1 X115.693 Y123.966 A317.48828
G1 X115.672 Y124.143 A317.49429
G1 X115.714 Y124.908 A317.52015
G1 X115.721 Y124.958 A317.52187
G1 X115.721 Y124.958 A317.52187
G1 X115.802 Y125.492 A317.54009
G1 X115.947 Y126.064 A317.55999
G1 X116.146 Y126.618 A317.57988
G1 X116.367 Y127.104 A317.59790
G1 X116.646 Y127.565 A317.61609
G1 X116.871 Y127.859 A317.62859
G1 X117.130 Y128.125 A317.64111
G1 X117.418 Y128.359 A317.65363
G1 X117.734 Y128.559 A317.66626
G1 X118.074 Y128.718 A317.67892
G1 X118.428 Y128.833 A317.69151
G1 X118.796 Y128.904 A317.70417
G1 X118.972 Y128.915 A317.71011
G1 X118.972 Y128.915 A317.71011
G1 X119.167 Y128.928 A317.71671
G1 X119.415 Y128.919 A317.72508
G1 X119.530 Y128.904 A317.72898
G1 X119.530 Y128.904 A317.72898
G1 X119.658 Y128.887 A317.73336
G1 X119.901 Y128.832 A317.74175
G1 X120.085 Y128.769 A317.74832
G1 X120.261 Y128.687 A317.75487
G1 X120.429 Y128.587 A317.76147
G1 X120.585 Y128.469 A317.76809
G1 X120.739 Y128.322 A317.77527
G1 X120.873 Y128.160 A317.78236
G1 X120.988 Y127.985 A317.78944
G1 X121.032 Y127.896 A317.79279
G1 X121.032 Y127.896 A317.79279
G1 X121.083 Y127.796 A317.79657
G1 X121.271 Y127.289 A317.81483
G1 X122.740 Y127.431 A317.86465
G1 X122.583 Y127.991 A317.88430
G1 X122.426 Y128.383 A317.89855
G1 X122.278 Y128.657 A317.90905
G1 X122.101 Y128.914 A317.91958
G1 X121.898 Y129.152 A317.93016
G1 X121.672 Y129.368 A317.94069
G1 X121.414 Y129.569 A317.95176
G1 X121.135 Y129.743 A317.96283
G1 X120.841 Y129.885 A317.97386
G1 X120.533 Y129.996 A317.98491
G1 X120.101 Y130.101 A317.99992
G1 X119.566 Y130.175 A318.01815
G1 X119.566 Y130.166 A318.01847
G1 X119.214 Y130.179 A318.03038
G1 X118.677 Y130.153 A318.04852
G1 X118.150 Y130.066 A318.06655
G1 X117.682 Y129.935 A318.08293
G1 X117.682 Y129.935 A318.08293
G1 X117.635 Y129.922 A318.08459
G1 X117.140 Y129.721 A318.10261
G1 X116.669 Y129.466 A318.12071
G1 X116.286 Y129.204 A318.13637
G1 X115.932 Y128.905 A318.15202
G1 X115.609 Y128.570 A318.16773
G1 X115.319 Y128.205 A318.18346
G1 X115.063 Y127.814 A318.19923
G1 X114.841 Y127.404 A318.21496
G1 X114.545 Y126.685 A318.24122
G1 X114.334 Y125.932 A318.26761
G1 X114.319 Y125.856 A318.27023
G1 X114.211 Y125.126 A318.29516
G1 X114.177 Y124.391 A318.31997
G1 X114.195 Y123.840 A318.33861
G1 X114.263 Y123.293 A318.35719
G1 X114.380 Y122.757 A318.37571
G1 X114.506 Y122.374 A318.38932
G1 X114.585 Y122.206 A318.39561
G1 X114.585 Y122.206 A318.39561
G1 X114.677 Y122.011 A318.40289
G1 X114.889 Y121.669 A318.41646
G1 X115.139 Y121.358 A318.42993
G1 X115.404 Y121.108 A318.44222
G1 X115.800 Y120.815 A318.45884
G1 X115.816 Y120.823 A318.45944
G1 X116.016 Y120.709 A318.46723
G1 X116.353 Y120.567 A318.47957
G1 X116.383 Y120.559 A318.48061
G1 X116.383 Y120.559 A318.48061
G1 X116.832 Y120.434 A318.49634
G1 X117.323 Y120.357 A318.51313
G1 X117.824 Y120.335 A318.53005
G1 X118.306 Y120.356 A318.54633
G1 X118.780 Y120.423 A318.56251
G1 X119.246 Y120.537 A318.57867
G1 X119.512 Y120.634 A318.58824
G1 X119.512 Y120.610 A318.58905
G1 X120.119 Y120.913 A318.61198
G1 X120.519 Y121.173 A318.62806
G1 X120.846 Y121.445 A318.64243
G0 X125.644 Y127.507 F1800.000 A317.64243
G0 A318.64243
G1 X127.551 Y127.675 F1800.000 A318.70707
G1 X126.818 Y129.487 A318.77305
G1 X126.057 Y129.487 A318.79873
G1 X125.660 Y127.584 A318.86436
G0 X129.156 Y122.869 F1800.000 A317.86436
G0 A318.86436
G1 X129.893 Y121.035 F1800.000 A318.93111
G1 X130.646 Y121.035 A318.95652
G1 X131.065 Y123.040 A319.02568
G1 X129.234 Y122.876 A319.08772
G0 X129.823 Y123.454 F7800.000
G1 X127.170 Y130.009 F1800.000 A319.32645
G1 X125.632 Y130.009 A319.37836
G1 X124.328 Y123.759 A319.59388
G1 X124.328 Y123.759 A319.59388
G1 X123.650 Y120.512 A319.70585
G1 X125.035 Y120.512 A319.75259
G1 X126.402 Y127.050 A319.97803
G1 X126.895 Y127.093 A319.99474
G1 X129.540 Y120.512 A320.23415
G1 X131.071 Y120.512 A320.28581
G1 X133.053 Y130.009 A320.61330
G1 X131.675 Y130.009 A320.65981
G1 X130.315 Y123.498 A320.88436
G1 X129.901 Y123.461 A320.89839
G0 X141.128 Y121.495 F1800.000 A319.89839
G0 A320.89839
G1 X141.478 Y121.861 F1800.000 A320.91549
G1 X141.786 Y122.265 A320.93262
G1 X142.052 Y122.699 A320.94981
G1 X142.371 Y123.332 A320.97375
G1 X140.847 Y123.563 A321.02577
G1 X140.717 Y123.317 A321.03517
G1 X140.716 Y123.316 A321.03518
G1 X140.716 Y123.315 A321.03522
G1 X140.716 Y123.315 A321.03522
G1 X140.485 Y122.878 A321.05191
G1 X140.328 Y122.652 A321.06119
G1 X140.333 Y122.647 A321.06146
G1 X140.289 Y122.597 A321.06370
G1 X140.289 Y122.597 A321.06370
G1 X140.063 Y122.341 A321.07522
G1 X139.809 Y122.116 A321.08669
G1 X139.572 Y121.945 A321.09654
G1 X139.317 Y121.802 A321.10643
G1 X139.046 Y121.687 A321.11634
G1 X138.897 Y121.644 A321.12161
G1 X138.897 Y121.644 A321.12161
G1 X138.764 Y121.605 A321.12628
G1 X138.474 Y121.556 A321.13619
G1 X138.184 Y121.539 A321.14600
G1 X137.738 Y121.557 A321.16107
G1 X137.738 Y121.547 A321.16139
G1 X137.498 Y121.642 A321.17010
G1 X137.498 Y121.642 A321.17010
G1 X137.278 Y121.729 A321.17808
G1 X137.070 Y121.836 A321.18598
G1 X136.877 Y121.968 A321.19388
G1 X136.699 Y122.118 A321.20173
G1 X136.538 Y122.288 A321.20964
G1 X136.371 Y122.510 A321.21902
G1 X136.228 Y122.749 A321.22843
G1 X136.113 Y123.004 A321.23787
G1 X135.961 Y123.487 A321.25496
G1 X135.971 Y123.487 A321.25530
G1 X135.914 Y123.967 A321.27161
G1 X135.902 Y124.320 A321.28352
G1 X135.935 Y124.908 A321.30341
G1 X135.942 Y124.958 A321.30512
G1 X135.942 Y124.958 A321.30512
G1 X136.023 Y125.492 A321.32334
G1 X136.168 Y126.063 A321.34324
G1 X136.366 Y126.618 A321.36312
G1 X136.588 Y127.104 A321.38116
G1 X136.866 Y127.565 A321.39933
G1 X137.092 Y127.859 A321.41186
G1 X137.351 Y128.125 A321.42437
G1 X137.639 Y128.359 A321.43689
G1 X137.955 Y128.559 A321.44951
G1 X138.279 Y128.711 A321.46162
G1 X138.279 Y128.713 A321.46169
G1 X138.297 Y128.719 A321.46231
G1 X138.297 Y128.719 A321.46231
G1 X138.649 Y128.833 A321.47482
G1 X139.017 Y128.904 A321.48748
G1 X139.388 Y128.928 A321.50002
G1 X139.635 Y128.919 A321.50835
G1 X139.879 Y128.887 A321.51667
G1 X140.120 Y128.832 A321.52502
G1 X140.306 Y128.769 A321.53162
G1 X140.482 Y128.687 A321.53819
G1 X140.649 Y128.587 A321.54474
G1 X140.807 Y128.469 A321.55140
G1 X140.959 Y128.322 A321.55855
G1 X141.093 Y128.161 A321.56564
G1 X141.209 Y127.985 A321.57274
G1 X141.304 Y127.796 A321.57987
G1 X141.492 Y127.289 A321.59813
G1 X142.960 Y127.431 A321.64791
G1 X142.857 Y127.803 A321.66093
G1 X142.857 Y127.803 A321.66093
G1 X142.846 Y127.842 A321.66230
G1 X142.864 Y127.842 A321.66292
G1 X142.647 Y128.383 A321.68261
G1 X142.498 Y128.657 A321.69313
G1 X142.321 Y128.914 A321.70368
G1 X142.119 Y129.152 A321.71422
G1 X141.892 Y129.368 A321.72477
G1 X141.633 Y129.570 A321.73586
G1 X141.356 Y129.743 A321.74689
G1 X141.061 Y129.885 A321.75794
G1 X140.895 Y129.945 A321.76389
G1 X140.895 Y129.945 A321.76389
G1 X140.753 Y129.996 A321.76900
G1 X140.322 Y130.101 A321.78398
G1 X139.881 Y130.162 A321.79901
G1 X139.435 Y130.179 A321.81409
G1 X138.898 Y130.153 A321.83223
G1 X138.370 Y130.066 A321.85029
G1 X137.903 Y129.935 A321.86665
G1 X137.903 Y129.935 A321.86665
G1 X137.856 Y129.922 A321.86830
G1 X137.360 Y129.721 A321.88636
G1 X136.890 Y129.466 A321.90442
G1 X136.685 Y129.326 A321.91280
G1 X136.685 Y129.326 A321.91280
G1 X136.507 Y129.204 A321.92009
G1 X136.151 Y128.905 A321.93577
G1 X135.829 Y128.570 A321.95146
G1 X135.540 Y128.205 A321.96717
G1 X135.284 Y127.814 A321.98295
G1 X135.062 Y127.404 A321.99868
G1 X134.752 Y126.656 A322.02603
G1 X134.756 Y126.656 A322.02616
G1 X134.557 Y125.938 A322.05130
G1 X134.436 Y125.171 A322.07752
G1 X134.416 Y124.756 A322.09156
G1 X134.416 Y124.756 A322.09156
G1 X134.398 Y124.387 A322.10400
G1 X134.399 Y124.132 A322.11264
G1 X134.461 Y123.436 A322.13620
G1 X134.601 Y122.756 A322.15965
G1 X134.727 Y122.374 A322.17322
G1 X134.897 Y122.011 A322.18677
G1 X135.110 Y121.669 A322.20035
G1 X135.360 Y121.358 A322.21382
G1 X135.625 Y121.107 A322.22613
G1 X135.919 Y120.890 A322.23845
G1 X136.237 Y120.709 A322.25083
G1 X136.574 Y120.567 A322.26318
G1 X137.052 Y120.434 A322.27991
G1 X137.544 Y120.357 A322.29673
G1 X138.045 Y120.335 A322.31365
G1 X138.526 Y120.356 A322.32990
G1 X139.001 Y120.423 A322.34611
G1 X139.467 Y120.537 A322.36227
G1 X139.914 Y120.700 A322.37836
G1 X140.341 Y120.913 A322.39445
G1 X140.740 Y121.173 A322.41053
G1 X141.067 Y121.445 A322.42490
G0 X112.615 Y127.064 F1800.000 A321.42490
G0 A322.42490
G1 X112.533 Y127.247 F1800.000 A322.43170
G1 X111.099 Y127.247 A322.48011
G1 X109.972 Y125.977 A322.53744
G1 X109.972 Y125.977 A322.53744
G1 X109.084 Y124.977 A322.58257
G1 X107.922 Y127.247 A322.66865
G1 X106.431 Y127.247 A322.71900
G1 X108.161 Y123.929 A322.84534
G1 X105.245 Y120.698 A322.99227
G1 X105.327 Y120.512 A322.99911
G1 X106.776 Y120.512 A323.04801
G1 X108.756 Y122.749 A323.14884
G1 X109.904 Y120.512 A323.23369
G1 X111.395 Y120.512 A323.28401
G1 X109.680 Y123.782 A323.40864
G1 X112.563 Y127.005 A323.55460
G0 X103.097 Y122.664 F1800.000 A322.55460
G0 A323.55460
G1 X102.748 Y122.798 F1800.000 A323.56720
G1 X102.361 Y122.134 A323.59314
G1 X102.108 Y121.774 A323.60801
G1 X102.823 Y121.356 A323.63598
G1 X103.080 Y122.587 A323.67841
G0 X102.189 Y122.930 F7800.000
G1 X102.066 Y122.664 F1800.000 A323.68830
G1 X102.065 Y122.662 A323.68837
G1 X102.065 Y122.662 A323.68837
G1 X101.921 Y122.416 A323.69800
G1 X101.753 Y122.177 A323.70786
G1 X101.505 Y121.906 A323.72025
G1 X101.238 Y121.676 A323.73216
G1 X102.031 Y121.214 A323.76316
G1 X101.885 Y120.512 A323.78733
G1 X103.181 Y120.512 A323.83108
G1 X104.588 Y127.247 A324.06333
G1 X103.162 Y127.247 A324.11146
G1 X102.490 Y124.037 A324.22218
G1 X102.491 Y124.037 A324.22221
G1 X102.357 Y123.464 A324.24209
G1 X102.327 Y123.367 A324.24552
G1 X102.327 Y123.367 A324.24552
G1 X102.213 Y123.005 A324.25833
G0 X101.080 Y121.466 F7800.000
G1 X100.455 Y121.272 F1800.000 A324.28043
G1 X100.455 Y121.272 A324.28043
G1 X100.198 Y121.192 A324.28951
G1 X100.198 Y121.214 A324.29026
G1 X99.923 Y121.220 A324.29956
G1 X99.800 Y121.237 A324.30375
G1 X99.682 Y121.267 A324.30788
G1 X99.567 Y121.311 A324.31203
G1 X99.457 Y121.368 A324.31618
G1 X99.355 Y121.436 A324.32034
G1 X99.261 Y121.515 A324.32450
G1 X99.178 Y121.604 A324.32858
G1 X99.178 Y121.604 A324.32858
G1 X99.045 Y121.746 A324.33514
G1 X99.050 Y121.750 A324.33535
G1 X98.949 Y122.097 A324.34754
G1 X98.930 Y122.097 A324.34820
G1 X98.956 Y122.339 A324.35642
G1 X98.944 Y122.339 A324.35681
G1 X98.976 Y122.525 A324.36318
G1 X98.976 Y122.525 A324.36318
G1 X99.065 Y123.006 A324.37969
G1 X99.065 Y123.006 A324.37969
G1 X99.947 Y127.247 A324.52594
G1 X98.521 Y127.247 A324.57407
G1 X97.642 Y123.017 A324.71994
G1 X97.642 Y123.017 A324.71994
G1 X97.520 Y122.313 A324.74404
G1 X97.491 Y121.960 A324.75599
G1 X97.500 Y121.742 A324.76338
G1 X97.534 Y121.523 A324.77085
G1 X97.592 Y121.311 A324.77827
G1 X97.652 Y121.166 A324.78358
G1 X97.729 Y121.025 A324.78900
G1 X97.820 Y120.896 A324.79432
G1 X97.925 Y120.779 A324.79963
G1 X98.047 Y120.671 A324.80514
G1 X98.180 Y120.578 A324.81061
G1 X98.324 Y120.501 A324.81610
G1 X98.393 Y120.474 A324.81863
G1 X98.393 Y120.474 A324.81863
G1 X98.474 Y120.442 A324.82156
G1 X98.693 Y120.384 A324.82920
G1 X98.918 Y120.351 A324.83687
G1 X99.146 Y120.342 A324.84458
G1 X99.486 Y120.360 A324.85609
G1 X99.821 Y120.416 A324.86754
G1 X100.147 Y120.507 A324.87897
G1 X100.460 Y120.634 A324.89037
G1 X100.862 Y120.854 A324.90584
G1 X101.248 Y121.126 A324.92178
G1 X101.115 Y121.396 A324.93192
G0 X95.097 Y122.536 F1800.000 A323.93192
G0 A324.93192
G1 X95.097 Y122.536 F1800.000 A324.93192
G1 X95.679 Y125.473 A325.03297
G1 X95.707 Y125.813 A325.04449
G1 X95.697 Y126.029 A325.05179
G1 X95.662 Y126.245 A325.05918
G1 X95.603 Y126.455 A325.06653
G1 X95.542 Y126.598 A325.07180
G1 X95.465 Y126.736 A325.07713
G1 X95.337 Y126.912 A325.08448
G1 X95.328 Y126.912 A325.08477
G1 X95.265 Y126.981 A325.08793
G1 X95.199 Y127.040 A325.09092
G1 X95.199 Y127.040 A325.09092
G1 X95.184 Y127.053 A325.09158
G1 X95.184 Y127.061 A325.09185
G1 X95.011 Y127.182 A325.09899
G1 X94.868 Y127.258 A325.10447
G1 X94.786 Y127.291 A325.10744
G1 X94.786 Y127.291 A325.10744
G1 X94.716 Y127.318 A325.10996
G1 X94.498 Y127.375 A325.11756
G1 X94.273 Y127.408 A325.12524
G1 X94.155 Y127.413 A325.12923
G1 X94.155 Y127.424 A325.12958
G1 X93.740 Y127.403 A325.14361
G1 X93.443 Y127.358 A325.15377
G1 X93.150 Y127.283 A325.16396
G1 X92.867 Y127.179 A325.17413
G1 X92.540 Y127.019 A325.18642
G1 X91.936 Y126.643 A325.21045
G1 X92.126 Y126.258 A325.22494
G1 X92.953 Y126.570 A325.25479
G1 X92.953 Y126.541 A325.25575
G1 X93.249 Y126.541 A325.26571
G1 X93.375 Y126.528 A325.27000
G1 X93.498 Y126.499 A325.27428
G1 X93.616 Y126.457 A325.27849
G1 X93.729 Y126.402 A325.28274
G1 X93.835 Y126.334 A325.28700
G1 X93.938 Y126.251 A325.29147
G1 X94.023 Y126.153 A325.29585
G1 X94.094 Y126.052 A325.30001
G1 X94.186 Y125.877 A325.30668
G1 X94.204 Y125.877 A325.30731
G1 X94.227 Y125.704 A325.31320
G1 X94.227 Y125.704 A325.31320
G1 X94.243 Y125.582 A325.31733
G1 X94.243 Y125.454 A325.32167
G1 X93.251 Y120.512 A325.49179
G1 X94.676 Y120.512 A325.53991
G1 X95.081 Y122.459 A325.60703
G0 X90.446 Y124.944 F1800.000 A324.60703
G0 A325.60703
G1 X90.815 Y125.602 F1800.000 A325.63250
G1 X91.102 Y126.010 A325.64936
G1 X90.379 Y126.460 A325.67810
G1 X90.090 Y125.077 A325.72579
G1 X90.372 Y124.971 A325.73597
G0 X91.023 Y124.831 F7800.000
G1 X91.117 Y125.072 F1800.000 A325.74470
G1 X91.258 Y125.323 A325.75440
G1 X91.420 Y125.554 A325.76391
G1 X91.604 Y125.768 A325.77345
G1 X91.701 Y125.859 A325.77794
G1 X91.701 Y125.859 A325.77794
G1 X91.953 Y126.096 A325.78964
G1 X91.197 Y126.566 A325.81969
G1 X91.335 Y127.247 A325.84315
G1 X90.010 Y127.247 A325.88787
G1 X88.602 Y120.512 A326.12013
G1 X90.028 Y120.512 A326.16826
G1 X90.812 Y124.173 A326.29462
G1 X90.942 Y124.624 A326.31048
G1 X90.994 Y124.758 A326.31533
G0 X87.519 Y127.247 F1800.000 A325.31533
G0 A326.31533
G1 X86.093 Y127.247 F1800.000 A326.36345
G1 X84.685 Y120.512 A326.59572
G1 X86.111 Y120.512 A326.64384
G1 X87.503 Y127.170 A326.87345
G0 X87.833 Y128.756 F7800.000
G1 X88.093 Y130.009 F1800.000 A326.91665
G1 X86.668 Y130.009 A326.96478
G1 X86.408 Y128.756 A327.00797
G1 X87.755 Y128.756 A327.05344
G0 X79.712 Y130.009 F1800.000 A326.05344
G0 A327.05344
G1 X78.191 Y130.009 F1800.000 A327.10478
G1 X76.202 Y120.512 A327.43232
G1 X82.830 Y120.512 A327.65603
G1 X83.069 Y121.662 A327.69569
G1 X77.969 Y121.662 A327.86785
G1 X79.696 Y129.932 A328.15303
G0 X115.537 Y127.094 F1800.000 A327.15303
G0 A328.15303
G1 X115.959 Y127.860 F3600.000 A328.18254
G1 X116.621 Y128.606 A328.21621
G1 X117.736 Y129.279 A328.26017
G1 X118.840 Y129.565 A328.29866
G1 X119.893 Y129.506 A328.33425
G1 X120.638 Y129.246 A328.36088
G1 X121.329 Y128.733 A328.38992
G1 X121.770 Y128.122 A328.41539
G0 X115.245 Y126.369 F1800.000 A327.41539
G0 A328.41539
G1 X115.537 Y127.094 F3600.000 A328.44180
G0 X115.156 Y126.027 F7800.000
G1 X115.245 Y126.369 F3600.000 A328.45371
G0 X115.059 Y125.667 F7800.000
G1 X115.156 Y126.027 F3600.000 A328.46628
G0 X114.951 Y124.974 F7800.000
G1 X114.949 Y123.783 F3600.000 A328.50648
G1 X115.309 Y122.435 A328.55357
G1 X115.728 Y121.820 A328.57869
G1 X116.382 Y121.303 A328.60682
G1 X117.065 Y121.014 A328.63184
G1 X117.931 Y120.906 A328.66130
G1 X118.568 Y120.977 A328.68294
G1 X119.446 Y121.298 A328.71451
G0 X110.400 Y125.577 F1800.000 A327.71451
G0 A328.71451
G1 X111.322 Y126.587 F3600.000 A328.76068
G0 X108.488 Y124.649 F1800.000 A327.76068
G0 A328.76068
G1 X108.923 Y123.798 F3600.000 A328.79297
G1 X108.748 Y123.721 A328.79942
G1 X108.750 Y123.604 A328.80335
G1 X108.583 Y123.537 A328.80943
G1 X108.580 Y123.413 A328.81360
G1 X108.417 Y123.353 A328.81947
G1 X108.410 Y123.223 A328.82388
G1 X108.252 Y123.169 A328.82953
G1 X108.240 Y123.032 A328.83416
G1 X108.087 Y122.984 A328.83958
G1 X108.070 Y122.842 A328.84443
G1 X107.922 Y122.800 A328.84962
G1 X107.899 Y122.652 A328.85467
G1 X107.757 Y122.615 A328.85963
G1 X107.729 Y122.462 A328.86488
G1 X107.593 Y122.430 A328.86958
G1 X107.558 Y122.272 A328.87503
G1 X106.469 Y121.115 A328.92868
G0 X108.917 Y123.922 F1800.000 A327.92868
G0 A328.92868
G1 X109.085 Y123.991 F3600.000 A328.93478
G1 X110.400 Y125.577 A329.00434
G0 X109.239 Y123.163 F1800.000 A328.00434
G0 A329.00434
G1 X109.349 Y123.075 F3600.000 A329.00911
G1 X109.352 Y122.945 A329.01353
G1 X109.569 Y122.652 A329.02582
G1 X110.300 Y121.160 A329.08189
G0 X107.712 Y126.165 F1800.000 A328.08189
G0 A329.08189
G1 X108.488 Y124.649 F3600.000 A329.13936
G0 X107.550 Y126.538 F1800.000 A328.13936
G0 A329.13936
G1 X107.712 Y126.165 F3600.000 A329.15311
G0 X107.525 Y126.596 F7800.000
G1 X107.550 Y126.538 F3600.000 A329.15523
G0 X103.715 Y126.543 F1800.000 A328.15523
G0 A329.15523
G1 X102.911 Y122.917 F3600.000 A329.28057
G0 X98.411 Y123.389 F1800.000 A328.28057
G0 A329.28057
G1 X98.312 Y122.917 F3600.000 A329.29683
G1 X98.209 Y122.010 A329.32768
G1 X98.348 Y121.417 A329.34823
G1 X98.749 Y121.064 A329.36626
G1 X99.075 Y120.941 A329.37803
G0 X94.876 Y124.968 F1800.000 A328.37803
G0 A329.37803
G1 X94.918 Y125.130 F3600.000 A329.38367
G1 X94.912 Y125.992 A329.41279
G1 X94.710 Y126.470 A329.43030
G1 X94.290 Y126.788 A329.44808
G0 X89.896 Y123.404 F1800.000 A328.44808
G0 A329.44808
G1 X90.242 Y124.806 F3600.000 A329.49686
G0 X89.847 Y123.150 F7800.000
G1 X89.753 Y122.642 F3600.000 A329.51429
G1 X89.478 Y121.219 A329.56321
G0 X86.384 Y125.333 F1800.000 A328.56321
G0 A329.56321
G1 X86.436 Y125.580 F3600.000 A329.57174
G1 X86.645 Y126.542 A329.60497
G0 X78.474 Y127.651 F1800.000 A328.60497
G0 A329.60497
G1 X78.790 Y129.265 F3600.000 A329.66048
G0 X77.762 Y124.348 F1800.000 A328.66048
G0 A329.66048
G1 X78.474 Y127.651 F3600.000 A329.77453
G0 X77.506 Y123.103 F1800.000 A328.77453
G0 A329.77453
G1 X77.762 Y124.348 F3600.000 A329.81743
G0 X77.453 Y122.855 F7800.000
G1 X77.506 Y123.103 F3600.000 A329.82601
G0 X119.446 Y121.298 F1800.000 A328.82601
G0 A329.82601
G1 X120.378 Y121.912 F3600.000 A329.86366
G1 X121.037 Y122.771 A329.90023
G0 X125.318 Y125.292 F1800.000 A328.90023
G0 A329.90023
G1 X124.506 Y121.204 F3600.000 A330.04093
G0 X125.627 Y126.768 F1800.000 A329.04093
G0 A330.04093
G1 X125.679 Y127.024 F3600.000 A330.04977
G1 X125.732 Y127.281 A330.05861
G1 X125.780 Y127.374 A330.06217
G0 X127.792 Y126.647 F1800.000 A329.06217
G0 A330.06217
G1 X127.469 Y127.509 F3600.000 A330.09325
G0 X128.449 Y125.006 F1800.000 A329.09325
G0 A330.09325
G1 X127.792 Y126.647 F3600.000 A330.15291
G0 X128.543 Y124.772 F1800.000 A329.15291
G0 A330.15291
G1 X128.731 Y124.303 F3600.000 A330.16995
G1 X129.273 Y123.000 A330.21758
G0 X131.790 Y127.369 F1800.000 A329.21758
G0 A330.21758
G1 X130.968 Y123.196 F3600.000 A330.36116
G0 X132.100 Y128.845 F1800.000 A329.36116
G0 A330.36116
G1 X132.152 Y129.091 F3600.000 A330.36964
G1 X132.204 Y129.321 A330.37758
G0 X135.971 Y127.523 F1800.000 A329.37758
G0 A330.37758
G1 X136.555 Y128.335 F3600.000 A330.41135
G1 X137.355 Y128.954 A330.44549
G0 X135.363 Y126.003 F1800.000 A329.44549
G0 A330.44549
G1 X135.971 Y127.523 F3600.000 A330.50074
G0 X135.164 Y124.561 F1800.000 A329.50074
G0 A330.50074
G1 X135.363 Y126.003 F3600.000 A330.54988
G0 X135.140 Y124.489 F7800.000
G1 X135.164 Y124.561 F3600.000 A330.55244
G0 X135.193 Y123.454 F7800.000
G1 X135.523 Y122.461 F3600.000 A330.58776
G1 X135.949 Y121.823 A330.61366
G1 X136.471 Y121.383 A330.63669
G1 X137.695 Y120.940 A330.68065
G0 X138.465 Y121.031 F7800.000
G1 X138.629 Y120.998 F3600.000 A330.68630
G1 X139.564 Y121.208 A330.71863
G1 X139.982 Y121.475 A330.73538
G1 X140.132 Y121.564 A330.74128
G1 X140.582 Y121.892 A330.76008
G1 X141.124 Y122.559 A330.78910
G1 X141.253 Y122.761 A330.79718
G0 X137.355 Y128.954 F1800.000 A329.79718
G0 A330.79718
G1 X138.612 Y129.468 F3600.000 A330.84304
G1 X139.527 Y129.570 A330.87411
G1 X140.114 Y129.506 A330.89402
G1 X140.832 Y129.265 A330.91959
G1 X141.403 Y128.876 A330.94292
G1 X141.960 Y128.048 A330.97660
G0 Z2.900 F1800.000 A329.97660
G0 X114.889 Y121.669 F7800.000
G0 F1800.000 A330.97660
G1 X115.139 Y121.358 F1800.000 A330.99006
G1 X115.404 Y121.108 A331.00236
G1 X115.698 Y120.890 A331.01472
G1 X116.016 Y120.709 A331.02707
G1 X116.353 Y120.567 A331.03941
G1 X116.832 Y120.434 A331.05618
G1 X117.323 Y120.357 A331.07297
G1 X117.640 Y120.343 A331.08367
G1 X117.640 Y120.327 A331.08421
G1 X118.306 Y120.356 A331.10671
G1 X118.393 Y120.368 A331.10969
G1 X118.393 Y120.368 A331.10969
G1 X118.780 Y120.423 A331.12289
G1 X119.246 Y120.537 A331.13905
G1 X119.693 Y120.700 A331.15514
G1 X120.120 Y120.913 A331.17123
G1 X120.519 Y121.173 A331.18731
G1 X120.907 Y121.495 A331.20434
G1 X121.257 Y121.861 A331.22144
G1 X121.565 Y122.265 A331.23857
G1 X121.831 Y122.699 A331.25576
G1 X122.150 Y123.332 A331.27970
G1 X120.592 Y123.568 A331.33287
G1 X120.497 Y123.316 A331.34195
G1 X120.263 Y122.878 A331.35871
G1 X120.069 Y122.598 A331.37023
G1 X119.842 Y122.341 A331.38178
G1 X119.588 Y122.116 A331.39325
G1 X119.351 Y121.945 A331.40310
G1 X119.096 Y121.802 A331.41299
G1 X118.825 Y121.687 A331.42290
G1 X118.543 Y121.605 A331.43284
G1 X118.253 Y121.556 A331.44275
G1 X117.963 Y121.539 A331.45256
G1 X117.733 Y121.548 A331.46035
G1 X117.501 Y121.583 A331.46827
G1 X117.275 Y121.643 A331.47617
G1 X117.057 Y121.729 A331.48405
G1 X116.851 Y121.836 A331.49191
G1 X116.656 Y121.967 A331.49983
G1 X116.478 Y122.118 A331.50771
G1 X116.318 Y122.288 A331.51559
G1 X116.150 Y122.510 A331.52499
G1 X116.008 Y122.750 A331.53440
G1 X115.893 Y123.004 A331.54380
G1 X115.809 Y123.269 A331.55319
G1 X115.736 Y123.616 A331.56516
G1 X115.693 Y123.967 A331.57709
G1 X115.681 Y124.320 A331.58902
G1 X115.714 Y124.908 A331.60890
G1 X115.802 Y125.492 A331.62884
G1 X115.947 Y126.064 A331.64874
G1 X116.146 Y126.618 A331.66863
G1 X116.367 Y127.104 A331.68665
G1 X116.646 Y127.565 A331.70484
G1 X116.871 Y127.859 A331.71733
G1 X117.130 Y128.125 A331.72986
G1 X117.418 Y128.359 A331.74238
G1 X117.734 Y128.559 A331.75500
G1 X118.074 Y128.718 A331.76767
G1 X118.428 Y128.833 A331.78026
G1 X118.796 Y128.904 A331.79292
G1 X119.167 Y128.928 A331.80546
G1 X119.415 Y128.919 A331.81383
G1 X119.658 Y128.887 A331.82211
G1 X119.901 Y128.832 A331.83050
G1 X120.085 Y128.769 A331.83707
G1 X120.261 Y128.687 A331.84362
G1 X120.429 Y128.587 A331.85021
G1 X120.585 Y128.469 A331.85684
G1 X120.739 Y128.322 A331.86402
G1 X120.873 Y128.160 A331.87110
G1 X120.988 Y127.985 A331.87819
G1 X121.083 Y127.796 A331.88531
G1 X121.271 Y127.289 A331.90358
G1 X122.740 Y127.431 A331.95340
G1 X122.697 Y127.585 A331.95879
G1 X122.697 Y127.585 A331.95879
G1 X122.583 Y127.991 A331.97305
G1 X122.426 Y128.383 A331.98730
G1 X122.278 Y128.657 A331.99780
G1 X122.101 Y128.914 A332.00833
G1 X121.898 Y129.152 A332.01890
G1 X121.712 Y129.330 A332.02760
G1 X121.712 Y129.330 A332.02760
G1 X121.672 Y129.368 A332.02944
G1 X121.414 Y129.569 A332.04051
G1 X121.135 Y129.743 A332.05158
G1 X120.841 Y129.885 A332.06261
G1 X120.533 Y129.996 A332.07366
G1 X120.101 Y130.101 A332.08867
G1 X119.442 Y130.193 A332.11114
G1 X119.442 Y130.171 A332.11189
G1 X119.214 Y130.179 A332.11959
G1 X118.677 Y130.153 A332.13773
G1 X118.150 Y130.066 A332.15576
G1 X117.635 Y129.922 A332.17380
G1 X117.140 Y129.721 A332.19182
G1 X116.619 Y129.439 A332.21184
G1 X116.619 Y129.431 A332.21208
G1 X116.618 Y129.430 A332.21214
G1 X116.618 Y129.430 A332.21214
G1 X116.286 Y129.204 A332.22570
G1 X115.932 Y128.905 A332.24135
G1 X115.609 Y128.570 A332.25705
G1 X115.319 Y128.205 A332.27278
G1 X115.063 Y127.814 A332.28855
G1 X114.841 Y127.404 A332.30428
G1 X114.600 Y126.820 A332.32562
G1 X114.600 Y126.820 A332.32562
G1 X114.545 Y126.685 A332.33054
G1 X114.334 Y125.932 A332.35694
G1 X114.321 Y125.867 A332.35917
G1 X114.321 Y125.867 A332.35917
G1 X114.319 Y125.856 A332.35955
G1 X114.211 Y125.126 A332.38448
G1 X114.177 Y124.391 A332.40930
G1 X114.195 Y123.840 A332.42793
G1 X114.263 Y123.293 A332.44652
G1 X114.380 Y122.757 A332.46503
G1 X114.506 Y122.374 A332.47865
G1 X114.677 Y122.011 A332.49221
G1 X114.848 Y121.736 A332.50313
G0 X125.644 Y127.507 F1800.000 A331.50313
G0 A332.50313
G1 X127.551 Y127.675 F1800.000 A332.56777
G1 X126.818 Y129.487 A332.63374
G1 X126.057 Y129.487 A332.65943
G1 X125.660 Y127.584 A332.72506
G0 X129.156 Y122.869 F1800.000 A331.72506
G0 A332.72506
G1 X129.893 Y121.035 F1800.000 A332.79181
G1 X130.646 Y121.035 A332.81722
G1 X131.065 Y123.040 A332.88638
G1 X129.234 Y122.876 A332.94842
G0 X129.823 Y123.454 F7800.000
G1 X127.170 Y130.009 F1800.000 A333.18715
G1 X125.632 Y130.009 A333.23906
G1 X124.328 Y123.759 A333.45458
G1 X124.328 Y123.759 A333.45458
G1 X123.650 Y120.512 A333.56655
G1 X125.035 Y120.512 A333.61329
G1 X126.402 Y127.050 A333.83873
G1 X126.895 Y127.093 A333.85543
G1 X129.540 Y120.512 A334.09485
G1 X131.071 Y120.512 A334.14651
G1 X133.053 Y130.009 A334.47400
G1 X131.675 Y130.009 A334.52050
G1 X130.315 Y123.498 A334.74506
G1 X129.901 Y123.461 A334.75908
G0 X134.897 Y122.011 F1800.000 A333.75908
G0 A334.75908
G1 X135.110 Y121.669 F1800.000 A334.77267
G1 X135.360 Y121.358 A334.78614
G1 X135.625 Y121.107 A334.79844
G1 X135.919 Y120.890 A334.81077
G1 X136.237 Y120.709 A334.82315
G1 X136.468 Y120.612 A334.83161
G1 X136.468 Y120.597 A334.83212
G1 X137.052 Y120.434 A334.85256
G1 X137.544 Y120.357 A334.86939
G1 X138.045 Y120.335 A334.88631
G1 X138.526 Y120.356 A334.90255
G1 X139.001 Y120.423 A334.91877
G1 X139.467 Y120.537 A334.93493
G1 X139.914 Y120.700 A334.95101
G1 X140.341 Y120.913 A334.96711
G1 X140.740 Y121.173 A334.98319
G1 X141.128 Y121.495 A335.00021
G1 X141.478 Y121.861 A335.01731
G1 X141.786 Y122.265 A335.03445
G1 X142.052 Y122.699 A335.05164
G1 X142.371 Y123.332 A335.07558
G1 X140.813 Y123.568 A335.12876
G1 X140.716 Y123.316 A335.13785
G1 X140.485 Y122.878 A335.15458
G1 X140.290 Y122.598 A335.16611
G1 X140.063 Y122.341 A335.17767
G1 X139.809 Y122.116 A335.18913
G1 X139.572 Y121.945 A335.19898
G1 X139.317 Y121.802 A335.20887
G1 X139.046 Y121.687 A335.21879
G1 X138.764 Y121.605 A335.22872
G1 X138.474 Y121.556 A335.23863
G1 X138.184 Y121.539 A335.24844
G1 X137.953 Y121.548 A335.25627
G1 X137.722 Y121.583 A335.26415
G1 X137.495 Y121.643 A335.27208
G1 X137.278 Y121.729 A335.27993
G1 X137.070 Y121.836 A335.28783
G1 X136.877 Y121.968 A335.29573
G1 X136.699 Y122.118 A335.30359
G1 X136.538 Y122.288 A335.31150
G1 X136.371 Y122.510 A335.32088
G1 X136.228 Y122.749 A335.33029
G1 X136.113 Y123.004 A335.33973
G1 X136.030 Y123.269 A335.34909
G1 X135.956 Y123.616 A335.36107
G1 X135.914 Y123.967 A335.37300
G1 X135.902 Y124.320 A335.38492
G1 X135.935 Y124.908 A335.40480
G1 X136.023 Y125.492 A335.42474
G1 X136.168 Y126.063 A335.44463
G1 X136.366 Y126.618 A335.46452
G1 X136.588 Y127.104 A335.48255
G1 X136.866 Y127.565 A335.50073
G1 X137.092 Y127.859 A335.51325
G1 X137.351 Y128.125 A335.52577
G1 X137.639 Y128.359 A335.53828
G1 X137.955 Y128.559 A335.55091
G1 X138.294 Y128.718 A335.56355
G1 X138.649 Y128.833 A335.57617
G1 X139.017 Y128.904 A335.58883
G1 X139.388 Y128.928 A335.60137
G1 X139.635 Y128.919 A335.60970
G1 X139.879 Y128.887 A335.61802
G1 X140.120 Y128.832 A335.62637
G1 X140.306 Y128.769 A335.63297
G1 X140.482 Y128.687 A335.63954
G1 X140.649 Y128.587 A335.64609
G1 X140.807 Y128.469 A335.65275
G1 X140.959 Y128.322 A335.65990
G1 X141.093 Y128.161 A335.66699
G1 X141.209 Y127.985 A335.67409
G1 X141.304 Y127.796 A335.68121
G1 X141.492 Y127.289 A335.69948
G1 X142.960 Y127.431 A335.74926
G1 X142.804 Y127.992 A335.76891
G1 X142.647 Y128.383 A335.78313
G1 X142.498 Y128.657 A335.79366
G1 X142.321 Y128.914 A335.80421
G1 X142.119 Y129.152 A335.81475
G1 X141.892 Y129.368 A335.82530
G1 X141.633 Y129.570 A335.83638
G1 X141.404 Y129.713 A335.84551
G1 X141.404 Y129.713 A335.84551
G1 X141.356 Y129.743 A335.84742
G1 X141.113 Y129.860 A335.85652
G1 X141.113 Y129.860 A335.85652
G1 X141.061 Y129.885 A335.85847
G1 X140.753 Y129.996 A335.86953
G1 X140.401 Y130.082 A335.88177
G1 X140.401 Y130.082 A335.88177
G1 X140.322 Y130.101 A335.88451
G1 X139.881 Y130.162 A335.89954
G1 X139.435 Y130.179 A335.91462
G1 X138.898 Y130.153 A335.93276
G1 X138.772 Y130.132 A335.93707
G1 X138.772 Y130.132 A335.93707
G1 X138.370 Y130.066 A335.95082
G1 X137.856 Y129.922 A335.96883
G1 X137.360 Y129.721 A335.98688
G1 X136.890 Y129.466 A336.00495
G1 X136.507 Y129.204 A336.02062
G1 X136.151 Y128.905 A336.03629
G1 X135.829 Y128.570 A336.05199
G1 X135.540 Y128.205 A336.06770
G1 X135.284 Y127.814 A336.08347
G1 X135.062 Y127.404 A336.09921
G1 X134.765 Y126.685 A336.12547
G1 X134.557 Y125.938 A336.15165
G1 X134.436 Y125.171 A336.17786
G1 X134.405 Y124.541 A336.19916
G1 X134.405 Y124.541 A336.19916
G1 X134.398 Y124.387 A336.20435
G1 X134.399 Y124.132 A336.21298
G1 X134.461 Y123.436 A336.23655
G1 X134.601 Y122.756 A336.25999
G1 X134.727 Y122.374 A336.27357
G1 X134.864 Y122.082 A336.28445
G0 X112.615 Y127.064 F1800.000 A335.28445
G0 A336.28445
G1 X112.533 Y127.247 F1800.000 A336.29125
G1 X111.099 Y127.247 A336.33967
G1 X109.084 Y124.977 A336.44212
G1 X107.922 Y127.247 A336.52820
G1 X106.431 Y127.247 A336.57855
G1 X108.161 Y123.929 A336.70490
G1 X105.245 Y120.698 A336.85182
G1 X105.327 Y120.512 A336.85866
G1 X106.776 Y120.512 A336.90757
G1 X108.756 Y122.749 A337.00839
G1 X109.904 Y120.512 A337.09324
G1 X111.395 Y120.512 A337.14356
G1 X109.680 Y123.782 A337.26820
G1 X112.563 Y127.005 A337.41416
G0 X103.097 Y122.664 F1800.000 A336.41416
G0 A337.41416
G1 X102.748 Y122.798 F1800.000 A337.42675
G1 X102.361 Y122.134 A337.45270
G1 X102.108 Y121.774 A337.46756
G1 X102.823 Y121.356 A337.49553
G1 X103.080 Y122.587 A337.53797
G0 X103.440 Y121.756 F7800.000
G1 X104.588 Y127.247 F1800.000 A337.72735
G1 X103.162 Y127.247 A337.77548
G1 X102.357 Y123.464 A337.90607
G1 X102.189 Y122.930 A337.92496
G1 X102.066 Y122.664 A337.93484
G1 X101.921 Y122.416 A337.94454
G1 X101.753 Y122.177 A337.95440
G1 X101.505 Y121.906 A337.96679
G1 X101.237 Y121.676 A337.97871
G1 X102.031 Y121.214 A338.00972
G1 X101.885 Y120.512 A338.03389
G1 X103.181 Y120.512 A338.07763
G1 X103.424 Y121.679 A338.11785
