N0000 (Filename: PlasmaTest.tap)
N0010 (Post processor: EMC-Plasma.post)
N0020 (Date: 1.7.2008)
N0030 G21 (Units: Metric)
N0040 G90 G40
N0050 F1
N0060 S500
N0070 (Part: PlasmaTest)
N0080 (Process: Plasma,  DEFAULT, Plasma 80A 3mm)
N0090 M06 T1 F5840  (Plasma 80A 3mm)
N0100 G00
N0110 X164.0817 Y167.1007
N0120 M03
N0130 G03 X163.1598 Y168.0227 I-0.9220 J0.0000 F5840.0
N0140 G01 Y149.6432
N0150 X164.3104
N0160 Y155.7606
N0170 G02 X164.5351 Y156.2960 I0.7500 J0.0000
N0180 G01 X167.7335 Y159.4342
N0190 G02 X168.8713 Y159.3317 I0.5253 J-0.5353
N0200 G01 X175.7179 Y149.6432
N0210 X177.3114
N0220 X169.4923 Y160.2594
N0230 G02 X169.5707 Y161.2393 I0.6039 J0.4448
N0240 G01 X176.4791 Y168.0227
N0250 X174.8909
N0260 X165.5906 Y158.7261
N0270 G02 X164.3104 Y159.2565 I-0.5302 J0.5304
N0280 G01 Y168.0227
N0290 X163.1598
N0300 M05
N0310 G00 X152.9049 Y164.0884
N0320 M03
N0330 G03 X149.5772 Y168.3800 I-3.8096 J0.4820
N0340 G01 X147.7354 Y168.2182
N0350 X146.0809 Y167.7357
N0360 X144.6123 Y166.9367
N0370 X143.3157 Y165.8152
N0380 X142.2560 Y164.4074
N0390 X141.4941 Y162.7420
N0400 X141.0297 Y160.7979
N0410 X140.8735 Y158.5826
N0420 X141.1399 Y156.1827
N0430 X141.9302 Y153.9351
N0440 X143.2171 Y152.0029
N0450 X144.9829 Y150.5353
N0460 X147.1345 Y149.6016
N0470 X149.5803 Y149.2877
N0480 X151.8800 Y149.5716
N0490 X154.0070 Y150.4191
N0500 X155.8060 Y151.8044
N0510 X157.1496 Y153.7273
N0520 X157.9963 Y156.0978
N0530 X158.2822 Y158.8005
N0540 X158.0104 Y161.4665
N0550 X157.2053 Y163.8050
N0560 X155.9075 Y165.7275
N0570 X154.1388 Y167.1674
N0580 X151.9986 Y168.0736
N0590 X149.5772 Y168.3800
N0600 M05
N0610 G00 X133.8400 Y125.4100
N0620 M03
N0630 G03 X130.0000 Y129.2500 I-3.8400 J0.0000
N0640 G02 X129.2500 Y130.0000 I0.0000 J0.7500
N0650 G01 Y190.0000
N0660 G02 X130.0000 Y190.7500 I0.7500 J0.0000
N0670 G01 X190.0000
N0680 G02 X190.7500 Y190.0000 I0.0000 J-0.7500
N0690 G01 Y130.0000
N0700 G02 X190.0000 Y129.2500 I-0.7500 J0.0000
N0710 G01 X130.0000
N0720 M05
N0730 G00 X152.2556 Y227.2129
N0740 M03
N0750 G03 X156.0956 Y223.3729 I3.8400 J0.0000
N0760 G02 X156.8456 Y222.6229 I0.0000 J-0.7500
N0770 G01 Y202.7434
N0780 G02 X156.0956 Y201.9934 I-0.7500 J0.0000
N0790 G01 X153.2774
N0800 G02 X152.6494 Y202.3334 I0.0000 J0.7500
N0810 G01 X144.0745 Y215.4691
N0820 Y202.7434
N0830 G02 X143.3245 Y201.9934 I-0.7500 J0.0000
N0840 G01 X140.6739
N0850 G02 X139.9239 Y202.7434 I0.0000 J0.7500
N0860 G01 Y222.6229
N0870 G02 X140.6739 Y223.3729 I0.7500 J0.0000
N0880 G01 X143.4921
N0890 G02 X144.1201 Y223.0329 I0.0000 J-0.7500
N0900 G01 X152.6950 Y209.8973
N0910 Y222.6229
N0920 G02 X153.4450 Y223.3729 I0.7500 J0.0000
N0930 G01 X156.0956
N0940 M05
N0950 G00 X165.9475 Y228.0201
N0960 M03
N0970 G03 X169.2752 Y223.7285 I3.8096 J-0.4820
N0980 G01 X171.8792 Y223.3990
N0990 G02 X172.0775 Y223.3456 I-0.0941 J-0.7441
N1000 G01 X174.4114 Y222.3572
N1010 G02 X174.5924 Y222.2483 I-0.2925 J-0.6906
N1020 G01 X176.5300 Y220.6709
N1030 G02 X176.6782 Y220.5089 I-0.4735 J-0.5816
N1040 G01 X178.0933 Y218.4125
N1050 G02 X178.1809 Y218.2370 I-0.6216 J-0.4196
N1060 G01 X179.0464 Y215.7231
N1070 G02 X179.0833 Y215.5550 I-0.7091 J-0.2441
N1080 G01 X179.3718 Y212.7254
N1090 G02 X179.3715 Y212.5704 I-0.7461 J-0.0761
N1100 G01 X179.0680 Y209.7012
N1110 G02 X179.0285 Y209.5278 I-0.7458 J0.0789
N1120 G01 X178.1178 Y206.9782
N1130 G02 X178.0263 Y206.8008 I-0.7063 J0.2523
N1140 G01 X176.5591 Y204.7011
N1150 G02 X176.4019 Y204.5365 I-0.6148 J0.4296
N1160 G01 X174.4288 Y203.0170
N1170 G02 X174.2488 Y202.9145 I-0.4576 J0.5942
N1180 G01 X171.9349 Y201.9926
N1190 G02 X171.7492 Y201.9449 I-0.2776 J0.6967
N1200 G01 X169.2598 Y201.6376
N1210 G02 X169.0724 Y201.6381 I-0.0919 J0.7443
N1220 G01 X166.4274 Y201.9776
N1230 G02 X166.2244 Y202.0335 I0.0955 J0.7439
N1240 G01 X163.8769 Y203.0522
N1250 G02 X163.6960 Y203.1634 I0.2986 J0.6880
N1260 G01 X161.7636 Y204.7695
N1270 G02 X161.6188 Y204.9305 I0.4794 J0.5768
N1280 G01 X160.2191 Y207.0321
N1290 G02 X160.1358 Y207.1991 I0.6242 J0.4157
N1300 G01 X159.2858 Y209.6162
N1310 G02 X159.2479 Y209.7823 I0.7075 J0.2488
N1320 G01 X158.9646 Y212.3350
N1330 G02 X158.9619 Y212.4705 I0.7454 J0.0827
N1340 G01 X159.1272 Y214.8151
N1350 G02 X159.1458 Y214.9366 I0.7481 J-0.0527
N1360 G01 X159.6416 Y217.0119
N1370 G02 X159.6890 Y217.1497 I0.7295 J-0.1743
N1380 G01 X160.5153 Y218.9557
N1390 G02 X160.5981 Y219.0947 I0.6820 J-0.3120
N1400 G01 X161.7549 Y220.6314
N1410 G02 X161.8634 Y220.7476 I0.5992 J-0.4511
N1420 G01 X163.2816 Y221.9743
N1430 G02 X163.4138 Y222.0659 I0.4907 J-0.5672
N1440 G01 X165.0244 Y222.9422
N1450 G02 X165.1729 Y223.0034 I0.3584 J-0.6588
N1460 G01 X166.9758 Y223.5291
N1470 G02 X167.1201 Y223.5563 I0.2100 J-0.7200
N1480 G01 X169.1154 Y223.7315
N1490 G02 X169.2752 Y223.7285 I0.0656 J-0.7471
N1500 M05
N1510 G00 X447.2051 Y175.3525
N1520 M03
N1530 G03 X446.0887 Y170.0379 I2.0991 J-3.2155
N1540 G01 X454.6636 Y156.9022
N1550 Y169.6279
N1560 G02 X455.4136 Y170.3779 I0.7500 J0.0000
N1570 G01 X458.0642
N1580 G02 X458.8142 Y169.6279 I0.0000 J-0.7500
N1590 G01 Y149.7484
N1600 G02 X458.0642 Y148.9984 I-0.7500 J0.0000
N1610 G01 X455.2461
N1620 G02 X454.6180 Y149.3384 I0.0000 J0.7500
N1630 G01 X446.0431 Y162.4741
N1640 Y149.7484
N1650 G02 X445.2931 Y148.9984 I-0.7500 J0.0000
N1660 G01 X442.6425
N1670 G02 X441.8925 Y149.7484 I0.0000 J0.7500
N1680 G01 Y169.6279
N1690 G02 X442.6425 Y170.3779 I0.7500 J0.0000
N1700 G01 X445.4607
N1710 G02 X446.0887 Y170.0379 I0.0000 J-0.7500
N1720 M05
N1730 G00 X467.9162 Y175.0250
N1740 M03
N1750 G03 X471.2438 Y170.7334 I3.8096 J-0.4820
N1760 G01 X473.8478 Y170.4040
N1770 G02 X474.0462 Y170.3505 I-0.0941 J-0.7441
N1780 G01 X476.3800 Y169.3622
N1790 G02 X476.5611 Y169.2532 I-0.2925 J-0.6906
N1800 G01 X478.4986 Y167.6759
N1810 G02 X478.6468 Y167.5139 I-0.4735 J-0.5816
N1820 G01 X480.0620 Y165.4175
N1830 G02 X480.1495 Y165.2420 I-0.6216 J-0.4196
N1840 G01 X481.0150 Y162.7281
N1850 G02 X481.0520 Y162.5600 I-0.7091 J-0.2441
N1860 G01 X481.3405 Y159.7303
N1870 G02 X481.3402 Y159.5754 I-0.7461 J-0.0761
N1880 G01 X481.0366 Y156.7062
N1890 G02 X480.9971 Y156.5328 I-0.7458 J0.0789
N1900 G01 X480.0864 Y153.9831
N1910 G02 X479.9949 Y153.8058 I-0.7063 J0.2523
N1920 G01 X478.5277 Y151.7061
N1930 G02 X478.3705 Y151.5415 I-0.6148 J0.4296
N1940 G01 X476.3974 Y150.0220
N1950 G02 X476.2174 Y149.9195 I-0.4576 J0.5942
N1960 G01 X473.9035 Y148.9975
N1970 G02 X473.7178 Y148.9499 I-0.2776 J0.6967
N1980 G01 X471.2284 Y148.6426
N1990 G02 X471.0410 Y148.6431 I-0.0919 J0.7443
N2000 G01 X468.3960 Y148.9826
N2010 G02 X468.1930 Y149.0385 I0.0955 J0.7439
N2020 G01 X465.8455 Y150.0572
N2030 G02 X465.6647 Y150.1684 I0.2986 J0.6880
N2040 G01 X463.7322 Y151.7744
N2050 G02 X463.5874 Y151.9355 I0.4794 J0.5768
N2060 G01 X462.1877 Y154.0371
N2070 G02 X462.1044 Y154.2040 I0.6242 J0.4157
N2080 G01 X461.2545 Y156.6212
N2090 G02 X461.2166 Y156.7873 I0.7075 J0.2488
N2100 G01 X460.9333 Y159.3400
N2110 G02 X460.9305 Y159.4755 I0.7454 J0.0827
N2120 G01 X461.0958 Y161.8201
N2130 G02 X461.1144 Y161.9416 I0.7481 J-0.0527
N2140 G01 X461.6102 Y164.0169
N2150 G02 X461.6577 Y164.1547 I0.7295 J-0.1743
N2160 G01 X462.4839 Y165.9607
N2170 G02 X462.5667 Y166.0997 I0.6820 J-0.3120
N2180 G01 X463.7235 Y167.6364
N2190 G02 X463.8320 Y167.7526 I0.5992 J-0.4511
N2200 G01 X465.2502 Y168.9793
N2210 G02 X465.3824 Y169.0709 I0.4907 J-0.5672
N2220 G01 X466.9930 Y169.9472
N2230 G02 X467.1415 Y170.0084 I0.3584 J-0.6588
N2240 G01 X468.9444 Y170.5341
N2250 G02 X469.0888 Y170.5612 I0.2100 J-0.7200
N2260 G01 X471.0841 Y170.7365
N2270 G02 X471.2438 Y170.7334 I0.0656 J-0.7471
N2280 M05
N2290 G00 X434.5900 Y134.5900
N2300 M03
N2310 G03 X430.7500 Y130.7500 I0.0000 J-3.8400
N2320 G01 X489.2500
N2330 Y189.2500
N2340 X430.7500
N2350 Y130.7500
N2360 M05
N2370 G00 X463.6377 Y219.5319
N2380 M03
N2390 G03 X462.7158 Y220.4539 I-0.9220 J0.0000
N2400 G01 Y202.0743
N2410 X463.8664
N2420 Y208.1918
N2430 G02 X464.0911 Y208.7272 I0.7500 J0.0000
N2440 G01 X467.2895 Y211.8653
N2450 G02 X468.4273 Y211.7628 I0.5253 J-0.5353
N2460 G01 X475.2739 Y202.0743
N2470 X476.8674
N2480 X469.0483 Y212.6906
N2490 G02 X469.1267 Y213.6705 I0.6039 J0.4448
N2500 G01 X476.0351 Y220.4539
N2510 X474.4469
N2520 X465.1466 Y211.1572
N2530 G02 X463.8664 Y211.6877 I-0.5302 J0.5304
N2540 G01 Y220.4539
N2550 X462.7158
N2560 M05
N2570 G00 X452.4609 Y216.5195
N2580 M03
N2590 G03 X449.1332 Y220.8112 I-3.8096 J0.4820
N2600 G01 X447.2914 Y220.6494
N2610 X445.6369 Y220.1669
N2620 X444.1683 Y219.3679
N2630 X442.8717 Y218.2463
N2640 X441.8120 Y216.8386
N2650 X441.0501 Y215.1732
N2660 X440.5857 Y213.2290
N2670 X440.4295 Y211.0138
N2680 X440.6959 Y208.6139
N2690 X441.4862 Y206.3663
N2700 X442.7731 Y204.4340
N2710 X444.5389 Y202.9665
N2720 X446.6905 Y202.0328
N2730 X449.1363 Y201.7188
N2740 X451.4360 Y202.0027
N2750 X453.5630 Y202.8502
N2760 X455.3620 Y204.2356
N2770 X456.7056 Y206.1584
N2780 X457.5523 Y208.5290
N2790 X457.8382 Y211.2316
N2800 X457.5664 Y213.8976
N2810 X456.7613 Y216.2361
N2820 X455.4635 Y218.1586
N2830 X453.6948 Y219.5985
N2840 X451.5546 Y220.5048
N2850 X449.1332 Y220.8112
N2860 M05
N2870 G00 X198.1468 Y205.9716
N2880 M03
N2890 G03 X197.2973 Y211.3353 I-3.1066 J2.2571
N2900 G02 X189.9858 Y255.1134 I18.6044 J25.6068
N2910 G01 X160.0000 Y298.6772
N2920 X130.0142 Y255.1134
N2930 G02 X78.8079 Y217.9099 I-25.9159 J-18.1714
N2940 G01 X28.1101 Y202.8536
N2950 X60.2756 Y160.8734
N2960 G02 X79.8347 Y100.6768 I9.2735 J-30.2627
N2970 G01 X78.4876 Y47.8078
N2980 X128.3528 Y65.4264
N2990 G02 X191.6472 Y65.4264 I31.6472 J-0.5320
N3000 G01 X241.5124 Y47.8078
N3010 X240.1653 Y100.6768
N3020 G02 X259.7244 Y160.8734 I10.2855 J29.9339
N3030 G01 X291.8899 Y202.8536
N3040 X241.1921 Y217.9099
N3050 G02 X197.2973 Y211.3353 I-25.2904 J19.0322
N3060 M05
N3070 G00 X63.8489 Y258.6908
N3080 M03
N3090 G03 X64.7709 Y257.7689 I0.9220 J0.0000
N3100 G01 Y263.8863
N3110 G02 X64.9956 Y264.4217 I0.7500 J0.0000
N3120 G01 X68.1941 Y267.5599
N3130 G02 X69.3318 Y267.4574 I0.5253 J-0.5353
N3140 G01 X76.1785 Y257.7689
N3150 X77.7720
N3160 X69.9528 Y268.3851
N3170 G02 X70.0312 Y269.3650 I0.6039 J0.4448
N3180 G01 X76.9396 Y276.1484
N3190 X75.3514
N3200 X66.0511 Y266.8518
N3210 G02 X64.7709 Y267.3822 I-0.5302 J0.5304
N3220 G01 Y276.1484
N3230 X63.6203
N3240 Y257.7689
N3250 X64.7709
N3260 M05
N3270 G00 X53.3654 Y272.2141
N3280 M03
N3290 G03 X50.0377 Y276.5057 I-3.8096 J0.4820
N3300 G01 X48.1960 Y276.3439
N3310 X46.5414 Y275.8614
N3320 X45.0728 Y275.0624
N3330 X43.7763 Y273.9409
N3340 X42.7166 Y272.5331
N3350 X41.9546 Y270.8677
N3360 X41.4902 Y268.9236
N3370 X41.3341 Y266.7083
N3380 X41.6004 Y264.3084
N3390 X42.3908 Y262.0608
N3400 X43.6777 Y260.1285
N3410 X45.4434 Y258.6610
N3420 X47.5950 Y257.7273
N3430 X50.0408 Y257.4133
N3440 X52.3406 Y257.6972
N3450 X54.4675 Y258.5447
N3460 X56.2666 Y259.9301
N3470 X57.6101 Y261.8529
N3480 X58.4568 Y264.2235
N3490 X58.7428 Y266.9262
N3500 X58.4710 Y269.5922
N3510 X57.6659 Y271.9306
N3520 X56.3681 Y273.8531
N3530 X54.5993 Y275.2930
N3540 X52.4592 Y276.1993
N3550 X50.0377 Y276.5057
N3560 M05
N3570 G00 X5.4100 Y306.1600
N3580 M03
N3590 G03 X9.2500 Y310.0000 I0.0000 J3.8400
N3600 G02 X10.0000 Y310.7500 I0.7500 J0.0000
N3610 G01 X310.0000
N3620 G02 X310.7500 Y310.0000 I0.0000 J-0.7500
N3630 G01 Y10.0000
N3640 G02 X310.0000 Y9.2500 I-0.7500 J0.0000
N3650 G01 X10.0000
N3660 G02 X9.2500 Y10.0000 I0.0000 J0.7500
N3670 G01 Y310.0000
N3680 M05
N3690 G00 X565.9790 Y160.2565
N3700 M03
N3710 G03 X560.5953 Y159.5438 I-2.3355 J-3.0481
N3720 G02 X559.7682 Y159.2867 I-0.5953 J0.4562
N3730 G03 X541.1335 Y101.9348 I-9.3174 J-28.6760
N3740 G02 X541.6515 Y101.2406 I-0.2318 J-0.7133
N3750 G01 X543.0397 Y46.7567
N3760 G02 X542.0401 Y46.0305 I-0.7498 J-0.0191
N3770 G01 X490.6518 Y64.1872
N3780 G02 X490.1517 Y64.8943 I0.2499 J0.7072
N3790 G03 X429.8483 Y64.8943 I-30.1517 J0.0000
N3800 G02 X429.3482 Y64.1872 I-0.7500 J0.0000
N3810 G01 X377.9599 Y46.0305
N3820 G02 X376.9603 Y46.7567 I-0.2499 J0.7072
N3830 G01 X378.3485 Y101.2406
N3840 G02 X378.8665 Y101.9348 I0.7498 J-0.0191
N3850 G03 X360.2318 Y159.2867 I-9.3174 J28.6760
N3860 G02 X359.4047 Y159.5438 I-0.2318 J0.7133
N3870 G01 X326.2568 Y202.8062
N3880 G02 X326.6386 Y203.9813 I0.5953 J0.4562
N3890 G01 X378.8848 Y219.4975
N3900 G02 X379.7051 Y219.2194 I0.2135 J-0.7190
N3910 G03 X428.4915 Y254.6648 I24.3932 J17.7227
N3920 G02 X428.4805 Y255.5309 I0.6068 J0.4408
N3930 G01 X459.3822 Y300.4252
N3940 G02 X460.6178 Y300.4252 I0.6178 J-0.4252
N3950 G01 X491.5195 Y255.5309
N3960 G02 X491.5085 Y254.6648 I-0.6178 J-0.4252
N3970 G03 X540.2949 Y219.2194 I24.3932 J-17.7227
N3980 G02 X541.1152 Y219.4975 I0.6068 J-0.4408
N3990 G01 X593.3614 Y203.9813
N4000 G02 X593.7432 Y202.8062 I-0.2135 J-0.7190
N4010 G01 X560.5953 Y159.5438
N4020 M05
N4030 M05 M30
