( Made using CamBam - http://www.cambam.co.uk )
( skull-mindre_30mmdjup 2/22/2014 6:17:32 PM )
( T6 : 6.0 )
( CUTVIEWER )
( FROM/0,0,5 )
( Select dummy tool to avoid warnings )
( TOOL/MILL,1,0,20.0,0 )
( STOCK/BLOCK,80.0,45.0,30.0,40.0,0.0,30.0 )
G21 G90 G91.1 G64 G40
G0 Z3.0
( T6 : 6.0 )
( Tool Taper coming soon )
( TOOL/MILL,6.0,0.0,0.0,0 )
T6 M6
( front rough )
G17
M3 S1000
G0 X8.3963 Y7.9666
G0 Z0.2
G1 F300.0 Z-0.7
G2 F780.0 X7.908 Y8.7733 I1.6043 J1.5222
G1 X7.5097 Y9.9385
G2 X7.4007 Y10.4449 I2.0926 J0.7154
G3 X7.3207 Y11.0573 I-8.7606 J-0.8317
G3 X7.5864 Y10.3482 I8.3614 J2.7282
G2 X7.9968 Y9.3032 I-18.9331 J-8.0384
G3 X8.884 Y7.5153 I8.2712 J2.9904
G3 X8.8644 Y7.5332 I-5.9372 J-6.4954
G1 X8.5135 Y7.852
G2 X8.3963 Y7.9666 I1.4871 J1.6368
G1 F300.0 X10.6637 Y9.213
G3 F780.0 X11.266 Y8.3088 I5.6043 J3.0806
G1 X11.3501 Y8.2032
G3 X14.2042 Y6.1643 I5.002 J3.9848
G3 X15.2286 Y5.837 I5.4316 J15.2329
G3 X17.3408 Y5.6056 I1.7428 J6.1531
G3 X17.5987 Y5.5986 I0.3024 J6.388
G1 X18.1042 Y5.5951
G3 X20.4022 Y6.0051 I0.0445 J6.395
G3 X22.0295 Y6.687 I-1.6342 J6.1829
G1 X22.1252 Y6.7437
G3 X25.0085 Y10.4728 I-3.2615 J5.501
G3 X25.3953 Y11.4597 I-377.6216 J148.5621
G3 X25.7999 Y14.4365 I-5.9573 J2.3257
G1 X25.7606 Y14.8204
G3 X25.2227 Y16.8114 I-6.362 J-0.651
G3 X25.5547 Y17.6756 I-5.7882 J2.7195
G1 X25.9131 Y18.8581
G3 X26.1829 Y20.9714 I-6.1202 J1.8553
G3 X27.0782 Y21.9104 I-4.1568 J4.86
G1 X27.2478 Y22.1288
G3 X28.233 Y23.9406 I-5.0521 J3.921
G1 X28.958 Y26.0157
G3 X29.0522 Y29.9422 I-6.0373 J2.1093
G1 X28.801 Y30.7897
G3 X27.5107 Y33.1512 I-6.1316 J-1.8173
G3 X23.7987 Y35.6918 I-5.2374 J-3.67
G1 X21.716 Y36.2034
G1 X20.408 Y36.6994
G3 X19.2624 Y37.0158 I-2.2677 J-5.9796
G1 X18.6822 Y37.1192
G3 X16.4379 I-1.1221 J-6.296
G1 X15.8577 Y37.0158
G3 X14.7121 Y36.6994 I1.1221 J-6.296
G1 X13.4041 Y36.2034
G1 X11.3213 Y35.6918
G3 X7.6094 Y33.1512 I1.5255 J-6.2106
G3 X6.3191 Y30.7897 I4.8412 J-4.1787
G1 X6.0679 Y29.9422
G3 X6.1621 Y26.0157 I6.1316 J-1.8173
G1 X6.8871 Y23.9406
G3 X7.8723 Y22.1288 I6.0373 J2.1093
G1 X8.0418 Y21.9104
G3 X8.9372 Y20.9714 I5.0521 J3.921
G3 X9.207 Y18.8581 I6.39 J-0.2581
G1 X9.5654 Y17.6756
G3 X9.8974 Y16.8114 I6.1202 J1.8553
G3 X9.3594 Y14.8205 I5.824 J-2.6419
G1 X9.3201 Y14.4365
G3 X9.7955 Y11.2862 I6.362 J-0.651
G2 X10.2538 Y10.1192 I-21.1423 J-8.9764
G3 X10.6637 Y9.213 I6.0142 J2.1744
G1 F300.0 X12.7627 Y10.3667
G3 F780.0 X13.1394 Y9.8012 I3.5053 J1.9268
G1 X13.2235 Y9.6956
G3 X15.0087 Y8.4203 I3.1286 J2.4923
G3 X15.8813 Y8.1415 I4.6271 J12.9769
G3 X17.3282 Y8.0061 I1.0901 J3.8486
G3 X17.6153 Y7.9937 I0.315 J3.9876
G1 X18.1209 Y7.9902
G3 X19.6316 Y8.2751 I0.0278 J3.9999
G2 X19.7138 Y8.3014 I0.2271 J-0.569
G3 X20.8079 Y8.7473 I-0.9458 J3.8866
G1 X20.9036 Y8.804
G3 X22.7335 Y11.2326 I-2.04 J3.4407
G3 X23.1641 Y12.3308 I-375.3466 J147.8022
G3 X23.4172 Y14.1926 I-3.7261 J1.4547
G1 X23.3779 Y14.5766
G3 X22.3853 Y16.8303 I-3.9792 J-0.4072
G3 X23.2625 Y18.3705 I-2.9508 J2.7005
G1 X23.6209 Y19.5529
G3 X23.6867 Y21.6289 I-3.828 J1.1604
G1 X23.5666 Y22.14
G3 X25.1861 Y23.379 I-1.5404 J3.6915
G1 X25.3556 Y23.5974
G3 X25.9718 Y24.7306 I-3.1599 J2.4525
G1 X26.6968 Y26.8057
G3 X26.7557 Y29.2616 I-3.7762 J1.3193
G1 X26.5046 Y30.1091
G3 X25.6193 Y31.674 I-3.8351 J-1.1366
G1 X25.5824 Y31.7284
G3 X23.2274 Y33.3657 I-3.3091 J-2.2472
G1 X21.003 Y33.9121
G1 X19.5586 Y34.4599
G3 X18.8421 Y34.6577 I-1.4184 J-3.7401
G1 X18.2619 Y34.7611
G3 X16.8582 I-0.7019 J-3.9379
G1 X16.2779 Y34.6577
G3 X15.5614 Y34.4599 I0.7019 J-3.9379
G1 X14.1171 Y33.9121
G1 X11.8927 Y33.3657
G3 X9.5377 Y31.7284 I0.9541 J-3.8845
G1 X9.5008 Y31.674
G3 X8.6155 Y30.1091 I2.9499 J-2.7015
G1 X8.3643 Y29.2616
G3 X8.4233 Y26.8057 I3.8351 J-1.1366
G1 X9.1482 Y24.7306
G3 X9.7645 Y23.5974 I3.7762 J1.3193
G1 X9.934 Y23.3789
G3 X11.5535 Y22.14 I3.1599 J2.4525
G1 X11.4333 Y21.6289
G3 X11.4992 Y19.5529 I3.8938 J-0.9156
G1 X11.8576 Y18.3705
G3 X12.7348 Y16.8303 I3.828 J1.1604
G3 X11.7422 Y14.5766 I2.9866 J-2.6609
G1 X11.7029 Y14.1927
G3 X12.0002 Y12.2222 I3.9792 J-0.4072
G2 X12.5063 Y10.9336 I-23.347 J-9.9124
G3 X12.7627 Y10.3667 I3.7617 J1.36
G0 Z3.0
G0 X12.1719 Y4.4497
G0 Z0.2
G1 F300.0 Z-0.7
G3 F780.0 X12.3962 Y4.3162 I1.2411 J1.8303
G1 X14.1227 Y3.4223
G3 X14.8005 Y3.2008 I1.0168 J1.9638
G1 X15.3665 Y3.113
G3 X16.0067 Y3.1075 I0.339 J2.1853
G1 X16.6784 Y3.1998
G2 X14.5745 Y3.5278 I0.293 J8.7903
G2 X13.3982 Y3.9037 I5.0613 J17.8694
G2 X12.1719 Y4.4497 I2.9539 J8.2843
G0 Z3.0
G0 X22.4182 Y4.186
G0 Z0.2
G1 F300.0 Z-0.7
G3 F780.0 X22.9482 Y4.4497 I-0.7111 J2.094
G2 X22.4182 Y4.186 I-4.1802 J7.7383
G0 Z3.0
G0 X26.3364 Y7.6065
G0 Z0.2
G1 F300.0 Z-0.7
G1 F780.0 X26.6066 Y7.852
G3 X27.2121 Y8.7734 I-1.4871 J1.6368
G1 X27.6104 Y9.9385
G3 X27.7194 Y10.4449 I-2.0926 J0.7154
G2 X27.7993 Y11.0573 I8.7606 J-0.8317
G2 X27.6309 Y10.5869 I-8.3614 J2.7282
G2 X27.28 Y9.691 I-380.244 J148.4479
G2 X26.3364 Y7.6065 I-8.4163 J2.5537
G0 Z3.0
G0 X35.396 Y18.6182
G0 Z0.2
G1 F300.0 Z-0.7
G3 F780.0 X28.4776 Y13.2777 I1.2082 J-8.7167
G2 X28.4605 Y13.2377 I-2.0422 J0.8484
G1 X28.4214 Y13.1484
G3 X28.114 Y12.3426 I8.0587 J-3.5352
G3 X28.1875 Y14.6808 I-8.676 J1.4429
G1 X28.1482 Y15.0648
G3 X27.7931 Y16.7942 I-8.7495 J-0.8953
G3 X27.8515 Y16.9794 I-8.3586 J2.7367
G1 X28.2099 Y18.1618
G3 X28.5538 Y19.937 I-8.417 J2.5515
G3 X28.9742 Y20.4389 I-6.5277 J5.8945
G1 X29.1438 Y20.6573
G3 X30.4987 Y23.149 I-6.9481 J5.3925
G1 X31.2237 Y25.2241
G3 X31.3533 Y30.6242 I-8.303 J2.9009
G1 X31.1021 Y31.4717
G3 X31.0768 Y31.5555 I-8.4326 J-2.4992
G3 X36.1977 Y27.0871 I7.8974 J3.8821
G2 X36.6223 Y26.8942 I-0.6977 J-2.0985
G0 Z3.0
G0 X34.1115 Y22.5748
G0 Z0.2
G1 F300.0 Z-0.7
G1 F780.0 Y22.0484
G3 X33.9127 Y22.0059 I2.4927 J-12.1469
G1 X34.1115 Y22.5748
G1 F300.0 X32.9786 Y22.9706
G1 F780.0 X32.7644 Y22.3574
G2 X31.547 Y19.8948 I-10.5687 J3.6924
G2 X35.3115 Y21.0267 I5.0572 J-9.9932
G1 Y24.8535
G2 X33.8043 Y25.5023 I3.6627 J10.5842
G2 X33.4894 Y24.4325 I-10.8837 J2.6227
G1 X32.9786 Y22.9706
G1 F300.0 X35.0297 Y22.3096
G1 Z-1.4
G2 F780.0 X34.4858 Y20.9386 I-10.6556 J3.4338
G2 X35.2748 Y21.0597 I2.0929 J-11.0027
G1 Y23.1923
G2 X35.0297 Y22.3096 I-10.9007 J2.5511
G0 Z3.0
G0 X30.4648 Y33.0454
G0 Z0.2
G1 F300.0 Z-0.7
G1 F780.0 X30.3628 Y33.3096
G3 X30.0409 Y33.8766 I-2.0631 J-0.7964
G1 X29.8708 Y34.0939
G3 X29.7646 Y34.2195 I-1.7412 J-1.3634
G1 X29.5221 Y34.4858
G2 X30.4648 Y33.0454 I-6.8527 J-5.5133
G1 F300.0 X28.002 Y36.1549
G3 F780.0 X27.6659 Y36.451 I-1.6226 J-1.5026
G1 X27.3797 Y36.6557
G3 X27.3084 Y36.7046 I-1.2865 J-1.7988
G1 X24.9309 Y38.2684
G3 X24.5004 Y38.4883 I-1.2153 J-1.8476
G3 X21.8447 Y39.4863 I-151.5219 J-399.1806
G3 X21.661 Y39.5457 I-0.771 J-2.0727
G1 X20.3925 Y39.8951
G3 X19.9414 Y39.9703 I-0.5873 J-2.1321
G1 X17.6963 Y40.1089
G3 X17.4238 I-0.1363 J-2.2073
G1 X15.1786 Y39.9703
G3 X14.7276 Y39.8951 I0.1363 J-2.2073
G1 X13.4591 Y39.5457
G3 X13.2754 Y39.4863 I0.5873 J-2.1321
G3 X10.6196 Y38.4883 I148.9685 J-400.4509
G3 X10.1891 Y38.2684 I0.7848 J-2.0675
G1 X7.8116 Y36.7046
G3 X7.7404 Y36.6557 I1.2153 J-1.8476
G1 X7.4542 Y36.451
G3 X7.1181 Y36.1549 I1.2865 J-1.7988
G2 X10.7489 Y38.0225 I5.7287 J-6.6737
G1 X12.6897 Y38.4992
G1 X13.8611 Y38.9435
G2 X15.4365 Y39.3785 I3.1187 J-8.2237
G1 X16.0168 Y39.4819
G2 X19.1033 I1.5433 J-8.6587
G1 X19.6835 Y39.3785
G2 X21.259 Y38.9435 I-1.5433 J-8.6587
G1 X22.4304 Y38.4992
G1 X24.3712 Y38.0225
G2 X28.002 Y36.1549 I-2.0979 J-8.5413
G0 Z3.0
G0 X5.598 Y34.4858
G0 Z0.2
G1 F300.0 Z-0.7
G1 F780.0 X5.3555 Y34.2195
G3 X5.2493 Y34.0939 I1.635 J-1.489
G1 X5.0792 Y33.8766
G3 X4.7573 Y33.3096 I1.7412 J-1.3634
G1 X4.6553 Y33.0454
G2 X5.598 Y34.4858 I7.7953 J-4.0729
G0 Z3.0
G0 X-1.2397 Y23.834
G0 Z0.2
G1 F300.0 Z-0.7
G3 F780.0 X0.4154 Y24.281 I-2.3973 J12.166
G3 X0.4978 Y24.0367 I11.7841 J3.844
G1 X1.2228 Y21.9616
G3 X1.2264 Y21.9514 I11.7016 J4.0882
G3 X-1.0049 Y22.2377 I-2.6873 J-12.1053
G1 F300.0 X-1.3541 Y25.0352
G3 F780.0 X1.2254 Y25.9107 I-2.2829 J10.9649
G3 X1.6307 Y24.4325 I10.974 J2.2143
G1 X2.3557 Y22.3574
G3 X3.6168 Y19.8289 I10.5687 J3.6924
G3 X-0.8123 Y21.0273 I-5.0777 J-9.9828
G0 Z3.0
G0 X-1.5466 Y27.452
G0 Z0.2
G1 F300.0 Z-0.7
G3 F780.0 X4.1729 Y31.9448 I-2.0904 J8.5481
G3 X4.018 Y31.4717 I8.2777 J-2.9723
G1 X3.7668 Y30.6242
G3 X3.8964 Y25.2241 I8.4326 J-2.4992
G1 X4.6214 Y23.149
G3 X5.9763 Y20.6573 I8.303 J2.9009
G1 X6.1459 Y20.4389
G3 X6.5663 Y19.937 I6.9481 J5.3925
G3 X6.9102 Y18.1618 I8.7609 J0.7764
G1 X7.2686 Y16.9794
G3 X7.327 Y16.7942 I8.417 J2.5515
G3 X6.9719 Y15.0648 I8.3944 J-2.6247
G1 X6.9326 Y14.6808
G3 X7.0061 Y12.3425 I8.7495 J-0.8954
G3 X6.6987 Y13.1485 I-8.366 J-2.7293
G1 X6.6596 Y13.2377
G2 X6.6471 Y13.2665 I2.0252 J0.8884
G3 X-0.2638 Y18.5643 I-8.1081 J-3.4205
G0 Z3.0
G0 X-1.3147 Y25.0015
G0 Z-0.5
G1 F300.0 Z-1.4
G3 F780.0 X-0.4371 Y25.2228 I-2.2972 J10.9619
G3 X0.66 Y20.8848 I11.1831 J0.5206
G3 X-0.7824 Y21.0636 I-2.0965 J-11.002
G0 Z3.0
G0 X-1.2974 Y30.0431
G0 Z0.2
G1 F300.0 Z-0.7
G3 F780.0 X2.3336 Y33.6953 I-2.3396 J5.957
G1 X2.5183 Y34.174
G2 X3.1895 Y35.3562 I4.3021 J-1.6607
G1 X3.3596 Y35.5735
G2 X3.581 Y35.8355 I3.6309 J-2.843
G1 X5.3312 Y37.7573
G2 X6.058 Y38.4031 I3.4095 J-3.105
G1 X6.3442 Y38.6078
G2 X6.4928 Y38.7097 I2.6827 J-3.7508
G1 X8.8703 Y40.2736
G2 X9.7679 Y40.7321 I2.5342 J-3.8527
G2 X12.4386 Y41.7357 I152.476 J-401.6967
G2 X12.8217 Y41.8595 I1.6078 J-4.3221
G1 X14.0902 Y42.2089
G2 X15.0308 Y42.3658 I1.2247 J-4.4459
G1 X17.2759 Y42.5044
G2 X17.8442 I0.2841 J-4.6027
G1 X20.0893 Y42.3658
G2 X21.0298 Y42.2089 I-0.2841 J-4.6027
G1 X22.2983 Y41.8595
G2 X22.6815 Y41.7357 I-1.2247 J-4.4459
G2 X25.3521 Y40.7321 I-149.7029 J-402.4279
G2 X26.2498 Y40.2736 I-1.6365 J-4.3113
G1 X28.6273 Y38.7097
G2 X28.7758 Y38.6078 I-2.5342 J-3.8527
G1 X29.0621 Y38.4031
G2 X29.7888 Y37.7573 I-2.6827 J-3.7508
G1 X31.539 Y35.8355
G2 X31.7604 Y35.5735 I-3.4095 J-3.105
G1 X31.9305 Y35.3562
G2 X32.6017 Y34.174 I-3.6309 J-2.843
G1 X33.0036 Y33.1328
G3 X36.5277 Y29.5237 I5.9706 J2.3048
G0 Z3.0
G0 X34.2051 Y15.8349
G0 Z0.2
G1 F300.0 Z-0.7
G3 F780.0 X30.6939 Y12.3569 I2.3991 J-5.9333
G2 X30.6583 Y12.2735 I-4.2586 J1.7692
G1 X30.6192 Y12.1843
G3 X30.1087 Y10.2181 I5.8608 J-2.5711
G2 X29.8813 Y9.1621 I-4.5908 J0.4358
G1 X29.483 Y7.997
G2 X28.2205 Y6.0756 I-4.3635 J1.4918
G1 X27.8696 Y5.7568
G3 X27.2212 Y5.0742 I4.3036 J-4.7369
G1 X26.5468 Y4.2504
G2 X25.6263 Y3.396 I-3.5681 J2.9213
G1 X24.3547 Y2.5044
G2 X22.8831 Y1.821 I-2.6477 J3.7757
G1 X21.3878 Y1.4267
G3 X21.2368 Y1.3848 I1.6322 J-6.1884
G1 X20.506 Y1.1728
G2 X19.3555 Y0.9922 I-1.2849 J4.4288
G1 X18.2865 Y0.961
G3 X17.6013 Y0.9041 I0.1864 J-6.3973
G1 X16.3336 Y0.7298
G2 X14.9986 Y0.7413 I-0.628 J4.5685
G1 X14.4326 Y0.8291
G2 X13.0192 Y1.291 I0.7069 J4.557
G1 X11.2927 Y2.1849
G2 X10.7654 Y2.5043 I2.1203 J4.0951
G1 X9.4938 Y3.396
G2 X8.5733 Y4.2504 I2.6476 J3.7757
G1 X7.8989 Y5.0742
G3 X7.2505 Y5.7568 I-4.952 J-4.0543
G1 X6.8996 Y6.0756
G2 X5.6371 Y7.9969 I3.101 J3.4132
G1 X5.2387 Y9.162
G2 X5.0114 Y10.2181 I4.3635 J1.4918
G3 X4.5009 Y12.1843 I-6.3714 J-0.6049
G1 X4.4617 Y12.2735
G2 X4.4359 Y12.3337 I4.223 J1.8526
G3 X0.9336 Y15.7813 I-5.8968 J-2.4876
G0 Z3.0
G0 X10.147 Y18.7118
G0 Z-0.5
G1 F300.0 Z-1.4
G3 F780.0 X10.84 Y17.4197 I3.8118 J1.2124
G1 X11.2828 Y16.8684
G3 X10.9972 Y16.1635 I3.5478 J-1.8475
G1 X10.7645 Y15.3826
G3 X10.7021 Y15.1473 I3.8333 J-1.1426
G3 X10.9508 Y12.3405 I3.8534 J-1.073
G3 X11.0257 Y11.8174 I486.2103 J69.3979
G3 X11.477 Y10.4648 I3.9593 J0.5695
G3 X11.882 Y9.819 I5.6846 J3.1146
G3 X12.4262 Y9.201 I3.2581 J2.3205
G3 X13.0821 Y7.7971 I3.8833 J0.9591
G3 X14.3156 Y3.7476 I3.8636 J-1.0358
G1 X14.93 Y3.2114
G3 X20.1901 I2.6301 J3.0138
G1 X20.8045 Y3.7476
G3 X22.0644 Y7.6933 I-2.6301 J3.0137
G3 X22.9342 Y9.4422 I-3.0382 J2.6018
G1 X23.07 Y9.5873
G3 X24.1487 Y12.1999 I-2.9195 J2.7344
G2 X24.1684 Y12.3387 I2083.1423 J-296.2202
G3 X24.417 Y15.1511 I-3.6038 J1.7356
G3 X24.1063 Y16.2187 I-50.3766 J-14.0808
G3 X23.7059 Y17.1213 I-3.8286 J-1.1584
G1 X24.264 Y18.0519
G3 X24.6642 Y21.2605 I-3.4304 J2.0572
G3 X27.1093 Y22.7436 I-0.7149 J3.9356
G1 X27.5341 Y23.2909
G3 X28.3541 Y26.1434 I-3.1599 J2.4525
G3 X28.2078 Y27.2114 I-14.9257 J-1.5003
G3 X28.102 Y27.6632 I-3.9409 J-0.6848
G1 X27.3897 Y30.0663
G3 X26.1311 Y31.9893 I-3.8351 J-1.1366
G1 X26.0961 Y32.0189
G3 X26.066 Y32.0638 I-3.3392 J-2.2022
G1 X25.3366 Y33.1379
G3 X22.9816 Y34.7752 I-3.3091 J-2.2472
G1 X21.9376 Y35.0317
G1 X19.8523 Y35.8225
G3 X18.9477 Y36.0493 I-1.4184 J-3.7401
G1 X18.4055 Y36.1195
G3 X16.7146 I-0.8455 J-3.9096
G1 X16.1724 Y36.0493
G3 X15.2678 Y35.8225 I0.5138 J-3.9669
G1 X13.1825 Y35.0317
G1 X12.1384 Y34.7752
G3 X9.7835 Y33.1379 I0.9541 J-3.8845
G1 X9.0541 Y32.0638
G3 X9.024 Y32.0189 I3.3091 J-2.2472
G1 X8.9889 Y31.9893
G3 X7.7303 Y30.0663 I2.5765 J-3.0597
G1 X7.0181 Y27.6632
G3 X6.9123 Y27.2114 I3.8351 J-1.1366
G3 X6.766 Y26.1434 I14.7795 J-2.5683
G3 X7.586 Y23.2909 I3.9799 J-0.4001
G1 X8.0108 Y22.7436
G3 X10.2079 Y21.3137 I3.1599 J2.4525
G3 X10.147 Y18.7118 I3.7509 J-1.3894
G0 Z3.0
G0 X-1.5072 Y27.4188
G0 Z-0.5
G1 F300.0 Z-1.4
G3 F780.0 X2.6418 Y29.7721 I-2.1047 J8.5446
G1 X2.4206 Y29.0258
G3 X2.1879 Y28.0324 I8.4326 J-2.4992
G3 X1.9948 Y26.623 I19.5039 J-3.3893
G3 X3.7979 Y20.3508 I8.7511 J-0.8797
G1 X4.2226 Y19.8036
G3 X5.2504 Y18.6918 I6.9481 J5.3925
G3 X6.0107 Y16.1583 I8.7084 J1.2325
G3 X5.7984 Y14.8923 I8.5447 J-2.084
G3 X-0.2344 Y18.6002 I-7.2349 J-5.0096
G0 Z3.0
G0 X-1.2752 Y24.9679
G0 Z-1.2
G1 F300.0 Z-2.1
G3 F780.0 X-1.0837 Y25.01 I-2.3115 J10.9589
G3 X-1.0699 Y24.6793 I11.1911 J0.3018
G1 X-1.0326 Y24.0211
G3 X-0.4646 Y21.0793 I11.1773 J0.6325
G3 X-0.7525 Y21.1 I-0.9475 J-11.1598
G0 Z3.0
G0 X35.3658 Y18.6519
G0 Z-0.5
G1 F300.0 Z-1.4
G3 F780.0 X29.3199 Y14.9108 I1.2129 J-8.716
G3 X29.0352 Y16.442 I-8.7553 J-0.8365
G3 X28.9538 Y16.7302 I-54.9948 J-15.3716
G3 X29.4471 Y18.3309 I-8.1203 J3.3789
G3 X30.8975 Y19.8036 I-5.4977 J6.8652
G1 X31.3222 Y20.3508
G3 X33.1252 Y26.623 I-6.9481 J5.3925
G3 X32.9322 Y28.0324 I-19.6968 J-1.9799
G3 X32.6995 Y29.0258 I-8.6653 J-1.5058
G1 X32.6212 Y29.2899
G3 X36.1829 Y27.0534 I6.325 J6.1184
G2 X36.5839 Y26.8741 I-0.6829 J-2.0648
G0 Z3.0
G0 X34.1779 Y15.8685
G0 Z-0.5
G1 F300.0 Z-1.4
G3 F780.0 X30.6636 Y12.3794 I2.4008 J-5.9326
G2 X30.6247 Y12.2883 I-4.2282 J1.7467
G1 X30.5832 Y12.1936
G3 X30.0724 Y10.224 I5.8608 J-2.5711
G2 X29.8466 Y9.1739 I-4.5545 J0.4299
G1 X29.4483 Y8.0088
G2 X28.1958 Y6.1028 I-4.3288 J1.48
G1 X27.8429 Y5.7821
G3 X27.1945 Y5.0995 I4.3036 J-4.7369
G1 X26.5184 Y4.2736
G2 X25.6052 Y3.4261 I-3.5398 J2.8981
G1 X24.3336 Y2.5344
G2 X22.8737 Y1.8565 I-2.6266 J3.7456
G1 X22.0234 Y1.6322
G1 X22.3794 Y1.943
G3 X24.5611 Y7.0916 I-4.205 J4.8184
G3 X25.0879 Y8.257 I-5.535 J3.2035
G3 X26.5195 Y11.7423 I-4.9373 J4.0647
G3 X26.7237 Y15.7959 I-5.9548 J2.332
G3 X26.3988 Y16.9124 I-52.6834 J-14.7256
G3 X26.3897 Y16.9425 I-6.1211 J-1.8521
G3 X27.2155 Y19.6978 I-5.5561 J3.1667
G3 X29.0015 Y21.2751 I-3.2661 J5.4983
G1 X29.4263 Y21.8223
G3 X30.7373 Y26.383 I-5.0521 J3.921
G3 X30.5676 Y27.6215 I-17.3089 J-1.7399
G3 X30.3984 Y28.3438 I-6.3008 J-1.0949
G1 X29.6862 Y30.7469
G3 X27.9088 Y33.6137 I-6.1316 J-1.8173
G1 X27.3181 Y34.4835
G3 X23.553 Y37.1013 I-5.2905 J-3.5929
G1 X22.6505 Y37.3229
G1 X20.7016 Y38.0621
G3 X19.2554 Y38.4246 I-2.2677 J-5.9796
G1 X18.8015 Y38.4834
G3 X16.3186 I-1.2415 J-6.2735
G1 X15.8647 Y38.4246
G3 X14.4185 Y38.0621 I0.8215 J-6.3422
G1 X12.4695 Y37.3229
G1 X11.5671 Y37.1013
G3 X7.802 Y34.4835 I1.5255 J-6.2106
G1 X7.2113 Y33.6137
G3 X5.4339 Y30.7469 I4.3542 J-4.684
G1 X4.7217 Y28.3438
G3 X4.5524 Y27.6215 I6.1316 J-1.8173
G3 X4.3828 Y26.383 I17.1393 J-2.9784
G3 X5.6938 Y21.8223 I6.3631 J-0.6396
G1 X6.1186 Y21.2751
G3 X7.5637 Y19.9152 I5.0521 J3.921
G3 X8.5853 Y16.4568 I6.3952 J0.0091
G1 X8.4691 Y16.0668
G3 X8.3811 Y15.7404 I6.1287 J-1.8268
G3 X8.6259 Y11.6789 I6.1744 J-1.6661
G3 X8.6549 Y11.4764 I488.5353 J70.0595
G3 X9.3764 Y9.3139 I6.3301 J0.9105
G3 X9.931 Y8.4295 I7.7852 J4.2655
G3 X10.3084 Y7.9498 I5.209 J3.7101
G3 X10.5756 Y7.328 I6.0011 J2.2103
G3 X12.7407 Y1.9429 I6.37 J-0.5667
G1 X13.3551 Y1.4068
G3 X13.8961 Y0.9835 I4.205 J4.8184
G2 X13.0361 Y1.3236 I1.2434 J4.4026
G1 X11.3096 Y2.2175
G2 X10.7865 Y2.5344 I2.1034 J4.0625
G1 X9.5149 Y3.4261
G2 X8.6017 Y4.2736 I2.6266 J3.7456
G1 X7.9255 Y5.0995
G3 X7.2772 Y5.7821 I-4.952 J-4.0543
G1 X6.9243 Y6.1028
G2 X5.6718 Y8.0088 I3.0763 J3.386
G1 X5.2734 Y9.1739
G2 X5.0477 Y10.224 I4.3288 J1.48
G3 X4.5368 Y12.1936 I-6.3717 J-0.6014
G1 X4.4953 Y12.2882
G2 X4.4657 Y12.3573 I4.1894 J1.8379
G3 X0.9599 Y15.8171 I-5.9023 J-2.4745
G0 Z3.0
G0 X7.5776 Y18.1074
G0 Z-1.2
G1 F300.0 Z-2.1
G3 F780.0 X9.7104 Y15.7705 I3.78 J1.3082
G1 X10.011 Y15.6347
G3 X9.986 Y15.5119 I3.9065 J-0.8599
G2 X9.8812 Y15.044 I-6.7105 J1.2582
G3 X10.1352 Y12.3227 I3.8701 J-1.0113
G3 X10.4677 Y11.3175 I42.8446 J13.6136
G3 X10.6495 Y10.8762 I3.7826 J1.3007
G3 X10.6441 Y9.328 I3.9216 J-0.7879
G1 X10.6935 Y9.0729
G3 X10.9283 Y8.2947 I3.9271 J0.7604
G3 X11.155 Y7.7684 I22.1466 J9.2283
G3 X11.5998 Y4.8677 I3.9006 J-0.8862
G1 X12.2316 Y3.784
G3 X13.6314 Y2.3672 I3.4558 J2.0144
G1 X14.3136 Y1.9584
G3 X16.9143 Y1.4269 I2.056 J3.4312
G1 X17.8916 Y1.5612
G1 X18.7323 Y1.5857
G3 X20.5632 Y2.0901 I-0.1165 J3.9983
G1 X21.2708 Y2.4845
G3 X22.3942 Y3.4153 I-1.9475 J3.4939
G3 X23.1791 Y4.3723 I-55.1551 J46.0345
G3 X23.9651 Y7.7684 I-3.1146 J2.5098
G3 X24.1918 Y8.2947 I-21.922 J9.7557
G3 X24.4266 Y9.0729 I-3.6923 J1.5386
G1 X24.476 Y9.328
G3 X24.4706 Y10.8762 I-3.9271 J0.7604
G3 X24.766 Y11.7127 I-3.6008 J1.7419
G3 X24.9217 Y12.1258 I-3.6592 J1.6157
G1 X24.9816 Y12.3158
G3 X25.3081 Y14.7271 I-3.6128 J1.717
G3 X25.019 Y15.9743 I-11.8227 J-2.0839
G1 X24.9262 Y16.4442
G3 X27.0187 Y18.804 I-1.7043 J3.6188
G1 X27.0898 Y19.0185
G3 X27.1595 Y21.3025 I-3.7967 J1.2589
G3 X28.969 Y24.4276 I-2.1841 J3.3511
G1 X29.0062 Y25.0858
G3 X28.9846 Y25.7844 I-3.9936 J0.226
G1 X28.8826 Y26.6419
G3 X28.863 Y26.7843 I-3.972 J-0.4727
G1 X28.493 Y29.1619
G3 X28.3757 Y29.6835 I-3.9524 J-0.6151
G1 X28.2749 Y30.0235
G3 X27.0163 Y31.9465 I-3.8351 J-1.1366
G1 X26.5804 Y32.3136
G3 X26.3604 Y32.6779 I-3.5291 J-1.8829
G1 X25.0908 Y34.5474
G3 X22.8993 Y36.1409 I-3.3091 J-2.2472
G3 X22.0143 Y36.3603 I-1.3988 J-3.7474
G1 X18.9489 Y36.7573
G1 X18.4263 Y36.8733
G3 X16.6938 I-0.8662 J-3.9051
G1 X16.1711 Y36.7573
G1 X13.1058 Y36.3603
G3 X12.2208 Y36.1409 I0.5138 J-3.9669
G3 X10.0293 Y34.5474 I1.1176 J-3.8407
G1 X8.7597 Y32.6779
G3 X8.5397 Y32.3136 I3.3091 J-2.2472
G1 X8.1037 Y31.9465
G3 X6.8452 Y30.0235 I2.5765 J-3.0597
G1 X6.7444 Y29.6835
G3 X6.6271 Y29.1619 I3.8351 J-1.1366
G1 X6.257 Y26.7843
G3 X6.2375 Y26.6419 I3.9524 J-0.6151
G1 X6.1355 Y25.7844
G3 X6.1138 Y25.0858 I3.972 J-0.4727
G1 X6.1511 Y24.4276
G3 X7.6736 Y21.5082 I3.9936 J0.226
G3 X7.3445 Y19.7957 I3.6691 J-1.593
G1 X7.3594 Y19.2961
G3 X7.5776 Y18.1074 I3.9982 J0.1195
G0 Z3.0
G0 X-1.2673 Y30.0083
G0 Z-0.5
G1 F300.0 Z-1.4
G3 F780.0 X2.3587 Y33.6586 I-2.3446 J5.9551
G1 X2.5526 Y34.1607
G2 X3.2184 Y35.3336 I4.2678 J-1.6475
G1 X3.3885 Y35.5508
G2 X3.6082 Y35.8108 I3.602 J-2.8204
G1 X5.3584 Y37.7326
G2 X6.0794 Y38.3733 I3.3823 J-3.0803
G1 X6.3656 Y38.578
G2 X6.5129 Y38.6791 I2.6613 J-3.721
G1 X8.8904 Y40.2429
G2 X9.781 Y40.6978 I2.514 J-3.8221
G2 X12.4514 Y41.7013 I152.4629 J-401.6624
G2 X12.8315 Y41.8241 I1.595 J-4.2877
G1 X14.1 Y42.1736
G2 X15.033 Y42.3291 I1.2149 J-4.4105
G1 X17.2782 Y42.4677
G2 X17.8419 I0.2819 J-4.5661
G1 X20.087 Y42.3291
G2 X21.0201 Y42.1736 I-0.2819 J-4.5661
G1 X22.2886 Y41.8241
G2 X22.6687 Y41.7014 I-1.2149 J-4.4105
G2 X25.3391 Y40.6978 I-149.6901 J-402.3936
G2 X26.2297 Y40.2429 I-1.6235 J-4.277
G1 X28.6072 Y38.6791
G2 X28.7545 Y38.578 I-2.514 J-3.8221
G1 X29.0407 Y38.3733
G2 X29.7617 Y37.7326 I-2.6613 J-3.721
G1 X31.5119 Y35.8108
G2 X31.7315 Y35.5508 I-3.3823 J-3.0803
G1 X31.9017 Y35.3336
G2 X32.5675 Y34.1607 I-3.602 J-2.8203
G1 X32.9756 Y33.1035
G3 X36.4961 Y29.4958 I5.9706 J2.3048
G0 Z3.0
G0 X35.3355 Y18.6856
G0 Z-1.2
G1 F300.0 Z-2.1
G3 F780.0 X31.5388 Y17.2018 I1.2177 J-8.7153
G3 X31.5702 Y17.2948 I-8.3168 J2.8611
G1 X31.6413 Y17.5092
G3 X32.0467 Y19.4237 I-8.3482 J2.7682
G3 X33.7565 Y24.1567 I-7.0714 J5.2299
G1 X33.7938 Y24.8149
G3 X33.7462 Y26.3511 I-8.7812 J0.4969
G1 X33.6442 Y27.2085
G3 X33.6012 Y27.5216 I-8.7336 J-1.0393
G1 X33.4516 Y28.4828
G3 X36.1682 Y27.0196 I5.4666 J6.8961
G2 X36.5455 Y26.8537 I-0.6682 J-2.031
G0 Z3.0
G0 X-1.4678 Y27.3856
G0 Z-1.2
G1 F300.0 Z-2.1
G3 F780.0 X1.7364 Y28.9192 I-2.1189 J8.5411
G1 X1.5189 Y27.5216
G3 X1.4759 Y27.2085 I8.6906 J-1.3524
G1 X1.3739 Y26.3511
G3 X1.3263 Y24.8148 I8.7336 J-1.0393
G1 X1.3635 Y24.1567
G3 X2.5526 Y20.2134 I8.7812 J0.4969
G3 X2.5514 Y19.6525 I8.7901 J-0.2982
G1 X2.5664 Y19.1529
G3 X2.7352 Y17.6809 I8.7913 J0.2627
G3 X-0.2048 Y18.6362 I-4.1473 J-7.7614
G0 Z3.0
G0 X-1.2371 Y29.9736
G0 Z-1.2
G1 F300.0 Z-2.1
G3 F780.0 X2.3839 Y33.6219 I-2.3496 J5.9531
G1 X2.5868 Y34.1475
G2 X3.2473 Y35.311 I4.2336 J-1.6343
G1 X3.4174 Y35.5282
G2 X3.6353 Y35.7861 I3.5731 J-2.7977
G1 X5.3855 Y37.7079
G2 X6.1007 Y38.3434 I3.3552 J-3.0556
G1 X6.3869 Y38.5482
G2 X6.5331 Y38.6484 I2.64 J-3.6912
G1 X8.9106 Y40.2123
G2 X9.794 Y40.6635 I2.4939 J-3.7914
G2 X12.4642 Y41.667 I152.4499 J-401.6281
G2 X12.8412 Y41.7888 I1.5822 J-4.2533
G1 X14.1097 Y42.1382
G2 X15.0353 Y42.2925 I1.2052 J-4.3751
G1 X17.2804 Y42.4311
G2 X17.8397 I0.2796 J-4.5295
G1 X20.0848 Y42.2925
G2 X21.0104 Y42.1382 I-0.2796 J-4.5295
G1 X22.2788 Y41.7888
G2 X22.6559 Y41.667 I-1.2052 J-4.3751
G2 X25.3261 Y40.6635 I-149.6773 J-402.3592
G2 X26.2095 Y40.2123 I-1.6105 J-4.2427
G1 X28.587 Y38.6484
G2 X28.7331 Y38.5482 I-2.4939 J-3.7914
G1 X29.0194 Y38.3434
G2 X29.7346 Y37.7079 I-2.64 J-3.6912
G1 X31.4848 Y35.7861
G2 X31.7027 Y35.5282 I-3.3552 J-3.0556
G1 X31.8728 Y35.311
G2 X32.5333 Y34.1475 I-3.5731 J-2.7977
G1 X32.9477 Y33.0741
G3 X36.4645 Y29.4679 I5.9706 J2.3048
G0 Z3.0
G0 X34.1507 Y15.9022
G0 Z-1.2
G1 F300.0 Z-2.1
G3 F780.0 X30.6331 Y12.4019 I2.4025 J-5.932
G2 X30.5911 Y12.303 I-4.1978 J1.7242
G1 X30.5472 Y12.2029
G3 X30.0361 Y10.2299 I5.8608 J-2.5711
G2 X29.8119 Y9.1858 I-4.5182 J0.424
G1 X29.4136 Y8.0207
G2 X28.1711 Y6.1299 I-4.2941 J1.4681
G1 X27.8162 Y5.8075
G3 X27.1679 Y5.1248 I4.3036 J-4.7369
G1 X26.49 Y4.2969
G2 X25.5841 Y3.4561 I-3.5114 J2.8748
G1 X25.363 Y3.3011
G3 X26.4344 Y7.4507 I-5.2985 J3.5811
G3 X26.7781 Y8.6175 I-5.9348 J2.3826
G1 X26.8275 Y8.8726
G3 X26.9264 Y10.5648 I-6.2786 J1.2158
G3 X27.0443 Y10.9525 I-6.0566 J2.0534
G3 X27.2061 Y11.4056 I-5.9375 J2.3759
G1 X27.222 Y11.456
G3 X27.667 Y15.1429 I-5.8531 J2.5767
G3 X27.616 Y15.4164 I-14.1815 J-2.4997
G3 X29.2922 Y18.0502 I-4.3941 J4.6466
G1 X29.3633 Y18.2646
G3 X29.6881 Y20.3305 I-6.0702 J2.0128
G3 X31.3604 Y24.2923 I-4.7127 J4.3231
G1 X31.3976 Y24.9504
G3 X31.363 Y26.0675 I-6.385 J0.3613
G1 X31.261 Y26.9249
G3 X31.2297 Y27.1526 I-6.3504 J-0.7557
G1 X30.8597 Y29.5302
G3 X30.6722 Y30.3641 I-6.3191 J-0.9834
G1 X30.5714 Y30.7041
G3 X28.5591 Y33.7787 I-6.1316 J-1.8173
G1 X28.4339 Y33.8841
G3 X28.3419 Y34.0235 I-5.3826 J-3.4535
G1 X27.0723 Y35.893
G3 X23.6536 Y38.4153 I-5.2905 J-3.5929
G3 X22.322 Y38.7356 I-2.1531 J-6.0219
G1 X19.3629 Y39.1189
G1 X18.945 Y39.2116
G3 X16.1751 I-1.3849 J-6.2434
G1 X15.7571 Y39.1189
G1 X12.7981 Y38.7356
G3 X11.4665 Y38.4153 I0.8215 J-6.3422
G3 X8.0478 Y35.893 I1.8718 J-6.1151
G1 X6.7782 Y34.0235
G3 X6.6862 Y33.8841 I5.2905 J-3.5929
G1 X6.5609 Y33.7787
G3 X4.5487 Y30.7041 I4.1193 J-4.8918
G1 X4.4479 Y30.3641
G3 X4.2603 Y29.5302 I6.1316 J-1.8173
G1 X3.8903 Y27.1526
G3 X3.8591 Y26.9249 I6.3191 J-0.9834
G1 X3.757 Y26.0675
G3 X3.7225 Y24.9504 I6.3504 J-0.7557
G1 X3.7597 Y24.2923
G3 X5.0141 Y20.8358 I6.385 J0.3613
G3 X4.9504 Y19.7242 I6.3286 J-0.9206
G1 X4.9653 Y19.2246
G3 X7.3676 Y14.4178 I6.3923 J0.191
G3 X7.8962 Y11.4602 I6.3836 J-0.385
G3 X8.1937 Y10.5646 I45.0835 J14.4761
G3 X8.2926 Y8.8726 I6.3774 J-0.4763
G1 X8.342 Y8.6175
G3 X8.6857 Y7.4507 I6.2786 J1.2158
G3 X9.5305 Y3.6615 I6.3699 J-0.5686
G1 X9.7293 Y3.3205
G1 X9.536 Y3.4561
G2 X8.6301 Y4.2969 I2.6055 J3.7156
G1 X7.9522 Y5.1248
G3 X7.3038 Y5.8075 I-4.952 J-4.0543
G1 X6.9489 Y6.1299
G2 X5.7065 Y8.0207 I3.0516 J3.3589
G1 X5.3082 Y9.1858
G2 X5.084 Y10.2298 I4.2941 J1.4681
G3 X4.5728 Y12.2029 I-6.372 J-0.598
G1 X4.5289 Y12.303
G2 X4.4957 Y12.3808 I4.1558 J1.8231
G3 X0.9863 Y15.853 I-5.9078 J-2.4614
G0 Z3.0
G0 X6.5323 Y17.7288
G0 Z-1.9
G1 F300.0 Z-2.8
G3 F780.0 X8.6743 Y15.3652 I3.7891 J1.2816
G1 X9.4036 Y15.0356
G3 X9.3349 Y14.6198 I66.2553 J-11.1604
G3 X9.5453 Y12.5566 I3.9485 J-0.6397
G1 X9.7349 Y12.0587
G3 X10.0005 Y11.4969 I3.7381 J1.4235
G3 X9.8486 Y10.0888 I3.8381 J-1.1264
G2 X9.9183 Y9.1006 I-12771.2557 J-901.9302
G3 X10.0529 Y8.3166 I3.9901 J0.2815
G1 X10.0531 Y8.2628
G3 X10.0671 Y7.9382 I4.0 J0.0099
G1 X10.1382 Y7.0904
G3 X11.0112 Y4.9132 I3.986 J0.3345
G1 X11.2128 Y4.6633
G1 X12.1107 Y3.218
G3 X14.8952 Y1.3762 I3.3977 J2.1109
G1 X15.0924 Y1.3456
G3 X16.2503 Y1.3356 I0.6132 J3.9527
G1 X17.8916 Y1.5612
G1 X19.3377 Y1.6034
G3 X20.3357 Y1.7601 I-0.1165 J3.9983
G1 X20.6509 Y1.8515
G3 X22.6094 Y3.1326 I-1.1145 J3.8416
G3 X23.6734 Y4.4304 I-81.2915 J67.7329
G1 X23.9251 Y4.7011
G3 X24.9819 Y7.0904 I-2.9293 J2.7239
G1 X25.053 Y7.9382
G3 X25.067 Y8.2628 I-3.986 J0.3345
G1 X25.0671 Y8.3166
G3 X25.2017 Y9.1004 I-3.8555 J1.0655
G1 X25.2715 Y10.0889
G3 X25.1323 Y11.4526 I-3.9901 J0.2816
G3 X25.1221 Y11.5013 I-18.1936 J-3.7831
G3 X25.2101 Y11.6644 I-3.4751 J1.9808
G3 X25.7063 Y12.9675 I-5.7665 J2.9419
G3 X25.7954 Y14.553 I-3.8697 J1.0126
G3 X25.6797 Y15.2631 I-20.0503 J-2.9016
G1 X26.3395 Y15.5717
G3 X28.4412 Y17.9359 I-1.6949 J3.6231
G1 X28.9949 Y19.6055
G3 X29.1908 Y20.6225 I-3.7967 J1.2589
G2 X29.2005 Y20.7761 I35.0173 J-2.1224
G3 X29.0291 Y22.2214 I-3.9916 J0.2595
G3 X29.3548 Y23.4374 I-3.6527 J1.6302
G3 X29.5252 Y25.7253 I-38.7959 J4.039
G3 X29.5012 Y26.3775 I-3.996 J0.1796
G1 X29.4665 Y26.6687
G3 X29.447 Y26.8111 I-3.972 J-0.4727
G1 X29.2865 Y27.8422
G3 X29.2621 Y27.9825 I-3.9524 J-0.6151
G1 X28.9512 Y29.5995
G3 X28.2377 Y31.2246 I-3.928 J-0.7554
G1 X28.164 Y31.3241
G3 X27.2272 Y32.4716 I-3.5133 J-1.9122
G1 X27.0061 Y32.6578
G3 X26.6548 Y33.2919 I-3.6603 J-1.6131
G1 X25.8424 Y34.4882
G3 X25.144 Y35.2716 I-3.3091 J-2.2472
G1 X24.4157 Y35.8989
G3 X23.5318 Y36.4764 I-2.6106 J-3.0306
G1 X22.9763 Y36.7423
G3 X21.7634 Y37.101 I-1.7267 J-3.6081
G1 X19.4917 Y37.3953
G1 X18.4263 Y37.6316
G3 X16.6938 I-0.8662 J-3.9051
G1 X15.6283 Y37.3953
G1 X13.3567 Y37.101
G3 X12.1438 Y36.7423 I0.5138 J-3.9669
G1 X11.5883 Y36.4764
G3 X10.7044 Y35.8989 I1.7267 J-3.6081
G1 X9.9761 Y35.2716
G3 X9.2777 Y34.4882 I2.6106 J-3.0306
G1 X8.4653 Y33.2919
G3 X8.114 Y32.6578 I3.3091 J-2.2472
G1 X7.8929 Y32.4716
G3 X6.9561 Y31.3241 I2.5765 J-3.0597
G1 X6.8824 Y31.2246
G3 X6.1689 Y29.5995 I3.2146 J-2.3805
G1 X5.858 Y27.9825
G3 X5.8336 Y27.8422 I3.928 J-0.7554
G1 X5.6731 Y26.8111
G3 X5.6535 Y26.6687 I3.9524 J-0.6151
G1 X5.6189 Y26.3775
G3 X5.5967 Y25.6892 I3.972 J-0.4727
G3 X5.7617 Y23.4734 I54.4603 J2.941
G3 X6.3095 Y21.8007 I3.9821 J0.3782
G3 X6.2591 Y21.0371 I3.9478 J-0.6441
G1 X6.3233 Y18.8908
G3 X6.5323 Y17.7288 I3.9982 J0.1195
G0 Z3.0
G0 X-1.4283 Y27.3525
G0 Z-1.9
G1 F300.0 Z-2.8
G3 F780.0 X1.0685 Y28.4065 I-2.1332 J8.5375
G1 X0.9349 Y27.5484
G3 X0.8919 Y27.2353 I8.6906 J-1.3524
G1 X0.8573 Y26.9442
G3 X0.8085 Y25.4306 I8.7336 J-1.0393
G3 X0.988 Y23.02 I59.2486 J3.1996
G3 X1.4665 Y20.8778 I8.7558 J0.8316
G1 X1.5302 Y18.7476
G3 X1.5594 Y18.248 I8.7913 J0.2627
G3 X-0.175 Y18.6722 I-2.947 J-8.2919
G0 Z3.0
G0 X35.3051 Y18.7193
G0 Z-1.9
G1 F300.0 Z-2.8
G3 F780.0 X33.6137 Y18.3082 I1.2226 J-8.7147
G3 X33.9772 Y20.3324 I-8.4155 J2.5563
G2 X33.9856 Y20.465 I30.2308 J-1.8323
G3 X33.9587 Y21.9283 I-8.7767 J0.5706
G3 X34.1242 Y22.9409 I-8.5823 J1.9233
G3 X34.3155 Y25.51 I-43.5653 J4.5355
G3 X34.2628 Y26.9442 I-8.7863 J0.3948
G1 X34.2281 Y27.2353
G3 X34.1852 Y27.5485 I-8.7336 J-1.0393
G1 X34.1222 Y27.9532
G3 X36.1535 Y26.9858 I4.7681 J7.3963
G2 X36.507 Y26.833 I-0.6535 J-1.9972
G0 Z3.0
G0 X34.1236 Y15.936
G0 Z-1.9
G1 F300.0 Z-2.8
G3 F780.0 X30.6027 Y12.4243 I2.4041 J-5.9313
G2 X30.5575 Y12.3177 I-4.1673 J1.7018
G1 X30.5113 Y12.2123
G3 X29.9998 Y10.2357 I5.8608 J-2.5711
G2 X29.7772 Y9.1977 I-4.4819 J0.4182
G1 X29.3789 Y8.0326
G2 X28.1465 Y6.1571 I-4.2594 J1.4562
G1 X27.7896 Y5.8328
G3 X27.1412 Y5.1502 I4.3036 J-4.7369
G1 X26.7933 Y4.7253
G3 X27.3687 Y6.8901 I-5.7974 J2.6997
G1 X27.4398 Y7.7379
G3 X27.4566 Y8.0038 I-6.3728 J0.5349
G3 X27.591 Y8.9318 I-6.2449 J1.3783
G1 X27.6608 Y9.9203
G3 X27.6249 Y11.1825 I-6.3793 J0.4503
G3 X28.0235 Y12.3612 I-8.1812 J3.4238
G3 X28.2313 Y13.9002 I-6.1869 J1.6189
G3 X30.7147 Y17.1821 I-3.5868 J5.2947
G1 X31.2683 Y18.8517
G3 X31.5816 Y20.4776 I-6.0702 J2.0128
G2 X31.5906 Y20.6207 I32.6264 J-1.9775
G3 X31.5193 Y22.0734 I-6.3817 J0.4149
G3 X31.7371 Y23.1894 I-6.143 J1.7782
G3 X31.918 Y25.6178 I-41.1782 J4.287
G3 X31.8796 Y26.6606 I-6.3888 J0.2871
G1 X31.845 Y26.9517
G3 X31.8137 Y27.1794 I-6.3504 J-0.7557
G1 X31.6532 Y28.2106
G3 X31.6142 Y28.4348 I-6.3191 J-0.9834
G1 X31.3033 Y30.0518
G3 X30.1766 Y32.631 I-6.2801 J-1.2077
G3 X28.9268 Y34.1672 I-5.526 J-3.219
G3 X28.6363 Y34.6376 I-5.5811 J-3.1225
G1 X27.8239 Y35.8339
G3 X26.7072 Y37.0863 I-5.2905 J-3.5929
G1 X25.979 Y37.7137
G3 X24.5657 Y38.637 I-4.1739 J-4.8453
G1 X24.0102 Y38.9028
G3 X22.0711 Y39.4764 I-2.7606 J-5.7687
G1 X19.9058 Y39.7568
G1 X18.945 Y39.97
G3 X16.1751 I-1.3849 J-6.2434
G1 X15.2143 Y39.7568
G1 X13.049 Y39.4764
G3 X11.1099 Y38.9028 I0.8215 J-6.3422
G1 X10.5544 Y38.637
G3 X9.1411 Y37.7137 I2.7606 J-5.7687
G1 X8.4129 Y37.0863
G3 X7.2962 Y35.8339 I4.1739 J-4.8453
G1 X6.4838 Y34.6376
G3 X6.1933 Y34.1672 I5.2905 J-3.5929
G3 X4.9435 Y32.631 I4.2762 J-4.7553
G3 X3.8168 Y30.0518 I5.1535 J-3.7869
G1 X3.5059 Y28.4348
G3 X3.4668 Y28.2106 I6.2801 J-1.2077
G1 X3.3064 Y27.1794
G3 X3.2751 Y26.9517 I6.3191 J-0.9834
G1 X3.2405 Y26.6606
G3 X3.205 Y25.56 I6.3504 J-0.7557
G3 X3.3772 Y23.2469 I56.8521 J3.0702
G3 X3.8646 Y21.3348 I6.3665 J0.6047
G3 X3.865 Y20.9656 I6.3927 J-0.1782
G1 X3.9291 Y18.8193
G3 X6.8991 Y13.6079 I6.3923 J0.191
G3 X7.3069 Y11.7043 I6.3844 J0.3722
G1 X7.4965 Y11.2063
G3 X7.4978 Y11.2029 I5.9765 J2.2759
G3 X7.4593 Y9.92 I6.3408 J-0.8323
G2 X7.5291 Y8.932 I-12768.8664 J-901.7614
G3 X7.6635 Y8.0038 I6.3793 J0.45
G3 X7.6803 Y7.7379 I6.3895 J0.269
G1 X7.7514 Y6.8901
G3 X8.3268 Y4.7253 I6.3728 J0.5349
G1 X7.9789 Y5.1502
G3 X7.3305 Y5.8328 I-4.952 J-4.0543
G1 X6.9736 Y6.1571
G2 X5.7412 Y8.0325 I3.027 J3.3317
G1 X5.3429 Y9.1977
G2 X5.1203 Y10.2357 I4.2594 J1.4562
G3 X4.6088 Y12.2123 I-6.3723 J-0.5946
G1 X4.5625 Y12.3177
G2 X4.5257 Y12.4042 I4.1222 J1.8084
G3 X1.0127 Y15.8889 I-5.9133 J-2.4481
G0 Z3.0
G0 X-1.207 Y29.9389
G0 Z-1.9
G1 F300.0 Z-2.8
G3 F780.0 X2.409 Y33.5852 I-2.3545 J5.9511
G1 X2.621 Y34.1343
G2 X3.2762 Y35.2884 I4.1994 J-1.6211
G1 X3.4463 Y35.5056
G2 X3.6624 Y35.7614 I3.5442 J-2.7751
G1 X5.4126 Y37.6832
G2 X6.122 Y38.3136 I3.3281 J-3.0309
G1 X6.4083 Y38.5183
G2 X6.5532 Y38.6178 I2.6187 J-3.6613
G1 X8.9307 Y40.1816
G2 X9.807 Y40.6292 I2.4737 J-3.7608
G2 X12.477 Y41.6326 I152.4369 J-401.5938
G2 X12.851 Y41.7534 I1.5695 J-4.2189
G1 X14.1195 Y42.1028
G2 X15.0375 Y42.2559 I1.1954 J-4.3398
G1 X17.2827 Y42.3945
G2 X17.8374 I0.2774 J-4.4929
G1 X20.0825 Y42.2559
G2 X21.0006 Y42.1028 I-0.2774 J-4.4929
G1 X22.2691 Y41.7534
G2 X22.6431 Y41.6326 I-1.1954 J-4.3398
G2 X25.3131 Y40.6292 I-149.6645 J-402.3248
G2 X26.1893 Y40.1816 I-1.5974 J-4.2084
G1 X28.5668 Y38.6178
G2 X28.7118 Y38.5183 I-2.4737 J-3.7608
G1 X28.998 Y38.3136
G2 X29.7075 Y37.6832 I-2.6187 J-3.6613
G1 X31.4577 Y35.7614
G2 X31.6738 Y35.5056 I-3.3281 J-3.0309
G1 X31.8439 Y35.2883
G2 X32.499 Y34.1343 I-3.5442 J-2.7751
G1 X32.9197 Y33.0446
G3 X36.433 Y29.44 I5.9706 J2.3048
G0 Z3.0
G0 X29.7447 Y28.1538
G0 Z-2.6
G1 F300.0 Z-3.5
G1 F780.0 X29.475 Y29.5567
G3 X28.7615 Y31.1818 I-3.928 J-0.7554
G1 X28.3736 Y31.7056
G1 X28.2929 Y31.8641
G3 X27.3988 Y33.0271 I-3.5645 J-1.815
G3 X26.9492 Y33.906 I-3.7587 J-1.3684
G1 X26.6865 Y34.2928
G3 X25.9881 Y35.0762 I-3.3091 J-2.2472
G1 X24.464 Y36.389
G3 X23.5801 Y36.9665 I-2.6106 J-3.0306
G1 X22.4175 Y37.5229
G3 X21.2047 Y37.8816 I-1.7267 J-3.6081
G1 X20.0345 Y38.0332
G1 X18.4263 Y38.3899
G3 X16.6938 I-0.8662 J-3.9051
G1 X15.0855 Y38.0332
G1 X13.9154 Y37.8816
G3 X12.7025 Y37.5229 I0.5138 J-3.9669
G1 X11.54 Y36.9665
G3 X10.6561 Y36.389 I1.7267 J-3.6081
G1 X9.132 Y35.0762
G3 X8.4335 Y34.2928 I2.6106 J-3.0306
G1 X8.1709 Y33.906
G3 X7.7213 Y33.0271 I3.3091 J-2.2472
G3 X6.8272 Y31.8641 I2.6704 J-2.978
G1 X6.7465 Y31.7056
G1 X6.3586 Y31.1818
G3 X5.6451 Y29.5567 I3.2146 J-2.3805
G1 X5.2481 Y27.4923
G3 X5.2127 Y26.1972 I3.928 J-0.7554
G3 X5.1818 Y25.2918 I3.9565 J-0.5884
G3 X5.3118 Y23.7669 I132.6195 J10.5412
G1 X5.3488 Y23.2305
G3 X5.3958 Y22.8356 I3.9906 J0.2747
G2 X5.714 Y20.9468 I-753.0258 J-127.8479
G1 X5.6966 Y20.1169
G3 X6.2191 Y16.656 I3.8178 J-1.1935
G1 X6.4354 Y16.3417
G3 X8.3475 Y14.8558 I3.2953 J2.2673
G1 X8.5494 Y14.7814
G1 X9.0185 Y14.5737
G3 X9.3874 Y12.5571 I3.9878 J-0.3126
G1 X9.5069 Y12.0126
G3 X9.5419 Y11.8659 I3.9071 J0.8571
G2 X9.3927 Y11.3129 I-11.1276 J2.7067
G3 X9.2356 Y9.9161 I3.8345 J-1.1386
G3 X9.2898 Y9.0788 I6515.0888 J421.4786
G1 X9.2857 Y8.5384
G3 X9.3233 Y7.9596 I3.9999 J-0.0304
G1 X9.3818 Y7.2628
G3 X10.2548 Y5.0856 I3.986 J0.3345
G1 X11.9153 Y3.0276
G3 X14.5337 Y1.4323 I3.2315 J2.3574
G1 X15.0924 Y1.3456
G3 X16.2503 Y1.3356 I0.6132 J3.9527
G1 X17.8916 Y1.5612
G1 X19.3377 Y1.6034
G3 X20.4249 Y1.7871 I-0.1165 J3.9983
G2 X21.1407 Y1.9939 I4.5773 J-14.5044
G3 X22.9139 Y2.9953 I-1.0156 J3.8689
G1 X23.0618 Y3.1391
G3 X23.2023 Y3.2828 I-2.7888 J2.8675
G1 X24.6815 Y4.8735
G3 X25.7383 Y7.2628 I-2.9293 J2.7239
G1 X25.8147 Y8.1735
G3 X25.8286 Y8.4777 I-3.986 J0.3345
G1 X25.8335 Y9.1288
G1 X25.8845 Y9.9158
G3 X25.7415 Y11.2643 I-3.9916 J0.2585
G2 X25.6372 Y11.6326 I8533.5748 J2416.7083
G3 X25.5847 Y11.8916 I-17.0719 J-3.3257
G3 X25.6132 Y12.0126 I-3.8786 J0.9781
G1 X25.7327 Y12.5571
G3 X26.1016 Y14.5737 I-3.6189 J1.7041
G1 X26.5707 Y14.7814
G1 X26.7726 Y14.8558
G3 X28.6847 Y16.3417 I-1.3832 J3.7532
G1 X28.901 Y16.656
G3 X29.4895 Y19.8805 I-3.2953 J2.2673
G2 X29.6469 Y22.3784 I822.8817 J-50.6131
G1 X29.7246 Y22.8374
G3 X29.7694 Y23.2034 I-3.9439 J0.6678
G2 X29.9361 Y25.2657 I199.317 J-15.0786
G3 X29.9073 Y26.1972 I-3.9853 J0.343
G3 X29.8719 Y27.4923 I-3.9634 J0.5397
G1 X29.7447 Y28.1538
G0 Z3.0
G0 X35.2746 Y18.7531
G0 Z-2.6
G1 F300.0 Z-3.5
G3 F780.0 X34.3943 Y18.583 I1.2275 J-8.714
G3 X34.3118 Y20.1716 I-8.7886 J0.3404
G2 X34.4162 Y21.8225 I818.0593 J-50.9042
G1 X34.4525 Y22.0368
G3 X34.5509 Y22.8417 I-8.6718 J1.4684
G2 X34.7136 Y24.8545 I194.5355 J-14.7169
G3 X34.7243 Y26.2268 I-8.7628 J0.7542
G3 X34.6999 Y27.5667 I-8.7804 J0.5101
G3 X36.139 Y26.952 I4.1625 J7.7533
G2 X36.4685 Y26.8121 I-0.639 J-1.9634
G0 Z3.0
G0 X-1.3889 Y27.3194
G0 Z-2.6
G1 F300.0 Z-3.5
G3 F780.0 X0.4752 Y28.0209 I-2.1475 J8.5339
G3 X0.3958 Y26.2268 I8.701 J-1.284
G3 X0.4017 Y24.9119 I8.7735 J-0.6181
G3 X0.5316 Y23.3853 I137.3996 J10.9211
G1 X0.5649 Y22.9012
G3 X0.6682 Y22.033 I8.7744 J0.604
G2 X0.8966 Y20.6806 I-748.2982 J-127.0453
G3 X0.7275 Y18.5409 I8.6179 J-1.7573
G3 X-0.1452 Y18.7081 I-2.0906 J-8.5481
G0 Z3.0
G0 X-1.1769 Y29.9042
G0 Z-2.6
G1 F300.0 Z-3.5
G3 F780.0 X2.4342 Y33.5485 I-2.3595 J5.9492
G1 X2.6552 Y34.1211
G2 X3.3051 Y35.2657 I4.1652 J-1.6079
G1 X3.4752 Y35.483
G2 X3.6895 Y35.7367 I3.5153 J-2.7525
G1 X5.4397 Y37.6585
G2 X6.1434 Y38.2838 I3.301 J-3.0062
G1 X6.4296 Y38.4885
G2 X6.5734 Y38.5871 I2.5973 J-3.6315
G1 X8.9509 Y40.151
G2 X9.82 Y40.5949 I2.4535 J-3.7301
G2 X12.4897 Y41.5982 I152.4239 J-401.5595
G2 X12.8607 Y41.718 I1.5567 J-4.1846
G1 X14.1292 Y42.0675
G2 X15.0398 Y42.2193 I1.1857 J-4.3044
G1 X17.2849 Y42.3579
G2 X17.8351 I0.2751 J-4.4562
G1 X20.0803 Y42.2193
G2 X20.9909 Y42.0675 I-0.2751 J-4.4562
G1 X22.2594 Y41.718
G2 X22.6303 Y41.5982 I-1.1857 J-4.3044
G2 X25.3001 Y40.5949 I-149.6517 J-402.2904
G2 X26.1692 Y40.151 I-1.5844 J-4.1741
G1 X28.5467 Y38.5871
G2 X28.6905 Y38.4885 I-2.4535 J-3.7301
G1 X28.9767 Y38.2838
G2 X29.6803 Y37.6585 I-2.5973 J-3.6315
G1 X31.4305 Y35.7367
G2 X31.6449 Y35.483 I-3.301 J-3.0062
G1 X31.815 Y35.2657
G2 X32.4648 Y34.1211 I-3.5153 J-2.7525
G1 X32.8918 Y33.0152
G3 X36.4013 Y29.4121 I5.9706 J2.3048
G0 Z3.0
G0 X34.0998 Y15.9711
G0 Z-2.6
G1 F300.0 Z-3.5
G3 F780.0 X30.5721 Y12.4466 I2.4023 J-5.932
G2 X30.524 Y12.3325 I-4.1368 J1.6795
G1 X30.4753 Y12.2216
G3 X29.9635 Y10.2416 I5.8608 J-2.5711
G2 X29.7425 Y9.2095 I-4.4456 J0.4123
G1 X29.3442 Y8.0444
G2 X28.1218 Y6.1842 I-4.2246 J1.4443
G1 X27.9525 Y6.0304
G3 X28.1251 Y7.0625 I-6.2003 J1.5669
G1 X28.2015 Y7.9731
G3 X28.2237 Y8.4595 I-6.3728 J0.5349
G1 X28.2281 Y9.0423
G1 X28.2747 Y9.761
G3 X28.0534 Y11.8907 I-6.3818 J0.4133
G3 X28.3738 Y12.9529 I-5.9396 J2.3705
G3 X30.6579 Y14.984 I-2.9844 J5.6561
G1 X30.8742 Y15.2984
G3 X31.9 Y20.0549 I-5.2686 J3.625
G2 X32.0292 Y22.1007 I820.4712 J-50.7875
G1 X32.0862 Y22.4375
G3 X32.1577 Y23.0227 I-6.3054 J1.0677
G2 X32.3225 Y25.0603 I196.9286 J-14.898
G3 X32.3175 Y26.212 I-6.3716 J0.5484
G3 X32.224 Y27.9446 I-6.3736 J0.5249
G1 X31.8271 Y30.009
G3 X30.6864 Y32.6072 I-6.2801 J-1.2077
G1 X30.4172 Y32.9706
G3 X29.4208 Y34.3941 I-5.6889 J-2.9216
G3 X28.9307 Y35.2516 I-5.7807 J-2.7353
G1 X28.668 Y35.6384
G3 X27.5513 Y36.8909 I-5.2905 J-3.5929
G1 X26.0273 Y38.2038
G3 X24.614 Y39.1271 I-4.1739 J-4.8453
G1 X23.4515 Y39.6834
G3 X21.5123 Y40.257 I-2.7606 J-5.7687
G1 X20.4486 Y40.3948
G1 X18.945 Y40.7283
G3 X16.1751 I-1.3849 J-6.2434
G1 X14.6715 Y40.3948
G1 X13.6077 Y40.257
G3 X11.6686 Y39.6834 I0.8215 J-6.3422
G1 X10.5061 Y39.1271
G3 X9.0928 Y38.2038 I2.7606 J-5.7687
G1 X7.5687 Y36.8909
G3 X6.4521 Y35.6384 I4.1739 J-4.8453
G1 X6.1894 Y35.2516
G3 X5.6992 Y34.3941 I5.2905 J-3.5929
G3 X4.7028 Y32.9706 I4.6925 J-4.345
G1 X4.4337 Y32.6072
G3 X3.293 Y30.009 I5.1394 J-3.8059
G1 X2.896 Y27.9446
G3 X2.8025 Y26.212 I6.2801 J-1.2077
G3 X2.7941 Y25.102 I6.3667 J-0.6033
G3 X2.9241 Y23.5762 I135.0072 J10.731
G1 X2.9592 Y23.066
G3 X3.0343 Y22.4347 I6.3801 J0.4392
G2 X3.3146 Y20.7727 I-750.6644 J-127.447
G1 X3.3082 Y20.4667
G3 X4.2458 Y15.2984 I6.2062 J-1.5433
G1 X4.4621 Y14.984
G3 X6.7463 Y12.9529 I5.2686 J3.625
G3 X7.0666 Y11.8907 I6.2599 J1.3083
G3 X6.8454 Y9.7615 I6.1606 J-1.7163
G3 X6.894 Y9.0103 I6517.479 J421.6332
G1 X6.8906 Y8.5565
G3 X6.9413 Y7.7026 I6.395 J-0.0485
G1 X6.995 Y7.0625
G3 X7.1675 Y6.0304 I6.3728 J0.5349
G1 X6.9983 Y6.1842
G2 X5.7759 Y8.0444 I3.0023 J3.3046
G1 X5.3776 Y9.2095
G2 X5.1566 Y10.2415 I4.2246 J1.4444
G3 X4.6448 Y12.2216 I-6.3726 J-0.5911
G1 X4.5961 Y12.3325
G2 X4.5557 Y12.4276 I4.0886 J1.7936
G3 X1.0391 Y15.9249 I-5.9188 J-2.4348
G0 Z3.0
G0 X5.1445 Y17.5642
G0 Z-3.3
G1 F300.0 Z-4.2
G3 F780.0 X5.564 Y16.7802 I3.7148 J1.4834
G1 X6.14 Y15.943
G3 X8.0522 Y14.4571 I3.2953 J2.2673
G1 X8.7793 Y14.1891
G3 X8.8799 Y13.4669 I3.9955 J0.1888
G3 X9.2173 Y12.1503 I31.4218 J7.3496
G3 X9.1299 Y11.9193 I3.6955 J-1.5307
G3 X8.738 Y10.6452 I19.3673 J-6.6541
G3 X8.6058 Y9.3361 I3.8595 J-1.0509
G1 X8.6074 Y9.3115
G3 X8.6283 Y7.7026 I66.8451 J0.064
G3 X9.4551 Y5.3657 I3.9987 J0.1001
G3 X9.6826 Y5.0836 I6.0827 J4.6733
G3 X9.7867 Y4.9655 I3.0533 J2.5841
G1 X11.5946 Y2.9923
G3 X12.7047 Y2.1424 I2.9492 J2.7022
G1 X13.3004 Y1.834
G3 X14.5264 Y1.4334 I1.8392 J3.5521
G1 X15.0924 Y1.3456
G3 X16.2503 Y1.3356 I0.6132 J3.9527
G1 X17.8916 Y1.5612
G1 X19.3377 Y1.6034
G3 X20.3913 Y1.7767 I-0.1165 J3.9983
G2 X21.6597 Y2.1309 I7.8645 J-25.7082
G3 X23.467 Y3.1412 I-0.9814 J3.8777
G1 X25.1729 Y4.8002
G3 X25.4375 Y5.0837 I-2.7888 J2.8675
G3 X25.6649 Y5.3657 I-5.8557 J4.9557
G3 X26.4918 Y7.7026 I-3.1719 J2.437
G3 X26.5127 Y9.3115 I-66.8239 J1.6729
G1 X26.5142 Y9.3358
G3 X26.3498 Y10.7572 I-3.9916 J0.2585
G2 X26.2362 Y11.2092 I4.5819 J1.3922
G3 X25.9074 Y12.1811 I-3.9221 J-0.7854
G1 X25.9739 Y12.459
G3 X26.2553 Y13.5345 I-12.216 J3.7712
G3 X26.3408 Y14.1891 I-3.9101 J0.8434
G1 X27.0679 Y14.4571
G3 X28.98 Y15.943 I-1.3832 J3.7532
G1 X29.5561 Y16.7802
G3 X29.8872 Y20.7355 I-3.2953 J2.2673
G2 X29.9369 Y21.5182 I488.0334 J-30.6353
G1 X30.1694 Y22.8909
G3 X30.2161 Y23.284 I-3.9439 J0.6678
G1 X30.2696 Y24.0611
G3 X30.1577 Y25.3136 I-3.9906 J0.2747
G3 X29.9399 Y26.1679 I-162.7935 J-41.0394
G1 X30.0998 Y26.7331
G3 X30.1788 Y28.5773 I-3.849 J1.0888
G1 X29.9987 Y29.5139
G3 X29.2853 Y31.139 I-3.928 J-0.7554
G1 X28.5778 Y32.0943
G1 X28.3706 Y32.5012
G3 X27.7877 Y33.3526 I-3.5645 J-1.815
G3 X27.151 Y34.4343 I-3.7228 J-1.4632
G1 X26.8939 Y34.7461
G3 X26.4423 Y35.2111 I-3.086 J-2.5449
G3 X24.4981 Y36.8914 I-134.4214 J-153.579
G3 X23.6284 Y37.4566 I-2.5964 J-3.0429
G1 X21.8588 Y38.3035
G3 X20.6459 Y38.6622 I-1.7267 J-3.6081
G1 X20.5774 Y38.6711
G1 X19.8345 Y38.8359
G3 X19.5281 Y38.8914 I-0.8662 J-3.9051
G1 X18.1199 Y39.0905
G3 X17.0002 I-0.5598 J-3.9606
G1 X15.592 Y38.8914
G3 X15.2856 Y38.8359 I0.5598 J-3.9606
G1 X14.5427 Y38.6711
G1 X14.4741 Y38.6622
G3 X13.2613 Y38.3035 I0.5138 J-3.9669
G1 X11.4917 Y37.4566
G3 X10.622 Y36.8914 I1.7267 J-3.6081
G3 X8.6777 Y35.2111 I132.4792 J-155.2615
G3 X8.2261 Y34.7461 I2.6345 J-3.0099
G1 X7.9691 Y34.4343
G3 X7.3323 Y33.3526 I3.086 J-2.5449
G3 X6.7495 Y32.5012 I2.9816 J-2.6664
G1 X6.5423 Y32.0943
G1 X5.8348 Y31.139
G3 X5.1213 Y29.5139 I3.2146 J-2.3805
G1 X4.9412 Y28.5773
G3 X5.0203 Y26.7331 I3.928 J-0.7554
G1 X5.1802 Y26.1679
G3 X4.9624 Y25.3136 I162.5961 J-41.8989
G3 X4.8505 Y24.0611 I3.8787 J-0.9778
G1 X4.904 Y23.284
G3 X4.9513 Y22.8872 I3.9906 J0.2747
G2 X5.2939 Y20.8608 I-841.0259 J-143.2169
G3 X5.1445 Y17.5642 I3.5654 J-1.8132
G0 Z3.0
G0 X-1.3494 Y27.2863
G0 Z-3.3
G1 F300.0 Z-4.2
G3 F780.0 X0.0742 Y27.7802 I-2.1618 J8.5303
G3 X0.2347 Y26.1485 I8.7951 J0.0417
G3 X0.0666 Y23.7318 I8.6064 J-1.8128
G1 X0.1201 Y22.9547
G3 X0.2242 Y22.0822 I8.7744 J0.604
G2 X0.3572 Y21.299 I-836.2987 J-142.412
G3 X0.0704 Y18.716 I8.5021 J-2.2515
G3 X-0.1152 Y18.7441 I-1.4088 J-8.6865
G0 Z3.0
G0 X35.244 Y18.7869
G0 Z-3.3
G1 F300.0 Z-4.2
G3 F780.0 X35.0512 Y18.7574 I1.2325 J-8.7133
G3 X34.7631 Y21.2982 I-8.7904 J0.2901
G1 X34.8973 Y22.0903
G3 X35.0 Y22.9547 I-8.6718 J1.4684
G1 X35.0534 Y23.7318
G3 X34.8854 Y26.1485 I-8.7744 J0.604
G3 X35.0335 Y27.3536 I-8.6346 J1.6733
G3 X36.1245 Y26.9181 I3.8009 J7.9368
G2 X36.43 Y26.7908 I-0.6245 J-1.9295
G0 Z3.0
G0 X34.0776 Y16.007
G0 Z-3.3
G1 F300.0 Z-4.2
G3 F780.0 X30.5416 Y12.4689 I2.3988 J-5.9334
G2 X30.4904 Y12.3472 I-4.1062 J1.6572
G1 X30.4393 Y12.2309
G3 X29.9272 Y10.2474 I5.8608 J-2.5711
G2 X29.7078 Y9.2214 I-4.4093 J0.4065
G1 X29.3094 Y8.0563
G2 X28.8498 Y7.1029 I-4.1899 J1.4325
G3 X28.8862 Y7.6426 I-6.3568 J0.6998
G3 X28.9078 Y9.236 I-69.2184 J1.7328
G3 X28.6416 Y11.4536 I-6.3852 J0.3583
G2 X28.5848 Y11.6795 I2.2902 J0.6959
G3 X28.4238 Y12.313 I-6.2707 J-1.2557
G3 X28.4593 Y12.4484 I-14.6659 J3.9172
G3 X30.9533 Y14.5853 I-2.7746 J5.762
G1 X31.5293 Y15.4225
G3 X32.3114 Y21.1184 I-5.2686 J3.625
G2 X32.3193 Y21.2407 I485.6091 J-31.0182
G1 X32.531 Y22.491
G3 X32.6056 Y23.1195 I-6.3054 J1.0677
G1 X32.6591 Y23.8966
G3 X32.4802 Y25.8991 I-6.3801 J0.4392
G3 X32.4201 Y26.1369 I-165.116 J-41.6249
G3 X32.5309 Y29.0296 I-6.1692 J1.685
G1 X32.3508 Y29.9662
G3 X31.2101 Y32.5644 I-6.2801 J-1.2077
G1 X30.6216 Y33.3592
G1 X30.505 Y33.5881
G3 X29.8473 Y34.6212 I-5.6989 J-2.9019
G3 X28.9989 Y35.9582 I-5.7824 J-2.7318
G1 X28.7418 Y36.2699
G3 X28.0199 Y37.0135 I-4.934 J-4.0687
G3 X26.0528 Y38.7134 I-135.9989 J-155.3814
G3 X24.6623 Y39.6172 I-4.1511 J-4.8649
G1 X22.8927 Y40.464
G3 X20.9927 Y41.0324 I-2.7606 J-5.7687
G1 X20.3532 Y41.1743
G3 X19.8634 Y41.2631 I-1.3849 J-6.2434
G1 X18.4551 Y41.4621
G3 X16.665 I-0.8951 J-6.3323
G1 X15.2567 Y41.2631
G3 X14.7669 Y41.1743 I0.8951 J-6.3323
G1 X14.1274 Y41.0324
G3 X12.2273 Y40.464 I0.8606 J-6.337
G1 X10.4577 Y39.6172
G3 X9.0673 Y38.7134 I2.7606 J-5.7687
G3 X7.1002 Y37.0135 I134.0339 J-157.0836
G3 X6.3782 Y36.2699 I4.212 J-4.8123
G1 X6.1212 Y35.9582
G3 X5.2727 Y34.6212 I4.934 J-4.0687
G3 X4.615 Y33.5881 I5.0412 J-3.935
G1 X4.4985 Y33.3592
G1 X3.9099 Y32.5644
G3 X2.7692 Y29.9662 I5.1394 J-3.8059
G1 X2.5891 Y29.0296
G3 X2.7 Y26.1369 I6.2801 J-1.2077
G3 X2.6399 Y25.8991 I165.0762 J-41.8679
G3 X2.461 Y23.8966 I6.2012 J-1.5633
G1 X2.5144 Y23.1195
G3 X2.5901 Y22.4851 I6.3801 J0.4392
G2 X2.8174 Y21.1438 I-838.6647 J-142.8149
G3 X3.5907 Y15.4225 I6.0419 J-2.0962
G1 X4.1668 Y14.5853
G3 X6.662 Y12.4478 I5.2686 J3.625
G3 X6.7137 Y12.2427 I33.6397 J8.3687
G3 X6.4269 Y11.2745 I21.7835 J-6.9775
G3 X6.2123 Y9.236 I6.1706 J-1.6801
G3 X6.2339 Y7.6426 I69.2402 J0.1395
G3 X6.2703 Y7.1029 I6.3932 J0.16
G2 X5.8106 Y8.0563 I3.7303 J2.3859
G1 X5.4123 Y9.2214
G2 X5.1929 Y10.2473 I4.1899 J1.4325
G3 X4.6808 Y12.2309 I-6.373 J-0.5876
G1 X4.6297 Y12.3472
G2 X4.5858 Y12.4508 I4.055 J1.7789
G3 X1.0655 Y15.9608 I-5.9243 J-2.4213
G0 Z3.0
G0 X-1.1467 Y29.8695
G0 Z-3.3
G1 F300.0 Z-4.2
G3 F780.0 X2.4594 Y33.5118 I-2.3645 J5.9472
G1 X2.6895 Y34.1079
G2 X3.334 Y35.2431 I4.1309 J-1.5947
G1 X3.5041 Y35.4604
G2 X3.7167 Y35.712 I3.4864 J-2.7299
G1 X5.4668 Y37.6338
G2 X6.1647 Y38.2539 I3.2738 J-2.9815
G1 X6.4509 Y38.4586
G2 X6.5936 Y38.5565 I2.576 J-3.6017
G1 X8.9711 Y40.1203
G2 X9.833 Y40.5606 I2.4334 J-3.6995
G2 X12.5025 Y41.5638 I152.4109 J-401.5252
G2 X12.8705 Y41.6827 I1.5439 J-4.1502
G1 X14.1389 Y42.0321
G2 X15.0421 Y42.1827 I1.176 J-4.269
G1 X17.2872 Y42.3213
G2 X17.8329 I0.2728 J-4.4196
G1 X20.078 Y42.1827
G2 X20.9811 Y42.0321 I-0.2728 J-4.4196
G1 X22.2496 Y41.6827
G2 X22.6175 Y41.5638 I-1.176 J-4.269
G2 X25.2871 Y40.5606 I-149.639 J-402.256
G2 X26.149 Y40.1203 I-1.5714 J-4.1398
G1 X28.5265 Y38.5565
G2 X28.6691 Y38.4586 I-2.4334 J-3.6995
G1 X28.9554 Y38.2539
G2 X29.6532 Y37.6338 I-2.576 J-3.6017
G1 X31.4034 Y35.712
G2 X31.616 Y35.4604 I-3.2738 J-2.9815
G1 X31.7861 Y35.2431
G2 X32.4306 Y34.1079 I-3.4864 J-2.7299
G1 X32.8638 Y32.9857
G3 X36.3696 Y29.3842 I5.9706 J2.3048
G0 Z3.0
G0 X30.5455 Y28.9875
G0 Z-4.0
G1 F300.0 Z-4.9
G3 F780.0 X30.3491 Y29.9817 I-3.9908 J-0.2718
G3 X29.9198 Y30.9119 I-3.8166 J-1.1972
G1 X29.8576 Y31.0109
G3 X29.6849 Y31.2639 I-3.3873 J-2.1275
G1 X28.782 Y32.4831
G1 X28.4484 Y33.1384
G3 X28.1449 Y33.6396 I-3.5645 J-1.815
G3 X27.6952 Y34.3142 I-3.5358 J-1.8703
G1 X26.9458 Y35.223
G3 X26.5033 Y35.68 I-3.086 J-2.5449
G3 X24.5556 Y37.3736 I-135.4799 J-153.8445
G3 X23.6767 Y37.9467 I-2.6056 J-3.035
G1 X22.8832 Y38.3265
G3 X22.5584 Y38.4646 I-1.7267 J-3.6081
G1 X21.4532 Y38.8782
G3 X20.8141 Y39.0585 I-1.4019 J-3.7463
G1 X20.2474 Y39.1686
G3 X20.0444 Y39.2027 I-0.7629 J-3.9266
G1 X18.1199 Y39.4747
G3 X17.0002 I-0.5598 J-3.9606
G1 X15.0757 Y39.2027
G3 X14.8727 Y39.1686 I0.5598 J-3.9606
G1 X14.3059 Y39.0585
G3 X13.6669 Y38.8782 I0.7629 J-3.9266
G1 X12.5616 Y38.4646
G3 X12.2369 Y38.3265 I1.4019 J-3.7463
G1 X11.4434 Y37.9467
G3 X10.5645 Y37.3736 I1.7267 J-3.6081
G3 X8.6168 Y35.68 I133.5342 J-155.5404
G3 X8.1743 Y35.223 I2.6436 J-3.0019
G1 X7.4249 Y34.3142
G3 X6.9751 Y33.6396 I3.086 J-2.5449
G3 X6.6717 Y33.1384 I3.2611 J-2.3163
G1 X6.3381 Y32.4831
G1 X5.4769 Y31.3202
G3 X4.6605 Y29.5829 I3.4621 J-2.6874
G3 X4.8477 Y27.2397 I3.9049 J-0.8671
G1 X5.1754 Y26.1478
G3 X4.7716 Y24.5605 I225.8333 J-58.2962
G3 X4.6533 Y23.4714 I3.88 J-0.9726
G1 X4.6944 Y22.061
G3 X4.7496 Y21.5052 I3.9983 J0.1165
G2 X4.791 Y21.2624 I-450.2701 J-76.782
G1 X4.7198 Y21.1362
G3 X4.9089 Y16.9044 I3.4844 J-1.9645
G1 X5.8447 Y15.5443
G3 X7.7568 Y14.0584 I3.2953 J2.2673
G1 X8.4657 Y13.7972
G1 X8.7597 Y13.5273
G1 X8.7949 Y13.3956
G3 X8.9595 Y12.907 I3.8649 J1.0307
G3 X8.7007 Y12.318 I3.5206 J-1.8988
G1 X8.3526 Y11.3136
G3 X8.1871 Y10.6654 I3.7795 J-1.3098
G1 X8.048 Y9.836
G3 X7.9938 Y9.0919 I3.9449 J-0.6616
G1 X8.0124 Y8.1886
G3 X8.8396 Y5.8341 I3.9991 J0.0825
G3 X10.0467 Y4.3376 I32.2721 J24.7945
G3 X10.1507 Y4.2194 I3.0533 J2.5841
G1 X10.9867 Y3.3071
G3 X12.0968 Y2.4572 I2.9492 J2.7022
G1 X13.3004 Y1.834
G3 X14.5264 Y1.4334 I1.8392 J3.5521
G1 X15.0924 Y1.3456
G3 X16.2503 Y1.3356 I0.6132 J3.9527
G1 X17.8916 Y1.5612
G1 X19.3377 Y1.6034
G3 X20.376 Y1.772 I-0.1165 J3.9983
G2 X22.1973 Y2.2729 I11.1333 J-36.9178
G3 X24.0201 Y3.287 I-0.966 J3.8816
G1 X24.8089 Y4.0541
G3 X25.0734 Y4.3376 I-2.7888 J2.8675
G3 X26.2804 Y5.8341 I-31.0698 J26.2946
G3 X27.1077 Y8.1886 I-3.1719 J2.437
G1 X27.1263 Y9.0919
G3 X27.0721 Y9.836 I-3.9991 J0.0825
G1 X26.933 Y10.6654
G3 X26.8852 Y10.9052 I-3.9449 J-0.6616
G1 X26.7381 Y11.5411
G3 X26.1514 Y12.885 I-3.8971 J-0.9014
G3 X26.3094 Y13.3382 I-3.6911 J1.5413
G3 X26.3795 Y13.5981 I-10.5286 J2.9763
G1 X26.5973 Y13.7761
G1 X27.3633 Y14.0584
G3 X29.2754 Y15.5443 I-1.3832 J3.7532
G1 X30.2112 Y16.9044
G3 X30.4002 Y21.1362 I-3.2953 J2.2673
G1 X30.3293 Y21.2621
G1 X30.3712 Y21.5098
G3 X30.4257 Y22.061 I-3.9439 J0.6678
G1 X30.4668 Y23.4714
G3 X30.3484 Y24.5605 I-3.9983 J0.1165
G3 X29.9446 Y26.1478 I-226.209 J-56.7017
G1 X30.2724 Y27.2397
G3 X30.5455 Y28.9875 I-3.7177 J1.4761
G0 Z3.0
G0 X35.5957 Y20.5915
G0 Z-4.0
G1 F300.0 Z-4.9
G3 F780.0 X35.2229 Y22.0612 I-8.6799 J-1.4197
G1 X35.2599 Y23.3317
G3 X34.9997 Y25.7264 I-8.7915 J0.2562
G3 X34.9262 Y26.0189 I-230.8603 J-57.8676
G3 X35.2224 Y27.2239 I-8.3715 J2.6969
G3 X36.1102 Y26.8842 I3.584 J8.0371
G2 X36.3915 Y26.7693 I-0.6102 J-1.8956
G0 Z3.0
G0 X-1.31 Y27.2533
G0 Z-4.0
G1 F300.0 Z-4.9
G3 F780.0 X-0.1628 Y27.6316 I-2.176 J8.5267
G3 X0.1938 Y26.0189 I8.7281 J1.0841
G3 X0.1203 Y25.7264 I230.8149 J-58.1673
G3 X-0.1399 Y23.3317 I8.5313 J-2.1385
G1 X-0.1028 Y22.0612
G3 X-0.4757 Y20.5915 I8.307 J-2.8894
G0 Z3.0
G0 X-1.1166 Y29.8348
G0 Z-4.0
G1 F300.0 Z-4.9
G3 F780.0 X2.4845 Y33.4752 I-2.3695 J5.9452
G1 X2.7237 Y34.0947
G2 X3.3628 Y35.2205 I4.0967 J-1.5815
G1 X3.533 Y35.4378
G2 X3.7438 Y35.6873 I3.4576 J-2.7073
G1 X5.494 Y37.6091
G2 X6.1861 Y38.2241 I3.2467 J-2.9568
G1 X6.4723 Y38.4288
G2 X6.6137 Y38.5258 I2.5546 J-3.5718
G1 X8.9912 Y40.0897
G2 X9.846 Y40.5264 I2.4132 J-3.6688
G2 X12.5153 Y41.5294 I152.3978 J-401.4909
G2 X12.8802 Y41.6473 I1.5311 J-4.1158
G1 X14.1487 Y41.9967
G2 X15.0443 Y42.1461 I1.1662 J-4.2337
G1 X17.2895 Y42.2847
G2 X17.8306 I0.2706 J-4.383
G1 X20.0757 Y42.1461
G2 X20.9714 Y41.9967 I-0.2706 J-4.383
G1 X22.2399 Y41.6473
G2 X22.6047 Y41.5294 I-1.1662 J-4.2337
G2 X25.274 Y40.5263 I-149.6262 J-402.2216
G2 X26.1289 Y40.0897 I-1.5584 J-4.1055
G1 X28.5064 Y38.5258
G2 X28.6478 Y38.4288 I-2.4132 J-3.6688
G1 X28.934 Y38.2241
G2 X29.6261 Y37.6091 I-2.5546 J-3.5718
G1 X31.3763 Y35.6873
G2 X31.5871 Y35.4378 I-3.2467 J-2.9568
G1 X31.7572 Y35.2205
G2 X32.3964 Y34.0947 I-3.4576 J-2.7073
G1 X32.8359 Y32.9561
G3 X36.3378 Y29.3562 I5.9706 J2.3048
G0 Z3.0
G0 X34.0555 Y16.043
G0 Z-4.0
G1 F300.0 Z-4.9
G3 F780.0 X30.511 Y12.4911 I2.3953 J-5.9349
G2 X30.4568 Y12.362 I-4.0756 J1.635
G1 X30.4033 Y12.2401
G3 X29.8909 Y10.2531 I5.8608 J-2.5711
G2 X29.6731 Y9.2333 I-4.373 J0.4008
G1 X29.5154 Y8.7721
G1 X29.521 Y9.0425
G3 X29.4343 Y10.2322 I-6.3938 J0.1319
G1 X29.2952 Y11.0615
G3 X29.2188 Y11.4449 I-6.3071 J-1.0577
G1 X29.0717 Y12.0809
G3 X29.0434 Y12.1979 I-6.2307 J-1.4411
G3 X31.2486 Y14.1866 I-3.0634 J5.6138
G1 X32.1844 Y15.5467
G3 X32.8025 Y21.6711 I-5.2686 J3.625
G3 X32.8199 Y21.9913 I-6.3751 J0.5065
G1 X32.861 Y23.4016
G3 X32.6718 Y25.1428 I-6.3925 J0.1863
G3 X32.4303 Y26.0976 I-228.5323 J-57.2841
G1 X32.5402 Y26.4635
G3 X32.628 Y30.7192 I-5.9855 J2.2522
G3 X31.9481 Y32.1858 I-6.0955 J-1.9347
G1 X31.8859 Y32.2848
G3 X31.6097 Y32.6893 I-5.4156 J-3.4014
G1 X30.8258 Y33.7479
G1 X30.5828 Y34.2252
G3 X30.1871 Y34.8975 I-5.6989 J-2.9019
G3 X29.5431 Y35.8381 I-5.5779 J-3.1281
G1 X28.7937 Y36.7468
G3 X28.0863 Y37.4776 I-4.934 J-4.0687
G3 X26.1158 Y39.1909 I-137.0628 J-155.6421
G3 X24.7106 Y40.1073 I-4.1658 J-4.8523
G1 X23.9171 Y40.487
G3 X23.3979 Y40.7079 I-2.7606 J-5.7687
G1 X22.2927 Y41.1215
G3 X21.2709 Y41.4098 I-2.2414 J-5.9896
G1 X20.7042 Y41.5199
G3 X20.3796 Y41.5743 I-1.2197 J-6.2778
G1 X18.4551 Y41.8463
G3 X16.665 I-0.8951 J-6.3323
G1 X14.7405 Y41.5743
G3 X14.4159 Y41.5199 I0.8951 J-6.3323
G1 X13.8491 Y41.4098
G3 X12.8274 Y41.1215 I1.2197 J-6.2778
G1 X11.7222 Y40.7079
G3 X11.2029 Y40.487 I2.2414 J-5.9896
G1 X10.4094 Y40.1073
G3 X9.0043 Y39.1909 I2.7606 J-5.7687
G3 X7.0338 Y37.4776 I135.0944 J-157.3577
G3 X6.3264 Y36.7468 I4.2265 J-4.7995
G1 X5.577 Y35.8381
G3 X4.933 Y34.8975 I4.934 J-4.0687
G3 X4.5373 Y34.2252 I5.3032 J-3.5742
G1 X4.2943 Y33.7479
G1 X3.5664 Y32.765
G3 X2.3223 Y30.1021 I5.3726 J-4.1322
G3 X2.5799 Y26.4635 I6.2431 J-1.3864
G1 X2.6897 Y26.0976
G3 X2.4483 Y25.1428 I228.319 J-58.246
G3 X2.2591 Y23.4016 I6.2033 J-1.5549
G1 X2.3002 Y21.9913
G3 X2.3176 Y21.6711 I6.3925 J0.1863
G3 X2.9356 Y15.5467 I5.8866 J-2.4993
G1 X3.8714 Y14.1866
G3 X6.1166 Y12.1763 I5.2686 J3.625
G1 X6.0894 Y12.098
G3 X5.8249 Y11.0615 I6.0426 J-2.0942
G1 X5.6858 Y10.2321
G3 X5.5991 Y9.0425 I6.3071 J-1.0577
G1 X5.6047 Y8.7721
G1 X5.447 Y9.2333
G2 X5.2292 Y10.2531 I4.1552 J1.4206
G3 X4.7167 Y12.2401 I-6.3733 J-0.5841
G1 X4.6633 Y12.3619
G2 X4.616 Y12.474 I4.0214 J1.7642
G3 X1.0893 Y15.9979 I-5.9298 J-2.4078
G1 F300.0 X4.0923 Y17.4525
G1 Z-5.6
G3 F780.0 X4.1424 Y17.3526 I3.5999 J1.7437
G1 X4.3719 Y16.9108
G3 X4.6264 Y16.487 I3.5498 J1.8436
G1 X5.5493 Y15.1456
G3 X7.4615 Y13.6597 I3.2953 J2.2673
G1 X8.1426 Y13.4087
G3 X8.5517 Y13.2824 I1.3832 J3.7532
G3 X8.0318 Y12.2737 I3.2595 J-2.3185
G1 X7.9296 Y11.9788
G3 X7.7641 Y11.3305 I3.7795 J-1.3098
G1 X7.45 Y9.4574
G3 X7.3958 Y8.7134 I3.9449 J-0.6616
G1 X7.3969 Y8.657
G3 X8.2222 Y6.3051 I3.9991 J0.0825
G3 X10.2737 Y3.7573 I54.9418 J42.141
G3 X11.0326 Y3.0638 I3.0554 J2.5816
G1 X11.1165 Y3.005
G3 X11.5739 Y2.7279 I2.2966 J3.275
G1 X13.3004 Y1.834
G3 X14.5264 Y1.4334 I1.8392 J3.5521
G1 X15.0924 Y1.3456
G3 X16.2503 Y1.3356 I0.6132 J3.9527
G1 X17.8916 Y1.5612
G1 X19.3377 Y1.6034
G3 X20.3357 Y1.7601 I-0.1165 J3.9983
G1 X21.1489 Y1.996
G1 X22.7272 Y2.4123
G3 X24.0036 Y3.005 I-1.0201 J3.8677
G1 X24.0875 Y3.0639
G3 X24.8463 Y3.7573 I-2.2966 J3.275
G3 X26.8979 Y6.3051 I-52.8985 J44.6953
G3 X27.7232 Y8.657 I-3.1739 J2.4344
G1 X27.7243 Y8.7134
G3 X27.6701 Y9.4574 I-3.9991 J0.0825
G1 X27.356 Y11.3305
G3 X27.3082 Y11.5704 I-3.9449 J-0.6616
G1 X27.265 Y11.7571
G3 X26.551 Y13.278 I-3.8971 J-0.9014
G3 X26.9775 Y13.4087 I-0.9567 J3.8839
G1 X27.6586 Y13.6597
G3 X29.5707 Y15.1456 I-1.3832 J3.7532
G1 X30.4937 Y16.487
G3 X30.7482 Y16.9108 I-3.2953 J2.2673
G1 X30.9777 Y17.3526
G3 X31.4277 Y19.2308 I-3.5498 J1.8436
G1 X31.4278 Y19.2463
G3 X31.426 Y19.3892 I-3.9999 J0.0224
G1 X31.4274 Y19.6291
G3 X30.9038 Y21.6302 I-3.9999 J0.0224
G1 X30.4387 Y22.5092
G1 X30.4668 Y23.4714
G3 X30.3488 Y24.5589 I-3.9983 J0.1165
G3 X30.0416 Y25.7708 I-195.5754 J-48.9393
G1 X30.2047 Y26.3141
G1 X30.5522 Y27.1738
G3 X30.5653 Y30.1392 I-3.7084 J1.4991
G3 X30.0777 Y31.2745 I-3.875 J-0.9922
G1 X29.6486 Y31.9577
G3 X29.4758 Y32.2107 I-3.3873 J-2.1275
G1 X28.9862 Y32.8718
G1 X28.6888 Y33.4559
G3 X28.3214 Y34.0448 I-3.5645 J-1.815
G1 X27.9504 Y34.5381
G3 X27.8394 Y34.679 I-3.1971 J-2.4039
G1 X26.9976 Y35.6999
G3 X26.5412 Y36.1691 I-3.086 J-2.5449
G1 X25.0174 Y37.4986
G3 X24.6273 Y37.7987 I-2.6297 J-3.0141
G1 X24.2167 Y38.0762
G3 X23.4707 Y38.4726 I-2.2396 J-3.3143
G1 X23.1831 Y38.5884
G3 X23.0914 Y38.624 I-1.4935 J-3.7107
G1 X21.5099 Y39.2158
G3 X20.8708 Y39.3961 I-1.4019 J-3.7463
G1 X19.5742 Y39.648
G3 X19.3712 Y39.6821 I-0.7629 J-3.9266
G1 X18.1199 Y39.8589
G3 X17.0002 I-0.5598 J-3.9606
G1 X15.7489 Y39.6821
G3 X15.5459 Y39.648 I0.5598 J-3.9606
G1 X14.2492 Y39.3961
G3 X13.6102 Y39.2158 I0.7629 J-3.9266
G1 X12.0286 Y38.624
G3 X11.937 Y38.5884 I1.4019 J-3.7463
G1 X11.6494 Y38.4726
G3 X10.9034 Y38.0762 I1.4935 J-3.7107
G1 X10.4927 Y37.7987
G3 X10.1026 Y37.4986 I2.2396 J-3.3143
G1 X8.5788 Y36.1691
G3 X8.1225 Y35.6999 I2.6297 J-3.0141
G1 X7.2806 Y34.679
G3 X7.1696 Y34.5381 I3.086 J-2.5449
G1 X6.7987 Y34.0448
G3 X6.4312 Y33.4559 I3.1971 J-2.4039
G1 X6.1338 Y32.8718
G1 X5.6443 Y32.2107
G3 X5.4715 Y31.9577 I3.2146 J-2.3805
G1 X5.0424 Y31.2745
G3 X4.5547 Y30.1392 I3.3873 J-2.1275
G3 X4.5679 Y27.1738 I3.7216 J-1.4663
G1 X4.9154 Y26.3141
G1 X5.0785 Y25.7708
G3 X4.7712 Y24.5589 I195.2923 J-50.1573
G3 X4.6533 Y23.4714 I3.8804 J-0.971
G1 X4.6813 Y22.5092
G1 X4.1591 Y21.5221
G3 X3.6949 Y19.674 I3.5357 J-1.8706
G1 X3.6923 Y19.2186
G3 X4.0923 Y17.4525 I3.9999 J-0.0224
G0 Z3.0
G0 X4.5855 Y12.6424
G0 Z-4.7
G1 F300.0 Z-5.6
G2 F780.0 X4.6462 Y12.497 I-5.8746 J-2.5395
G3 X4.6969 Y12.3767 I4.0385 J1.629
G1 X4.7527 Y12.2494
G2 X5.2194 Y10.6386 I-5.8608 J-2.5711
G1 X5.4019 Y11.7267
G2 X5.4521 Y11.9918 I6.3071 J-1.0577
G2 X4.5855 Y12.6424 I3.3925 J5.4212
G0 Z3.0
G0 X-1.2706 Y27.2202
G0 Z-4.7
G1 F300.0 Z-5.6
G3 F780.0 X-0.4375 Y27.479 I-2.1903 J8.5231
G3 X0.0692 Y25.5109 I8.7138 J1.194
G3 X-0.1434 Y23.6412 I8.5824 J-1.9229
G3 X-0.7343 Y22.1628 I7.8382 J-3.9897
G0 Z3.0
G0 X-1.0865 Y29.8001
G0 Z-4.7
G1 F300.0 Z-5.6
G3 F780.0 X2.5097 Y33.4385 I-2.3744 J5.9432
G1 X2.7579 Y34.0815
G2 X3.3917 Y35.1979 I4.0625 J-1.5682
G1 X3.5618 Y35.4151
G2 X3.7709 Y35.6626 I3.4287 J-2.6847
G1 X5.5211 Y37.5844
G2 X6.2074 Y38.1942 I3.2196 J-2.9321
G1 X6.4936 Y38.399
G2 X6.6339 Y38.4952 I2.5333 J-3.542
G1 X9.0114 Y40.059
G2 X9.8591 Y40.4921 I2.3931 J-3.6382
G2 X12.5281 Y41.495 I152.3848 J-401.4566
G2 X12.8899 Y41.6119 I1.5183 J-4.0814
G1 X14.1584 Y41.9614
G2 X15.0466 Y42.1094 I1.1565 J-4.1983
G1 X16.3985 Y42.1929
G1 X15.4137 Y42.0537
G3 X15.0891 Y41.9993 I0.8951 J-6.3323
G1 X13.7924 Y41.7474
G3 X12.7707 Y41.4591 I1.2197 J-6.2778
G1 X11.1892 Y40.8672
G3 X11.0427 Y40.8104 I2.2414 J-5.9896
G1 X10.7551 Y40.6946
G3 X9.5623 Y40.0608 I2.3879 J-5.9327
G1 X9.1517 Y39.7833
G3 X8.528 Y39.3034 I3.5806 J-5.2988
G1 X7.0042 Y37.974
G3 X6.2745 Y37.2237 I4.2043 J-4.819
G1 X5.4327 Y36.2029
G3 X5.2552 Y35.9776 I4.934 J-4.0687
G1 X4.8843 Y35.4842
G3 X4.2968 Y34.5427 I5.1114 J-3.8434
G1 X4.0901 Y34.1367
G1 X3.7194 Y33.6361
G3 X3.4432 Y33.2316 I5.1394 J-3.8059
G1 X3.0141 Y32.5484
G3 X2.2731 Y30.8776 I5.4156 J-3.4014
G3 X2.3472 Y26.2761 I6.0032 J-2.2047
G1 X2.5853 Y25.6872
G3 X2.4477 Y25.1403 I197.7854 J-50.0737
G3 X2.2591 Y23.4016 I6.2039 J-1.5524
G1 X2.2688 Y23.0709
G1 X2.042 Y22.6422
G3 X1.2997 Y19.6874 I5.6528 J-2.9907
G1 X1.2971 Y19.2321
G3 X2.0168 Y16.2487 I6.3951 J-0.0359
G1 X2.2463 Y15.8068
G3 X2.6309 Y15.1619 I5.6755 J2.9475
G3 X1.1102 Y16.0361 I-3.9199 J-5.0591
G0 Z3.0
G0 X-1.2311 Y27.1872
G0 Z-5.4
G1 F300.0 Z-6.3
G3 F780.0 X-0.7126 Y27.3385 I-2.2046 J8.5194
G3 X-0.1669 Y25.3339 I8.6998 J1.2916
G1 X-0.0388 Y25.017
G3 X-0.8454 Y23.1705 I7.6035 J-4.4207
G0 Z3.0
G0 X-1.0563 Y29.7654
G0 Z-5.4
G1 F300.0 Z-6.3
G3 F780.0 X2.5349 Y33.4018 I-2.3794 J5.9412
G1 X2.7921 Y34.0683
G2 X3.4206 Y35.1753 I4.0283 J-1.555
G1 X3.5907 Y35.3925
G2 X3.798 Y35.6379 I3.3998 J-2.662
G1 X5.5482 Y37.5597
G2 X6.2287 Y38.1644 I3.1925 J-2.9074
G1 X6.515 Y38.3691
G2 X6.654 Y38.4645 I2.512 J-3.5121
G1 X8.2238 Y39.497
G3 X7.6061 Y39.0212 I3.5866 J-5.2948
G1 X6.9524 Y38.4509
G3 X6.2227 Y37.7007 I4.2043 J-4.819
G1 X5.8616 Y37.2627
G3 X5.6841 Y37.0374 I4.934 J-4.0687
G1 X4.4106 Y35.3437
G3 X3.891 Y34.5319 I5.1114 J-3.8434
G3 X3.6522 Y34.1784 I5.1768 J-3.7549
G1 X2.8562 Y32.911
G3 X2.0913 Y31.1525 I5.4156 J-3.4014
G1 X2.0577 Y31.0264
G1 X2.0412 Y30.9845
G3 X2.0582 Y26.2333 I5.9461 J-2.3543
G1 X2.4677 Y25.2203
G3 X2.4471 Y25.138 I175.9208 J-44.0378
G3 X2.2865 Y24.2073 I6.2045 J-1.5501
G3 X1.2446 Y19.619 I5.2782 J-3.611
G1 X1.2408 Y18.9392
G3 X1.9604 Y15.9558 I6.3951 J-0.0359
G1 X2.1794 Y15.5341
G3 X1.131 Y16.0744 I-3.4437 J-5.3945
G0 Z3.0
G0 X-1.1917 Y27.1542
G0 Z-6.1
G1 F300.0 Z-7.0
G3 F780.0 X-0.9885 Y27.2098 I-2.2188 J8.5157
G3 X-0.456 Y25.2911 I8.6866 J1.3776
G1 X-0.2984 Y24.9013
G3 X-0.885 Y23.6917 I7.5972 J-4.4315
G0 Z3.0
G0 X29.6679 Y11.9918
G0 Z-4.7
G1 F300.0 Z-5.6
G2 F780.0 X29.7182 Y11.7267 I-6.2569 J-1.3228
G1 X29.9006 Y10.6386
G2 X30.3673 Y12.2494 I6.3275 J-0.9603
G1 X30.4232 Y12.3767
G3 X30.4803 Y12.5132 I-3.9878 J1.7494
G2 X30.5328 Y12.6408 I5.9448 J-2.3705
G2 X29.6679 Y11.9918 I-4.2574 J4.7721
G0 Z3.0
G0 X35.8551 Y22.1676
G0 Z-4.7
G1 F300.0 Z-5.6
G3 F780.0 X35.2635 Y23.6455 I-8.4276 J-2.516
G3 X35.0509 Y25.5109 I-8.795 J-0.0576
G3 X35.4914 Y27.0684 I-8.2071 J3.1621
G3 X36.0959 Y26.8503 I3.2872 J8.163
G2 X36.353 Y26.7474 I-0.5959 J-1.8616
G0 Z3.0
G0 X34.0334 Y16.079
G0 Z-4.7
G1 F300.0 Z-5.6
G3 F780.0 X32.5275 Y15.219 I2.3917 J-5.9363
G3 X32.8738 Y15.8068 I-5.3292 J3.5353
G1 X33.1033 Y16.2487
G3 X33.8229 Y19.2325 I-5.6755 J2.9475
G1 Y19.2328
G3 X33.8214 Y19.4136 I-6.3951 J0.0359
G1 X33.8225 Y19.6157
G3 X33.0057 Y22.7791 I-6.3951 J0.0359
G1 X32.8513 Y23.0709
G1 X32.861 Y23.4016
G3 X32.6724 Y25.1403 I-6.3925 J0.1863
G3 X32.5348 Y25.6872 I-197.899 J-49.5207
G1 X32.7728 Y26.2761
G3 X32.8469 Y30.8776 I-5.9291 J2.3968
G3 X32.106 Y32.5484 I-6.1566 J-1.7306
G1 X31.6769 Y33.2316
G3 X31.4007 Y33.6361 I-5.4156 J-3.4014
G1 X31.03 Y34.1367
G1 X30.8233 Y34.5427
G3 X30.2358 Y35.4842 I-5.6989 J-2.9019
G1 X29.8648 Y35.9776
G3 X29.6873 Y36.2029 I-5.1114 J-3.8434
G1 X28.8455 Y37.2237
G3 X28.1159 Y37.974 I-4.934 J-4.0687
G1 X26.5921 Y39.3034
G3 X25.9684 Y39.7833 I-4.2043 J-4.819
G1 X25.5578 Y40.0608
G3 X24.365 Y40.6946 I-3.5806 J-5.2988
G1 X24.0774 Y40.8104
G3 X23.9309 Y40.8672 I-2.3879 J-5.9327
G1 X22.3494 Y41.4591
G3 X21.3276 Y41.7474 I-2.2414 J-5.9896
G1 X20.031 Y41.9993
G3 X19.7064 Y42.0537 I-1.2197 J-6.2778
G1 X18.7216 Y42.1929
G1 X20.0735 Y42.1094
G2 X20.9616 Y41.9614 I-0.2683 J-4.3464
G1 X22.2301 Y41.6119
G2 X22.5919 Y41.4951 I-1.1565 J-4.1983
G2 X25.261 Y40.4921 I-149.6134 J-402.1873
G2 X26.1087 Y40.059 I-1.5454 J-4.0712
G1 X28.4862 Y38.4952
G2 X28.6264 Y38.399 I-2.3931 J-3.6382
G1 X28.9127 Y38.1942
G2 X29.599 Y37.5844 I-2.5333 J-3.542
G1 X31.3492 Y35.6626
G2 X31.5582 Y35.4151 I-3.2196 J-2.9321
G1 X31.7283 Y35.1979
G2 X32.3622 Y34.0815 I-3.4287 J-2.6847
G1 X32.808 Y32.9265
G3 X36.3059 Y29.3283 I5.9706 J2.3048
G0 Z3.0
G0 X31.1213 Y28.9337
G0 Z-5.4
G1 F300.0 Z-6.3
G3 F780.0 X30.8519 Y30.1027 I-3.9885 J-0.3036
G1 X30.7836 Y30.2753
G1 X30.714 Y30.5372
G3 X30.2355 Y31.6371 I-3.8658 J-1.0276
G1 X29.4395 Y32.9045
G3 X29.2668 Y33.1575 I-3.3873 J-2.1275
G1 X29.1905 Y33.2606
G1 X29.1626 Y33.3153
G3 X28.7951 Y33.9042 I-3.5645 J-1.815
G1 X27.5216 Y35.5979
G3 X27.4106 Y35.7388 I-3.1971 J-2.4039
G1 X27.0495 Y36.1768
G3 X26.5931 Y36.646 I-3.086 J-2.5449
G1 X25.9394 Y37.2164
G3 X25.5493 Y37.5165 I-2.6297 J-3.0141
G1 X24.2175 Y38.4165
G3 X23.5184 Y38.7936 I-2.2396 J-3.3143
G3 X21.522 Y39.5698 I-16.7901 J-40.233
G3 X20.9275 Y39.7337 I-1.3574 J-3.7627
G1 X18.901 Y40.1274
G3 X18.698 Y40.1615 I-0.7629 J-3.9266
G1 X18.1199 Y40.2432
G3 X17.0002 I-0.5598 J-3.9606
G1 X16.4221 Y40.1615
G3 X16.2191 Y40.1274 I0.5598 J-3.9606
G1 X14.1926 Y39.7337
G3 X13.5981 Y39.5698 I0.7629 J-3.9266
G3 X11.6016 Y38.7936 I14.7936 J-41.0087
G3 X10.9026 Y38.4165 I1.5405 J-3.6914
G1 X9.5708 Y37.5165
G3 X9.1807 Y37.2164 I2.2396 J-3.3143
G1 X8.527 Y36.646
G3 X8.0706 Y36.1768 I2.6297 J-3.0141
G1 X7.7095 Y35.7388
G3 X7.5985 Y35.5979 I3.086 J-2.5449
G1 X6.325 Y33.9042
G3 X5.9575 Y33.3153 I3.1971 J-2.4039
G1 X5.9296 Y33.2606
G1 X5.8533 Y33.1575
G3 X5.6805 Y32.9045 I3.2146 J-2.3805
G1 X4.8845 Y31.6371
G3 X4.4061 Y30.5372 I3.3873 J-2.1275
G1 X4.3365 Y30.2753
G1 X4.2681 Y30.1027
G3 X4.2788 Y27.131 I3.7191 J-1.4726
G1 X4.9816 Y25.3924
G3 X4.7709 Y24.5574 I173.4068 J-44.2099
G3 X4.6533 Y23.4714 I3.8807 J-0.9695
G1 X4.657 Y23.3433
G3 X3.6409 Y19.8189 I2.9076 J-2.747
G1 X3.6359 Y18.9258
G3 X4.086 Y17.0598 I3.9999 J-0.0224
G1 X4.9456 Y15.4047
G3 X5.4575 Y14.6461 I3.5498 J1.8436
G1 X5.5793 Y14.5039
G3 X7.7286 Y13.206 I3.0379 J2.6021
G3 X7.3877 Y12.1456 I3.6005 J-1.7426
G3 X7.0338 Y10.0002 I134.9161 J-23.354
G3 X7.3459 Y7.7215 I3.9517 J-0.6196
G1 X7.6369 Y7.083
G3 X7.8694 Y6.6467 I3.6397 J1.6591
G1 X8.3314 Y5.8954
G3 X8.5639 Y5.5575 I3.4073 J2.0953
G3 X9.673 Y4.179 I29.7255 J22.7818
G3 X10.4328 Y3.4844 I3.0564 J2.5804
G1 X11.1165 Y3.005
G3 X11.5739 Y2.7279 I2.2966 J3.275
G1 X13.3004 Y1.834
G3 X14.5264 Y1.4334 I1.8392 J3.5521
G1 X15.0924 Y1.3456
G3 X16.2503 Y1.3356 I0.6132 J3.9527
G1 X17.8916 Y1.5612
G1 X19.3377 Y1.6034
G3 X20.3357 Y1.7601 I-0.1165 J3.9983
G1 X21.1489 Y1.996
G1 X22.7272 Y2.4123
G3 X24.0036 Y3.005 I-1.0201 J3.8677
G1 X24.6873 Y3.4844
G3 X25.4471 Y4.179 I-2.2966 J3.275
G3 X26.5562 Y5.5575 I-28.6207 J24.1636
G3 X26.7887 Y5.8954 I-3.1748 J2.4332
G1 X27.2507 Y6.6467
G3 X27.4831 Y7.083 I-3.4073 J2.0953
G1 X27.7742 Y7.7215
G3 X28.0862 Y10.0002 I-3.6397 J1.6591
G3 X27.7324 Y12.1456 I-135.2588 J-21.2069
G3 X27.3915 Y13.206 I-3.9414 J-0.6823
G3 X29.5408 Y14.5039 I-0.8886 J3.9
G1 X29.6626 Y14.6461
G3 X30.1745 Y15.4047 I-3.0379 J2.6021
G1 X31.034 Y17.0598
G3 X31.4828 Y19.0107 I-3.5498 J1.8436
G1 X31.4842 Y19.2566
G3 X31.478 Y19.5022 I-3.9999 J0.0224
G1 X31.4798 Y19.8221
G3 X30.463 Y23.3433 I-3.9244 J0.7742
G1 X30.4668 Y23.4714
G3 X30.3492 Y24.5574 I-3.9983 J0.1165
G3 X30.1385 Y25.3924 I-173.5962 J-43.3695
G1 X30.8413 Y27.131
G3 X31.1213 Y28.9337 I-3.7084 J1.4991
G0 Z3.0
G0 X35.9655 Y23.1705
G0 Z-5.4
G1 F300.0 Z-6.3
G3 F780.0 X35.1589 Y25.017 I-8.4101 J-2.5742
G1 X35.287 Y25.3339
G3 X35.7612 Y26.9251 I-8.1541 J3.2963
G3 X36.0817 Y26.8163 I2.9895 J8.2767
G2 X36.3144 Y26.7251 I-0.5817 J-1.8276
G0 Z3.0
G0 X34.0114 Y16.1151
G0 Z-5.4
G1 F300.0 Z-6.3
G3 F780.0 X32.9625 Y15.5762 I2.388 J-5.9378
G1 X33.1597 Y15.9558
G3 X33.8781 Y19.0316 I-5.6755 J2.9475
G1 X33.8793 Y19.2432
G3 X33.8735 Y19.5538 I-6.3951 J0.0359
G1 X33.8738 Y19.6081
G3 X32.8336 Y24.2073 I-6.3184 J0.9882
G3 X32.673 Y25.138 I-6.3651 J-0.6194
G3 X32.6524 Y25.2203 I-175.92 J-43.95
G1 X33.0619 Y26.2333
G3 X33.0789 Y30.9845 I-5.9291 J2.3968
G1 X33.0623 Y31.0264
G1 X33.0288 Y31.1525
G3 X32.2639 Y32.911 I-6.1806 J-1.6429
G1 X31.4679 Y34.1784
G3 X31.2291 Y34.5319 I-5.4156 J-3.4014
G3 X30.7095 Y35.3437 I-5.631 J-3.0316
G1 X29.436 Y37.0374
G3 X29.2585 Y37.2627 I-5.1114 J-3.8434
G1 X28.8974 Y37.7007
G3 X28.1677 Y38.4509 I-4.934 J-4.0687
G1 X27.514 Y39.0212
G3 X26.8963 Y39.497 I-4.2043 J-4.819
G1 X28.466 Y38.4645
G2 X28.6051 Y38.3691 I-2.3729 J-3.6075
G1 X28.8913 Y38.1644
G2 X29.5718 Y37.5597 I-2.512 J-3.5121
G1 X31.322 Y35.6379
G2 X31.5294 Y35.3925 I-3.1925 J-2.9074
G1 X31.6995 Y35.1753
G2 X32.3279 Y34.0683 I-3.3998 J-2.662
G1 X32.7801 Y32.8969
G3 X36.274 Y29.3004 I5.9706 J2.3048
G0 Z3.0
G0 X31.409 Y28.9085
G0 Z-6.1
G1 F300.0 Z-7.0
G3 F780.0 X31.141 Y30.0599 I-3.9871 J-0.3212
G1 X31.0014 Y30.4126
G1 X30.8719 Y30.8998
G3 X30.3934 Y31.9997 I-3.8658 J-1.0276
G1 X29.4928 Y33.4337
G3 X29.2036 Y33.9111 I-14.9143 J-8.7089
G3 X29.0033 Y34.2007 I-3.3872 J-2.1276
G1 X27.3573 Y36.371
G3 X26.7017 Y37.0508 I-3.187 J-2.4172
G3 X25.8546 Y37.651 I-4.7727 J-5.8389
G1 X24.2182 Y38.7567
G3 X23.4722 Y39.1532 I-2.2396 J-3.3143
G1 X21.8942 Y39.7883
G3 X21.8026 Y39.8239 I-1.4935 J-3.7107
G1 X21.6233 Y39.891
G3 X21.0272 Y40.0627 I-1.4019 J-3.7463
G3 X18.461 Y40.5488 I-16.8253 J-81.8087
G3 X16.6591 I-0.901 J-4.1386
G3 X14.0929 Y40.0627 I14.2592 J-82.2949
G3 X13.4968 Y39.891 I0.8058 J-3.918
G1 X13.3175 Y39.8239
G3 X13.2259 Y39.7883 I1.4019 J-3.7463
G1 X11.6479 Y39.1532
G3 X10.9018 Y38.7567 I1.4935 J-3.7107
G1 X9.2655 Y37.651
G3 X8.4183 Y37.0508 I3.9255 J-6.4391
G3 X7.7628 Y36.371 I2.5315 J-3.097
G1 X6.1167 Y34.2007
G3 X5.9165 Y33.9111 I3.187 J-2.4172
G3 X5.6273 Y33.4337 I14.6252 J-9.1864
G1 X4.7266 Y31.9997
G3 X4.2482 Y30.8998 I3.3873 J-2.1275
G1 X4.1187 Y30.4126
G1 X3.9791 Y30.0599
G3 X3.9897 Y27.0882 I3.7191 J-1.4726
G1 X4.8634 Y24.9269
G3 X4.7704 Y24.5554 I149.9733 J-37.7777
G3 X4.6533 Y23.4714 I3.8812 J-0.9675
G1 Y23.4701
G3 X3.3975 Y19.5867 I2.6455 J-3.0003
G1 X3.5803 Y18.779
G1 X3.5795 Y18.6329
G3 X4.0296 Y16.7669 I3.9999 J-0.0224
G1 X4.416 Y16.023
G3 X4.9279 Y15.2645 I3.5498 J1.8436
G1 X5.5793 Y14.5039
G3 X7.0876 Y13.41 I3.0379 J2.6021
G3 X7.0064 Y12.8087 I3.912 J-0.8346
G3 X6.967 Y12.6137 I3.9 J-0.8888
G3 X6.6398 Y10.6652 I122.5286 J-21.5801
G3 X6.95 Y8.375 I3.9499 J-0.6312
G1 X7.5529 Y7.0523
G3 X7.7853 Y6.6161 I3.6397 J1.6591
G1 X8.726 Y5.0864
G3 X9.0382 Y4.6478 I3.4073 J2.0953
G1 X9.0464 Y4.6378
G3 X9.8449 Y3.8967 I3.095 J2.5339
G1 X11.1165 Y3.005
G3 X11.5739 Y2.7279 I2.2966 J3.275
G1 X13.3004 Y1.834
G3 X14.5264 Y1.4334 I1.8392 J3.5521
G1 X15.0924 Y1.3456
G3 X16.2503 Y1.3356 I0.6132 J3.9527
G1 X17.8916 Y1.5612
G1 X19.3377 Y1.6034
G3 X20.3357 Y1.7601 I-0.1165 J3.9983
G1 X21.1489 Y1.996
G1 X22.7272 Y2.4123
G3 X24.0036 Y3.005 I-1.0201 J3.8677
G1 X25.2752 Y3.8967
G3 X26.0736 Y4.6378 I-2.2966 J3.275
G1 X26.0818 Y4.6478
G3 X26.3941 Y5.0864 I-3.095 J2.5339
G1 X27.3348 Y6.6161
G3 X27.5672 Y7.0523 I-3.4073 J2.0953
G1 X28.1701 Y8.375
G3 X28.4803 Y10.6652 I-3.6397 J1.6591
G3 X28.1531 Y12.6137 I-122.846 J-19.6301
G3 X28.1137 Y12.8087 I-3.9394 J-0.6938
G3 X28.0325 Y13.41 I-3.9932 J-0.2332
G3 X29.5408 Y14.5039 I-1.5296 J3.696
G1 X30.1922 Y15.2645
G3 X30.7041 Y16.023 I-3.0379 J2.6021
G1 X31.0904 Y16.7669
G3 X31.5381 Y18.7527 I-3.5498 J1.8436
G1 X31.5382 Y18.7722
G1 X31.7226 Y19.5867
G3 X30.4667 Y23.4701 I-3.9013 J0.8831
G1 X30.4668 Y23.4714
G3 X30.3497 Y24.5554 I-3.9983 J0.1165
G3 X30.2566 Y24.9269 I-150.0481 J-37.4015
G1 X31.1304 Y27.0882
G3 X31.409 Y28.9085 I-3.7084 J1.4991
G0 Z3.0
G0 X36.0051 Y23.6917
G0 Z-6.1
G1 F300.0 Z-7.0
G3 F780.0 X35.4185 Y24.9013 I-8.1838 J-3.2219
G1 X35.5761 Y25.2911
G3 X36.0322 Y26.7935 I-8.1541 J3.2963
G3 X36.0676 Y26.7822 I2.6905 J8.3786
G2 X36.2758 Y26.7025 I-0.5676 J-1.7936
G0 Z3.0
G0 X33.9894 Y16.1513
G0 Z-6.1
G1 F300.0 Z-7.0
G3 F780.0 X33.2968 Y15.8239 I2.3843 J-5.9393
G3 X33.9351 Y18.5118 I-5.7562 J2.7866
G1 X34.0587 Y19.0578
G3 X32.8008 Y24.4827 I-6.2374 J1.412
G3 X32.7608 Y24.7305 I-6.3323 J-0.8948
G1 X33.351 Y26.1906
G3 X33.368 Y30.9417 I-5.9291 J2.3968
G1 X33.2801 Y31.1637
G1 X33.1867 Y31.5151
G3 X32.4218 Y33.2736 I-6.1806 J-1.6429
G1 X31.541 Y34.6759
G3 X31.2318 Y35.1851 I-16.9625 J-9.9512
G3 X30.9117 Y35.6481 I-5.4155 J-3.4016
G1 X29.2758 Y37.8051
G2 X29.5447 Y37.535 I-2.8964 J-3.1529
G1 X31.2949 Y35.6132
G2 X31.5005 Y35.3699 I-3.1654 J-2.8827
G1 X31.6706 Y35.1526
G2 X32.2937 Y34.0551 I-3.3709 J-2.6394
G1 X32.7522 Y32.8673
G3 X36.242 Y29.2725 I5.9706 J2.3048
G0 Z3.0
G0 X36.0287 Y24.1231
G0 Z-6.8
G1 F300.0 Z-7.7
G3 F780.0 X35.6781 Y24.7855 I-7.9416 J-3.7798
G1 X35.8651 Y25.2483
G3 X36.2035 Y26.2571 I-8.1541 J3.2963
G0 Z3.0
G0 X32.1091 Y34.3854
G0 Z-6.8
G1 F300.0 Z-7.7
G3 F780.0 X31.7539 Y34.9801 I-3.8095 J-1.8721
G2 X32.0103 Y34.5427 I-51.028 J-30.2121
G1 X32.1091 Y34.3854
G0 Z3.0
G0 X33.9675 Y16.1876
G0 Z-6.8
G1 F300.0 Z-7.7
G3 F780.0 X33.5493 Y16.0024 I2.3804 J-5.9408
G3 X33.9161 Y17.1272 I-5.8706 J2.5368
G1 X34.3245 Y18.9313
G3 X32.9654 Y24.4787 I-6.2374 J1.412
G1 X32.966 Y24.4805
G1 X33.6401 Y26.1478
G3 X33.6571 Y30.8989 I-5.9291 J2.3968
G1 X33.4979 Y31.301
G1 X33.4526 Y31.4712
G3 X36.2099 Y29.2446 I5.2423 J3.6713
G0 Z3.0
G0 X36.0278 Y24.5125
G0 Z-7.5
G1 F300.0 Z-8.4
G3 F780.0 X35.9376 Y24.6697 I-7.6748 J-4.2957
G1 X36.0655 Y24.986
G0 Z3.0
G0 X-1.0262 Y29.7307
G0 Z-6.1
G1 F300.0 Z-7.0
G3 F780.0 X2.56 Y33.3651 I-2.3844 J5.9393
G1 X2.8264 Y34.0551
G2 X3.4495 Y35.1527 I3.994 J-1.5418
G1 X3.6196 Y35.3699
G2 X3.8252 Y35.6132 I3.3709 J-2.6394
G1 X5.5753 Y37.535
G2 X5.8443 Y37.8051 I3.1654 J-2.8827
G1 X4.2083 Y35.6481
G3 X3.8882 Y35.1851 I5.0954 J-3.8646
G3 X3.5791 Y34.6759 I16.6535 J-10.4604
G1 X2.6983 Y33.2736
G3 X1.9334 Y31.5151 I5.4156 J-3.4014
G1 X1.84 Y31.1637
G1 X1.7521 Y30.9417
G3 X1.7691 Y26.1906 I5.9461 J-2.3543
G1 X2.3593 Y24.7305
G3 X2.3193 Y24.4827 I6.2923 J-1.1426
G3 X1.0614 Y19.0578 I4.9795 J-4.0129
G1 X1.185 Y18.5118
G3 X1.842 Y15.7856 I6.3944 J0.0986
G3 X1.1518 Y16.1127 I-3.0814 J-5.6094
G1 F300.0 X3.7095 Y17.0994
G1 Z-7.7
G3 F780.0 X3.9344 Y16.6152 I3.7319 J1.4397
G1 X4.0265 Y16.4474
G3 X4.4955 Y15.7692 I3.5069 J1.9239
G1 X5.5793 Y14.5039
G3 X6.5765 Y13.6657 I3.0379 J2.6021
G2 X6.6164 Y13.538 I-176.1246 J-55.1281
G1 X6.545 Y12.8396
G1 X6.2813 Y11.4511
G3 X6.4902 Y9.2365 I3.9297 J-0.7465
G1 X6.6514 Y8.8278
G3 X6.7325 Y8.6368 I3.7208 J1.4682
G1 X7.4688 Y7.0217
G3 X7.7012 Y6.5854 I3.6397 J1.6591
G1 X8.3125 Y5.5915
G3 X8.6247 Y5.1529 I3.4073 J2.0953
G1 X9.0464 Y4.6378
G3 X9.8449 Y3.8967 I3.095 J2.5339
G1 X11.1165 Y3.005
G3 X11.5739 Y2.7279 I2.2966 J3.275
G1 X13.3004 Y1.834
G3 X14.5264 Y1.4334 I1.8392 J3.5521
G1 X15.0924 Y1.3456
G3 X16.2503 Y1.3356 I0.6132 J3.9527
G1 X17.8916 Y1.5612
G1 X19.3377 Y1.6034
G3 X20.3357 Y1.7601 I-0.1165 J3.9983
G1 X21.1489 Y1.996
G1 X22.7272 Y2.4123
G3 X24.0036 Y3.005 I-1.0201 J3.8677
G1 X25.2752 Y3.8967
G3 X26.0736 Y4.6378 I-2.2966 J3.275
G1 X26.4953 Y5.1529
G3 X26.8076 Y5.5915 I-3.095 J2.5339
G1 X27.4188 Y6.5854
G3 X27.6513 Y7.0217 I-3.4073 J2.0953
G1 X28.2927 Y8.4288
G3 X28.7181 Y9.4568 I-3.4475 J2.0285
G1 X28.782 Y9.7042
G3 X28.8388 Y11.4511 I-3.8729 J1.0004
G1 X28.5751 Y12.8396
G1 X28.5037 Y13.538
G2 X28.5436 Y13.6658 I176.156 J-54.9977
G3 X29.5408 Y14.5039 I-2.0408 J3.4402
G1 X30.6246 Y15.7692
G3 X31.0936 Y16.4474 I-3.0379 J2.6021
G1 X31.1856 Y16.6153
G3 X31.58 Y17.656 I-3.5069 J1.9239
G1 X31.9884 Y19.4602
G3 X30.4684 Y23.5573 I-3.9013 J0.8831
G3 X30.3861 Y24.3954 I-3.9999 J0.0306
G2 X30.7314 Y25.3434 I126.549 J-45.5564
G1 X31.4194 Y27.0455
G3 X31.4301 Y30.0172 I-3.7084 J1.4991
G1 X31.2191 Y30.5499
G1 X31.0298 Y31.2624
G3 X30.5513 Y32.3623 I-3.8658 J-1.0276
G1 X29.9596 Y33.3044
G3 X28.9143 Y35.0361 I-49.2338 J-28.5364
G3 X28.7141 Y35.3258 I-3.3872 J-2.1276
G1 X28.0325 Y36.2245
G3 X27.226 Y37.0217 I-3.187 J-2.4172
G1 X25.8597 Y38.0335
G3 X25.5965 Y38.2127 I-2.3805 J-3.2145
G1 X24.6986 Y38.7729
G1 X24.219 Y39.097
G3 X23.473 Y39.4934 I-2.2396 J-3.3143
G1 X22.8121 Y39.7594
G3 X22.5708 Y39.8477 I-1.4935 J-3.7107
G1 X21.493 Y40.2029
G3 X20.931 Y40.3439 I-1.2522 J-3.799
G2 X18.2709 Y40.8171 I88.6206 J505.9211
G3 X16.8492 I-0.7109 J-3.9363
G2 X14.189 Y40.3439 I-91.2814 J505.4519
G3 X13.627 Y40.2029 I0.6902 J-3.94
G1 X12.5493 Y39.8477
G3 X12.308 Y39.7594 I1.2522 J-3.799
G1 X11.6471 Y39.4934
G3 X10.9011 Y39.097 I1.4935 J-3.7107
G1 X10.4214 Y38.7729
G1 X9.5236 Y38.2127
G3 X9.2603 Y38.0335 I2.1173 J-3.3937
G1 X7.8941 Y37.0217
G3 X7.0876 Y36.2244 I2.3805 J-3.2145
G1 X6.406 Y35.3257
G3 X6.1839 Y35.0009 I3.187 J-2.4172
G1 X5.6108 Y34.0672
G3 X5.5486 Y33.9624 I3.4091 J-2.0924
G2 X4.6048 Y32.4186 I-27.314 J15.6391
G3 X4.0903 Y31.2624 I3.3513 J-2.1837
G1 X3.9009 Y30.5499
G1 X3.69 Y30.0172
G3 X3.7006 Y27.0455 I3.7191 J-1.4726
G1 X4.3887 Y25.3434
G2 X4.734 Y24.3954 I-126.2098 J-46.5066
G3 X4.6517 Y23.5573 I3.9176 J-0.8075
G3 X3.1317 Y19.4602 I2.3812 J-3.214
G1 X3.5401 Y17.656
G3 X3.7095 Y17.0994 I3.9013 J0.8831
G0 Z3.0
G0 X-1.0835 Y26.2571
G0 Z-6.8
G1 F300.0 Z-7.7
G3 F780.0 X-0.7451 Y25.2483 I8.4925 J2.2875
G1 X-0.558 Y24.7855
G3 X-0.9086 Y24.1231 I7.5909 J-4.4422
G0 Z3.0
G0 X-0.996 Y29.696
G0 Z-6.8
G1 F300.0 Z-7.7
G3 F780.0 X1.7633 Y31.8318 I-2.3894 J5.9373
G1 X1.6222 Y31.301
G1 X1.463 Y30.8989
G3 X1.48 Y26.1478 I5.9461 J-2.3543
G1 X2.154 Y24.4805
G1 X2.1547 Y24.4786
G3 X0.7956 Y18.9313 I4.8783 J-4.1353
G1 X1.204 Y17.1272
G3 X1.5859 Y15.9677 I6.2374 J1.412
G3 X1.1727 Y16.1511 I-2.8004 J-5.7548
G0 Z3.0
G0 X-0.9454 Y24.986
G0 Z-7.5
G1 F300.0 Z-8.4
G1 F780.0 X-0.8175 Y24.6697
G3 X-0.9077 Y24.5125 I7.5847 J-4.4529
G0 Z3.0
G0 X33.9455 Y16.2239
G0 Z-7.5
G1 F300.0 Z-8.4
G3 F780.0 X33.6276 Y16.0867 I2.3765 J-5.9424
G1 X33.787 Y16.3771
G3 X34.4175 Y18.0411 I-5.6069 J3.0759
G1 X34.5903 Y18.8048
G3 X33.2541 Y24.325 I-6.2374 J1.412
G2 X33.6829 Y25.4959 I226.2797 J-82.2058
G1 X33.9291 Y26.105
G3 X33.9888 Y30.7454 I-5.9291 J2.3968
G3 X36.1778 Y29.2167 I4.6782 J4.3674
G0 Z3.0
G0 X3.3884 Y35.0109
G0 Z-6.8
G1 F300.0 Z-7.7
G3 F780.0 X2.9955 Y34.3536 I3.432 J-2.4977
G3 X3.3884 Y35.0109 I-24.7609 J15.2479
G1 F300.0 X5.1555 Y33.9649
G1 Z-8.4
G3 F780.0 X4.6941 Y33.1759 I73.8979 J-43.7417
G1 X4.4109 Y32.7249
G3 X3.9324 Y31.625 I3.3873 J-2.1275
G1 X3.6832 Y30.6873
G1 X3.4009 Y29.9744
G3 X3.4116 Y27.0027 I3.7191 J-1.4726
G1 X3.6715 Y26.3597
G2 X4.6522 Y23.6553 I-228.0958 J-84.2444
G3 X4.6517 Y23.6116 I3.9994 J-0.0674
G3 X2.8658 Y19.3336 I2.1154 J-3.3948
G1 X3.0387 Y18.5699
G3 X3.4331 Y17.5291 I3.9013 J0.8831
G1 X4.0265 Y16.4474
G3 X4.4955 Y15.7692 I3.5069 J1.9239
G1 X5.5793 Y14.5039
G3 X5.7276 Y14.3402 I3.0379 J2.6021
G2 X5.9 Y13.7941 I-138.75 J-44.1252
G1 X6.0959 Y12.9534
G1 X6.0888 Y12.8833
G1 X5.9538 Y12.1725
G3 X6.1627 Y9.9579 I3.9297 J-0.7465
G1 X6.9642 Y7.9265
G3 X7.0453 Y7.7356 I3.7208 J1.4682
G1 X7.3847 Y6.991
G3 X7.6172 Y6.5547 I3.6397 J1.6591
G1 X7.8989 Y6.0965
G3 X8.2112 Y5.6579 I3.4073 J2.0953
G1 X9.0464 Y4.6378
G3 X9.8449 Y3.8967 I3.095 J2.5339
G1 X11.1165 Y3.005
G3 X11.5739 Y2.7279 I2.2966 J3.275
G1 X13.3004 Y1.834
G3 X14.5264 Y1.4334 I1.8392 J3.5521
G1 X15.0924 Y1.3456
G3 X16.2503 Y1.3356 I0.6132 J3.9527
G1 X17.8916 Y1.5612
G1 X19.3377 Y1.6034
G3 X20.3357 Y1.7601 I-0.1165 J3.9983
G1 X21.1489 Y1.996
G1 X22.7272 Y2.4123
G3 X24.0036 Y3.005 I-1.0201 J3.8677
G1 X25.2752 Y3.8967
G3 X26.0736 Y4.6378 I-2.2966 J3.275
G1 X26.9089 Y5.6579
G3 X27.2211 Y6.0965 I-3.095 J2.5339
G1 X27.5029 Y6.5547
G3 X27.7353 Y6.991 I-3.4073 J2.0953
G1 X27.979 Y7.5256
G1 X28.3437 Y8.13
G3 X28.7919 Y9.1962 I-3.4247 J2.0667
G1 X29.1095 Y10.4256
G3 X29.1663 Y12.1725 I-3.8729 J1.0004
G1 X29.0313 Y12.8833
G1 X29.0241 Y12.9534
G1 X29.22 Y13.7941
G2 X29.3925 Y14.3402 I138.9158 J-43.5771
G3 X29.5408 Y14.5039 I-2.8897 J2.7658
G1 X30.6246 Y15.7692
G3 X31.0936 Y16.4474 I-3.0379 J2.6021
G1 X31.687 Y17.5292
G3 X32.0814 Y18.5699 I-3.5069 J1.9239
G1 X32.2543 Y19.3337
G3 X30.4684 Y23.6116 I-3.9013 J0.8831
G3 X30.4679 Y23.6553 I-3.9999 J-0.0237
G2 X31.4486 Y26.3597 I229.0659 J-81.536
G1 X31.7085 Y27.0027
G3 X31.7192 Y29.9744 I-3.7084 J1.4991
G1 X31.4369 Y30.6873
G1 X31.1876 Y31.625
G3 X30.7092 Y32.7249 I-3.8658 J-1.0276
G1 X30.4259 Y33.1759
G3 X28.833 Y35.8224 I-74.359 J-42.9525
G3 X27.9969 Y36.7774 I-3.3895 J-2.124
G1 X27.8115 Y36.9312
G3 X27.6481 Y37.0597 I-2.5533 J-3.079
G3 X25.4369 Y38.7002 I-397.214 J-533.0928
G3 X25.1775 Y38.8765 I-2.3767 J-3.2174
G1 X24.5941 Y39.2405
G3 X24.1243 Y39.4917 I-2.1173 J-3.3937
G3 X22.9798 Y39.947 I-5.5227 J-12.2183
G3 X22.9259 Y39.9652 I-1.3061 J-3.7808
G1 X21.4998 Y40.4352
G3 X20.94 Y40.5759 I-1.2522 J-3.799
G2 X18.2731 Y41.0518 I89.1425 J507.2071
G3 X16.8469 I-0.7131 J-3.9359
G2 X14.18 Y40.5759 I-91.8092 J506.7303
G3 X13.6203 Y40.4352 I0.6924 J-3.9396
G1 X12.1942 Y39.9652
G3 X12.1403 Y39.947 I1.2522 J-3.799
G3 X10.9957 Y39.4917 I4.3783 J-12.6738
G3 X10.526 Y39.2405 I1.6475 J-3.645
G1 X9.9425 Y38.8765
G3 X9.6832 Y38.7001 I2.1173 J-3.3937
G3 X7.472 Y37.0597 I395.013 J-534.7465
G3 X7.3086 Y36.9312 I2.39 J-3.2075
G1 X7.1232 Y36.7774
G3 X6.287 Y35.8224 I2.5533 J-3.079
G3 X5.1555 Y33.9649 I72.7664 J-45.5992
G0 Z3.0
G0 X-0.9659 Y29.6613
G0 Z-7.5
G1 F300.0 Z-8.4
G3 F780.0 X1.3243 Y31.2359 I-2.3943 J5.9352
G1 X1.1739 Y30.8561
G3 X1.1909 Y26.105 I5.9461 J-2.3543
G1 X1.4372 Y25.4959
G2 X1.866 Y24.325 I-225.8615 J-83.3805
G3 X0.5297 Y18.8048 I4.9011 J-4.1082
G1 X0.7026 Y18.0411
G3 X1.3331 Y16.3771 I6.2374 J1.412
G1 X1.5117 Y16.0516
G3 X1.1934 Y16.1894 I-2.7012 J-5.802
G1 F300.0 X3.4799 Y17.4438
G1 Z-9.1
G1 F780.0 X4.0265 Y16.4474
G3 X4.4955 Y15.7692 I3.5069 J1.9239
G1 X5.205 Y14.9409
G1 X5.2051 Y14.9362
G3 X5.2322 Y14.5675 I3.9985 J0.109
G1 X5.4113 Y13.0788
G3 X5.487 Y12.6487 I3.9714 J0.4777
G1 X5.5603 Y12.3341
G3 X5.8352 Y10.6794 I3.9956 J-0.1865
G1 X6.72 Y8.4368
G1 X7.1136 Y7.3401
G3 X8.0117 Y5.9016 I3.7649 J1.351
G1 X9.0464 Y4.6378
G3 X9.8449 Y3.8967 I3.095 J2.5339
G1 X11.1165 Y3.005
G3 X11.5739 Y2.7279 I2.2966 J3.275
G1 X13.3004 Y1.834
G3 X14.5264 Y1.4334 I1.8392 J3.5521
G1 X15.0924 Y1.3456
G3 X16.2503 Y1.3356 I0.6132 J3.9527
G1 X17.8916 Y1.5612
G1 X19.3377 Y1.6034
G3 X20.3357 Y1.7601 I-0.1165 J3.9983
G1 X21.1489 Y1.996
G1 X22.7272 Y2.4123
G3 X24.0036 Y3.005 I-1.0201 J3.8677
G1 X25.2752 Y3.8967
G3 X26.0736 Y4.6378 I-2.2966 J3.275
G1 X27.1084 Y5.9016
G3 X27.6663 Y6.6245 I-2.8668 J2.7895
G1 X28.4176 Y7.8694
G3 X28.8657 Y8.9356 I-3.4247 J2.0667
G1 X29.437 Y11.1471
G3 X29.5597 Y12.3341 I-3.8729 J1.0004
G1 X29.6331 Y12.6487
G3 X29.7088 Y13.0788 I-3.8956 J0.9078
G1 X29.8879 Y14.5675
G3 X29.915 Y14.9362 I-3.9714 J0.4776
G1 X29.9151 Y14.9409
G1 X30.6246 Y15.7692
G3 X31.0936 Y16.4474 I-3.0379 J2.6021
G1 X32.055 Y18.2
G3 X30.7463 Y23.4658 I-3.5069 J1.9239
G2 X30.9789 Y24.1159 I293.1524 J-104.5149
G1 X31.954 Y26.7934
G3 X32.1308 Y27.4453 I-3.7585 J1.3688
G1 X32.1848 Y27.7421
G3 X32.2208 Y28.9378 I-3.9352 J0.7169
G1 X32.2035 Y29.0815
G3 X31.9514 Y30.0752 I-3.9712 J-0.4788
G1 X31.6547 Y30.8246
G1 X31.3455 Y31.9876
G3 X30.8839 Y33.0604 I-3.8658 J-1.0276
G1 X29.8274 Y34.8551
G3 X29.7894 Y34.9183 I-3.4471 J-2.0292
G1 X29.265 Y35.7728
G3 X28.4092 Y36.7594 I-3.4091 J-2.0924
G1 X27.5915 Y37.4376
G3 X27.4253 Y37.5681 I-2.5533 J-3.079
G1 X25.6681 Y38.8751
G3 X25.0759 Y39.2401 I-2.3872 J-3.2096
G1 X24.4049 Y39.577
G3 X24.1386 Y39.6988 I-1.795 J-3.5746
G1 X23.3212 Y40.0368
G3 X23.1961 Y40.0861 I-1.5286 J-3.6964
G3 X21.4478 Y40.6864 I-11.6745 J-31.1554
G3 X20.949 Y40.8078 I-1.1934 J-3.8178
G2 X18.2754 Y41.2865 I89.6643 J508.493
G3 X16.8447 I-0.7153 J-3.9355
G2 X14.1711 Y40.8078 I-92.3378 J508.0135
G3 X13.6723 Y40.6864 I0.6946 J-3.9392
G3 X11.9239 Y40.0861 I9.9261 J-31.7555
G3 X11.7989 Y40.0368 I1.4036 J-3.7457
G1 X10.9815 Y39.6988
G3 X10.7151 Y39.577 I1.5286 J-3.6964
G1 X10.0442 Y39.2401
G3 X9.4519 Y38.875 I1.795 J-3.5746
G1 X7.6948 Y37.5681
G3 X7.5286 Y37.4376 I2.3872 J-3.2096
G1 X6.7108 Y36.7594
G3 X5.8551 Y35.7728 I2.5533 J-3.079
G1 X5.3306 Y34.9183
G3 X5.2926 Y34.8551 I3.4091 J-2.0924
G1 X4.2362 Y33.0604
G3 X3.7746 Y31.9876 I3.4042 J-2.1004
G1 X3.4654 Y30.8246
G1 X3.1687 Y30.0752
G3 X2.9166 Y29.0815 I3.7191 J-1.4726
G1 X2.8992 Y28.9378
G3 X2.9352 Y27.7421 I3.9712 J-0.4788
G1 X2.9893 Y27.4453
G3 X3.1723 Y26.7764 I3.9352 J0.7169
G2 X4.3737 Y23.4658 I-291.9643 J-107.8304
G3 X3.065 Y18.2 I2.1982 J-3.3418
G1 X3.4799 Y17.4438
G0 Z3.0
G0 X-0.9358 Y29.6266
G0 Z-8.2
G1 F300.0 Z-9.1
G3 F780.0 X0.8536 Y30.721 I-2.3993 J5.9332
G3 X0.5386 Y29.3682 I6.0342 J-2.1183
G1 X0.5213 Y29.2245
G3 X0.5788 Y27.3128 I6.3492 J-0.7655
G1 X0.6329 Y27.016
G3 X0.9254 Y25.9465 I6.2916 J1.1462
G2 X1.589 Y24.1325 I-289.7174 J-107.0005
G3 X0.9651 Y17.048 I4.983 J-4.0085
G1 X1.4763 Y16.116
G3 X1.2142 Y16.2278 I-2.6408 J-5.8298
G0 Z3.0
G0 X-0.9056 Y29.592
G0 Z-8.9
G1 F300.0 Z-9.8
G3 F780.0 X0.5305 Y30.4035 I-2.4043 J5.9312
G3 X0.4164 Y29.7469 I6.2351 J-1.4221
G1 X0.3483 Y29.1817
G3 X0.4058 Y27.2701 I6.3492 J-0.7655
G1 X0.6186 Y26.102
G3 X0.9104 Y25.0346 I6.2916 J1.1462
G2 X1.3541 Y23.8215 I-217.3674 J-80.1943
G3 X0.9651 Y17.048 I5.2179 J-3.6976
G1 X1.4415 Y16.1795
G3 X1.235 Y16.2662 I-2.5809 J-5.8565
G0 Z3.0
G0 X33.9237 Y16.2603
G0 Z-8.2
G1 F300.0 Z-9.1
G3 F780.0 X33.6618 Y16.149 I2.3725 J-5.944
G1 X34.155 Y17.048
G3 X33.5331 Y24.1299 I-5.6069 J3.0759
G1 X34.2046 Y25.9738
G3 X34.4872 Y27.016 I-6.0091 J2.1884
G1 X34.5412 Y27.3128
G3 X34.5988 Y29.2245 I-6.2916 J1.1462
G1 X34.5815 Y29.3682
G3 X34.4017 Y30.2868 I-6.3492 J-0.7655
G3 X36.1456 Y29.1888 I4.2375 J4.7962
G1 F300.0 X32.4027 Y28.8144
G1 Z-9.8
G3 F780.0 X32.3938 Y28.895 I-3.9801 J-0.3981
G1 X32.3257 Y29.4602
G3 X32.0735 Y30.454 I-3.9712 J-0.4788
G1 X31.8724 Y30.9619
G1 X31.6494 Y31.8008
G3 X31.4138 Y32.4532 I-3.8658 J-1.0276
G1 X30.6944 Y34.0075
G3 X30.5369 Y34.3127 I-3.6301 J-1.68
G3 X29.6652 Y35.7743 I-40.0778 J-22.9118
G3 X28.8215 Y36.7414 I-3.3971 J-2.1119
G1 X27.3715 Y37.9439
G3 X27.2053 Y38.0745 I-2.5533 J-3.079
G1 X26.3886 Y38.6819
G3 X25.7964 Y39.047 I-2.3872 J-3.2096
G1 X23.9302 Y39.9841
G3 X23.6639 Y40.1058 I-1.795 J-3.5746
G1 X23.2 Y40.2976
G3 X23.0287 Y40.3639 I-1.5286 J-3.6964
G1 X21.971 Y40.7454
G3 X20.5687 Y41.109 I-2.225 J-5.696
G1 X19.0792 Y41.377
G3 X18.9391 Y41.3996 I-0.7083 J-3.9368
G1 X18.1283 Y41.516
G3 X16.9917 I-0.5683 J-3.9594
G1 X16.1809 Y41.3996
G3 X16.0322 Y41.3754 I0.5683 J-3.9594
G2 X14.1626 Y41.0398 I-64.7297 J355.2365
G3 X13.6068 Y40.8998 I0.6963 J-3.9389
G1 X13.3162 Y40.8041
G3 X13.2112 Y40.7678 I1.2522 J-3.799
G1 X12.0914 Y40.3639
G3 X11.92 Y40.2976 I1.3572 J-3.7627
G1 X11.4562 Y40.1058
G3 X11.1899 Y39.9841 I1.5286 J-3.6964
G1 X9.3237 Y39.047
G3 X8.7314 Y38.6819 I1.795 J-3.5746
G1 X7.9148 Y38.0745
G3 X7.7486 Y37.9439 I2.3872 J-3.2096
G1 X6.2985 Y36.7414
G3 X5.4548 Y35.7743 I2.5533 J-3.079
G3 X4.5831 Y34.3127 I39.2061 J-24.3734
G3 X4.4256 Y34.0075 I3.4726 J-1.9852
G1 X3.7063 Y32.4532
G3 X3.4706 Y31.8008 I3.6301 J-1.68
G1 X3.2477 Y30.9619
G1 X3.0465 Y30.454
G3 X2.7944 Y29.4602 I3.7191 J-1.4726
G1 X2.7262 Y28.895
G3 X2.7623 Y27.6993 I3.9712 J-0.4788
G1 X2.975 Y26.5313
G3 X3.1575 Y25.8637 I3.9352 J0.7169
G2 X4.0981 Y23.2672 I-219.6146 J-81.0234
G3 X3.065 Y18.2 I2.4739 J-3.1432
G1 X4.0265 Y16.4474
G3 X4.4955 Y15.7692 I3.5069 J1.9239
G1 X5.0017 Y15.1782
G1 X5.0174 Y14.6037
G3 X5.0445 Y14.235 I3.9985 J0.109
G1 X5.2668 Y12.3869
G3 X5.5553 Y11.3036 I3.9714 J0.4777
G3 X5.5761 Y11.2017 I3.9292 J0.7491
G1 X5.8184 Y10.0888
G3 X5.9619 Y9.5887 I3.9084 J0.851
G1 X6.602 Y7.8049
G3 X7.6772 Y6.1953 I3.7649 J1.351
G1 X8.0444 Y5.8617
G1 X9.0464 Y4.6378
G3 X9.8449 Y3.8967 I3.095 J2.5339
G1 X11.1165 Y3.005
G3 X11.5739 Y2.7279 I2.2966 J3.275
G1 X13.3004 Y1.834
G3 X14.5264 Y1.4334 I1.8392 J3.5521
G1 X15.0924 Y1.3456
G3 X16.2503 Y1.3356 I0.6132 J3.9527
G1 X17.8916 Y1.5612
G1 X19.3377 Y1.6034
G3 X20.3357 Y1.7601 I-0.1165 J3.9983
G1 X21.1489 Y1.996
G1 X22.7272 Y2.4123
G3 X24.0036 Y3.005 I-1.0201 J3.8677
G1 X25.2752 Y3.8967
G3 X26.0736 Y4.6378 I-2.2966 J3.275
G1 X27.0757 Y5.8617
G1 X27.4429 Y6.1953
G3 X28.1778 Y7.0892 I-2.6898 J2.9606
G1 X28.4914 Y7.6088
G3 X28.9395 Y8.675 I-3.4247 J2.0667
G1 X29.2661 Y9.9393
G3 X29.3017 Y10.0888 I-3.8729 J1.0004
G1 X29.544 Y11.2017
G3 X29.5648 Y11.3036 I-3.9084 J0.851
G3 X29.8533 Y12.3869 I-3.6829 J1.5609
G1 X30.0756 Y14.235
G3 X30.1027 Y14.6037 I-3.9714 J0.4776
G1 X30.1184 Y15.1782
G1 X30.6246 Y15.7692
G3 X31.0936 Y16.4474 I-3.0379 J2.6021
G1 X32.055 Y18.2
G3 X31.022 Y23.2672 I-3.5069 J1.9239
G2 X31.9625 Y25.8637 I220.5455 J-78.4234
G3 X32.145 Y26.5313 I-3.7527 J1.3845
G1 X32.3578 Y27.6993
G3 X32.4027 Y28.8144 I-3.9352 J0.7169
G0 Z3.0
G0 X33.9018 Y16.2968
G0 Z-8.9
G1 F300.0 Z-9.8
G3 F780.0 X33.6955 Y16.2104 I2.3685 J-5.9456
G1 X34.155 Y17.048
G3 X33.766 Y23.8216 I-5.6069 J3.0759
G2 X34.2097 Y25.0346 I217.8015 J-78.9777
G3 X34.5014 Y26.102 I-5.9999 J2.2136
G1 X34.7142 Y27.2701
G3 X34.7718 Y29.1817 I-6.2916 J1.1462
G1 X34.7037 Y29.7469
G3 X34.6657 Y30.0142 I-6.3492 J-0.7655
G3 X36.1133 Y29.1609 I3.9457 J5.039
G1 F300.0 X32.5738 Y28.7902
G1 Z-10.5
G3 F780.0 X32.5668 Y28.8523 I-3.9782 J-0.4167
G1 X32.4479 Y29.839
G3 X32.1957 Y30.8327 I-3.9712 J-0.4788
G1 X32.0902 Y31.0992
G1 X31.9614 Y31.5838
G3 X31.7257 Y32.2362 I-3.8658 J-1.0276
G1 X30.3597 Y35.1878
G1 X30.3141 Y35.2884
G3 X29.3565 Y36.6007 I-3.6427 J-1.6526
G1 X29.3281 Y36.6264
G3 X29.1863 Y36.7489 I-2.6851 J-2.9649
G1 X27.2044 Y38.3816
G3 X26.8293 Y38.6556 I-2.5433 J-3.0873
G1 X26.7317 Y38.7186
G3 X26.3651 Y38.9285 I-2.1683 J-3.3613
G3 X23.4518 Y40.3929 I-506.208 J-1003.3965
G3 X23.219 Y40.5003 I-1.7913 J-3.5765
G3 X22.2402 Y40.8624 I-4.4267 J-10.4635
G3 X22.1181 Y40.8991 I-1.2139 J-3.8114
G1 X21.3037 Y41.1302
G3 X20.7241 Y41.2492 I-1.0918 J-3.8481
G1 X20.3534 Y41.297
G1 X18.1283 Y41.6164
G3 X16.9917 I-0.5683 J-3.9594
G1 X14.7667 Y41.297
G1 X14.3959 Y41.2492
G3 X13.8164 Y41.1302 I0.5123 J-3.9671
G1 X13.0019 Y40.8991
G3 X12.8799 Y40.8624 I1.0918 J-3.8481
G3 X11.901 Y40.5003 I3.4479 J-10.8258
G3 X11.6682 Y40.3929 I1.5585 J-3.6839
G3 X8.755 Y38.9285 I503.2807 J-1004.8335
G3 X8.3884 Y38.7186 I1.8017 J-3.5713
G1 X8.2907 Y38.6556
G3 X7.9157 Y38.3816 I2.1683 J-3.3613
G1 X5.9338 Y36.7489
G3 X5.792 Y36.6264 I2.5433 J-3.0873
G1 X5.7636 Y36.6007
G3 X4.806 Y35.2884 I2.6851 J-2.9649
G1 X4.7604 Y35.1878
G1 X3.3944 Y32.2362
G3 X3.1587 Y31.5838 I3.6301 J-1.68
G1 X3.0299 Y31.0992
G1 X2.9244 Y30.8327
G3 X2.6722 Y29.839 I3.7191 J-1.4726
G1 X2.5533 Y28.8522
G3 X2.5893 Y27.6565 I3.9712 J-0.4788
G1 X2.9608 Y25.6173
G3 X3.1432 Y24.9497 I3.9352 J0.7169
G2 X3.8318 Y23.0379 I-122.8106 J-45.309
G3 X3.065 Y18.2 I2.7402 J-2.914
G1 X4.0265 Y16.4474
G3 X4.4955 Y15.7692 I3.5069 J1.9239
G1 X4.7816 Y15.4352
G1 X4.8026 Y15.2635
G1 X4.8296 Y14.2712
G3 X4.8568 Y13.9025 I3.9985 J0.109
G1 X4.9531 Y13.102
G3 X5.2614 Y11.9727 I3.9714 J0.4777
G1 X5.5283 Y11.3643
G1 X5.5357 Y11.2763
G3 X5.6132 Y10.7607 I3.9859 J0.3354
G1 X6.0461 Y8.7724
G3 X6.1696 Y8.3293 I3.9084 J0.851
G1 X6.2157 Y8.1948
G3 X7.3108 Y6.5282 I3.7849 J1.294
G1 X8.0444 Y5.8617
G1 X9.0464 Y4.6378
G3 X9.8449 Y3.8967 I3.095 J2.5339
G1 X11.1165 Y3.005
G3 X11.5739 Y2.7279 I2.2966 J3.275
G1 X13.3004 Y1.834
G3 X14.5264 Y1.4334 I1.8392 J3.5521
G1 X15.0924 Y1.3456
G3 X16.2503 Y1.3356 I0.6132 J3.9527
G1 X17.8916 Y1.5612
G1 X19.3377 Y1.6034
G3 X20.3357 Y1.7601 I-0.1165 J3.9983
G1 X21.1489 Y1.996
G1 X22.7272 Y2.4123
G3 X24.0036 Y3.005 I-1.0201 J3.8677
G1 X25.2752 Y3.8967
G3 X26.0736 Y4.6378 I-2.2966 J3.275
G1 X27.0757 Y5.8617
G1 X27.8093 Y6.5282
G3 X28.9044 Y8.1948 I-2.6898 J2.9606
G1 X28.9504 Y8.3294
G3 X29.074 Y8.7724 I-3.7849 J1.294
G1 X29.5069 Y10.7608
G3 X29.5844 Y11.2763 I-3.9084 J0.851
G1 X29.5918 Y11.3643
G1 X29.8587 Y11.9728
G3 X30.167 Y13.102 I-3.663 J1.6069
G1 X30.2633 Y13.9025
G3 X30.2904 Y14.2712 I-3.9714 J0.4776
G1 X30.3175 Y15.2635
G1 X30.3385 Y15.4352
G1 X30.6246 Y15.7692
G3 X31.0936 Y16.4474 I-3.0379 J2.6021
G1 X32.055 Y18.2
G3 X31.2883 Y23.0379 I-3.5069 J1.9239
G2 X31.9768 Y24.9497 I123.4937 J-43.3953
G3 X32.1593 Y25.6173 I-3.7527 J1.3845
G1 X32.5308 Y27.6566
G3 X32.5738 Y28.7902 I-3.9352 J0.7169
G0 Z3.0
G0 X33.88 Y16.3333
G0 Z-9.6
G1 F300.0 Z-10.5
G3 F780.0 X33.7287 Y16.2709 I2.3644 J-5.9473
G1 X34.155 Y17.048
G3 X33.9904 Y23.4825 I-5.6069 J3.0759
G2 X34.224 Y24.1206 I120.7916 J-43.8399
G3 X34.5157 Y25.188 I-5.9999 J2.2136
G1 X34.8872 Y27.2273
G3 X34.9448 Y29.139 I-6.2916 J1.1462
G1 X34.8632 Y29.8158
G3 X36.0809 Y29.133 I3.7204 J5.2076
G0 Z3.0
G0 X33.8583 Y16.37
G0 Z-10.3
G1 F300.0 Z-11.2
G3 F780.0 X33.7615 Y16.3306 I2.3601 J-5.9489
G1 X34.155 Y17.048
G3 X34.2031 Y23.1106 I-5.6069 J3.0759
G2 X34.2383 Y23.2066 I23.7936 J-8.6693
G3 X34.53 Y24.274 I-5.9999 J2.2136
G1 X35.0602 Y27.1845
G3 X35.1178 Y29.0962 I-6.2916 J1.1462
G1 X35.0525 Y29.6375
G3 X36.0485 Y29.1051 I3.5033 J5.356
G0 Z3.0
G0 X-0.8755 Y29.5573
G0 Z-9.6
G1 F300.0 Z-10.5
G3 F780.0 X0.3018 Y30.1859 I-2.4093 J5.9292
G3 X0.2942 Y30.1257 I6.3417 J-0.8257
G1 X0.1753 Y29.139
G3 X0.2328 Y27.2273 I6.3492 J-0.7655
G1 X0.6043 Y25.188
G3 X0.8961 Y24.1206 I6.2916 J1.1462
G2 X1.1296 Y23.4824 I-120.5634 J-44.48
G3 X0.9651 Y17.048 I5.4423 J-3.3585
G1 X1.4072 Y16.242
G3 X1.2557 Y16.3047 I-2.5214 J-5.8824
G1 F300.0 X3.4457 Y17.5061
G1 Z-11.2
G1 F780.0 X4.0265 Y16.4474
G3 X4.3422 Y15.9597 I3.5069 J1.9239
G1 X4.525 Y14.4643
G3 X4.597 Y14.0541 I3.9704 J0.4855
G1 X4.7863 Y13.2304
G3 X5.0217 Y12.5191 I3.8984 J0.8957
G1 X5.5283 Y11.3643
G1 X5.5728 Y10.8354
G3 X5.6503 Y10.3198 I3.9859 J0.3354
G1 X5.8839 Y9.2468
G3 X6.0074 Y8.8038 I3.9084 J0.851
G1 X6.2157 Y8.1948
G3 X7.3108 Y6.5282 I3.7849 J1.294
G1 X8.0444 Y5.8617
G1 X9.0464 Y4.6378
G3 X9.8449 Y3.8967 I3.095 J2.5339
G1 X11.1165 Y3.005
G3 X11.5739 Y2.7279 I2.2966 J3.275
G1 X13.3004 Y1.834
G3 X14.5264 Y1.4334 I1.8392 J3.5521
G1 X15.0924 Y1.3456
G3 X16.2503 Y1.3356 I0.6132 J3.9527
G1 X17.8916 Y1.5612
G1 X19.3377 Y1.6034
G3 X20.3357 Y1.7601 I-0.1165 J3.9983
G1 X21.1489 Y1.996
G1 X22.7272 Y2.4123
G3 X24.0036 Y3.005 I-1.0201 J3.8677
G1 X25.2752 Y3.8967
G3 X26.0736 Y4.6378 I-2.2966 J3.275
G1 X27.0757 Y5.8617
G1 X27.8093 Y6.5282
G3 X28.9044 Y8.1948 I-2.6898 J2.9606
G1 X29.1126 Y8.8038
G3 X29.2362 Y9.2468 I-3.7849 J1.294
G1 X29.4698 Y10.3198
G3 X29.5473 Y10.8354 I-3.9084 J0.851
G1 X29.5918 Y11.3643
G1 X30.0984 Y12.5192
G3 X30.3338 Y13.2304 I-3.663 J1.6069
G1 X30.523 Y14.0541
G3 X30.595 Y14.4643 I-3.8984 J0.8957
G1 X30.7779 Y15.9597
G3 X31.0936 Y16.4474 I-3.1912 J2.4116
G1 X32.055 Y18.2
G3 X31.8764 Y22.3427 I-3.5069 J1.9239
G3 X31.5438 Y22.8359 I-3.4736 J-1.9835
G1 X31.8006 Y23.508
G3 X31.8388 Y23.6122 I-3.7366 J1.4277
G2 X31.9911 Y24.0357 I26.1579 J-9.1709
G3 X32.1736 Y24.7033 I-3.7527 J1.3845
G1 X32.7038 Y27.6138
G3 X32.7398 Y28.8095 I-3.9352 J0.7169
G1 X32.57 Y30.2177
G3 X32.3179 Y31.2115 I-3.9712 J-0.4788
G1 X32.3079 Y31.2366
G1 X32.2733 Y31.3668
G3 X32.0316 Y32.0322 I-3.8658 J-1.0276
G2 X30.6092 Y35.1382 I205.0619 J95.7912
G3 X29.645 Y36.465 I-3.6492 J-1.638
G1 X29.229 Y36.8418
G3 X29.0872 Y36.9642 I-2.6851 J-2.9649
G1 X27.4624 Y38.3028
G3 X27.0873 Y38.5768 I-2.5433 J-3.0873
G1 X26.2482 Y39.1181
G3 X25.8801 Y39.3288 I-2.1683 J-3.3613
G1 X23.6201 Y40.4677
G3 X23.0589 Y40.699 I-1.8001 J-3.572
G1 X22.4114 Y40.9099
G3 X22.2643 Y40.9547 I-1.2389 J-3.8033
G1 X21.1957 Y41.2579
G3 X20.5894 Y41.3802 I-1.0918 J-3.8481
G2 X18.1576 Y41.7125 I10.536 J86.1657
G3 X16.9625 I-0.5975 J-3.9551
G2 X14.5307 Y41.3802 I-12.9678 J85.8335
G3 X13.9243 Y41.2579 I0.4855 J-3.9704
G1 X12.8558 Y40.9547
G3 X12.7087 Y40.9099 I1.0918 J-3.8481
G1 X12.0612 Y40.699
G3 X11.5 Y40.4677 I1.2389 J-3.8033
G1 X9.24 Y39.3288
G3 X8.8719 Y39.1181 I1.8001 J-3.572
G1 X8.0327 Y38.5768
G3 X7.6577 Y38.3028 I2.1683 J-3.3613
G1 X6.0328 Y36.9642
G3 X5.8911 Y36.8418 I2.5433 J-3.0873
G1 X5.4751 Y36.465
G3 X4.5109 Y35.1382 I2.6851 J-2.9649
G2 X3.0884 Y32.0322 I-206.4883 J92.687
G3 X2.8468 Y31.3668 I3.6241 J-1.6929
G1 X2.8121 Y31.2366
G1 X2.8022 Y31.2115
G3 X2.55 Y30.2177 I3.7191 J-1.4726
G1 X2.3803 Y28.8095
G3 X2.4163 Y27.6138 I3.9712 J-0.4788
G1 X2.9465 Y24.7033
G3 X3.129 Y24.0357 I3.9352 J0.7169
G2 X3.2813 Y23.6122 I-26.0066 J-9.5947
G3 X3.3195 Y23.508 I3.7747 J1.3234
G1 X3.5763 Y22.8359
G3 X3.2437 Y22.3426 I3.141 J-2.4767
G3 X3.065 Y18.2 I3.3283 J-2.2187
G1 X3.4457 Y17.5061
G0 Z3.0
G0 X-0.8453 Y29.5226
G0 Z-10.3
G1 F300.0 Z-11.2
G3 F780.0 X0.1125 Y30.0102 I-2.4143 J5.9272
G1 X0.0023 Y29.0962
G3 X0.0598 Y27.1845 I6.3492 J-0.7655
G1 X0.5901 Y24.274
G3 X0.8818 Y23.2066 I6.2916 J1.1462
G2 X0.917 Y23.1106 I-23.7595 J-8.7657
G3 X0.9651 Y17.048 I5.6549 J-2.9867
G1 X1.3734 Y16.3037
G3 X1.2765 Y16.3432 I-2.4624 J-5.9073
G1 F300.0 X3.4343 Y17.5269
G1 Z-11.9
G1 F780.0 X3.9491 Y16.5885
G3 X4.0418 Y16.225 I3.9181 J0.8051
G1 X4.2697 Y15.4788
G1 X4.7863 Y13.2304
G3 X5.0217 Y12.5191 I3.8984 J0.8957
G1 X5.5283 Y11.3643
G1 X5.6099 Y10.3944
G3 X5.6874 Y9.8788 I3.9859 J0.3354
G1 X5.7217 Y9.7212
G3 X5.8452 Y9.2782 I3.9084 J0.851
G1 X6.2157 Y8.1948
G3 X7.3108 Y6.5282 I3.7849 J1.294
G1 X8.0444 Y5.8617
G1 X9.0464 Y4.6378
G3 X9.8449 Y3.8967 I3.095 J2.5339
G1 X11.1165 Y3.005
G3 X11.5739 Y2.7279 I2.2966 J3.275
G1 X13.3004 Y1.834
G3 X14.5264 Y1.4334 I1.8392 J3.5521
G1 X15.0924 Y1.3456
G3 X16.2503 Y1.3356 I0.6132 J3.9527
G1 X17.8916 Y1.5612
G1 X19.3377 Y1.6034
G3 X20.3357 Y1.7601 I-0.1165 J3.9983
G1 X21.1489 Y1.996
G1 X22.7272 Y2.4123
G3 X24.0036 Y3.005 I-1.0201 J3.8677
G1 X25.2752 Y3.8967
G3 X26.0736 Y4.6378 I-2.2966 J3.275
G1 X27.0757 Y5.8617
G1 X27.8093 Y6.5282
G3 X28.9044 Y8.1948 I-2.6898 J2.9606
G1 X29.2748 Y9.2782
G3 X29.3984 Y9.7212 I-3.7849 J1.294
G1 X29.4327 Y9.8789
G3 X29.5102 Y10.3944 I-3.9084 J0.851
G1 X29.5918 Y11.3643
G1 X30.0984 Y12.5192
G3 X30.3338 Y13.2304 I-3.663 J1.6069
G1 X30.8504 Y15.4788
G1 X31.0783 Y16.225
G3 X31.171 Y16.5885 I-3.8255 J1.1685
G1 X32.055 Y18.2
G3 X32.3151 Y21.4691 I-3.5069 J1.9239
G1 X32.3046 Y21.5795
G3 X31.9174 Y22.9544 I-3.982 J-0.3796
G1 X31.9605 Y23.0673
G3 X32.102 Y23.5148 I-3.7366 J1.4277
G1 X32.2579 Y24.1316
G3 X32.3298 Y24.4806 I-3.878 J0.9802
G1 X32.4436 Y25.1933
G1 X32.8768 Y27.571
G3 X32.9128 Y28.7667 I-3.9352 J0.7169
G1 X32.6922 Y30.5965
G3 X32.4442 Y31.5797 I-3.9712 J-0.4788
G3 X32.3611 Y31.777 I-4.0512 J-1.5908
G3 X32.3569 Y31.7862 I-3.6468 J-1.6433
G1 X30.8911 Y35.0171
G3 X29.9335 Y36.3294 I-3.6427 J-1.6526
G1 X29.13 Y37.0571
G3 X28.9882 Y37.1796 I-2.6851 J-2.9649
G1 X27.7203 Y38.224
G3 X27.3453 Y38.498 I-2.5433 J-3.0873
G1 X25.7647 Y39.5176
G3 X25.3966 Y39.7283 I-2.1683 J-3.3613
G1 X24.0668 Y40.3985
G3 X23.5055 Y40.6298 I-1.8001 J-3.572
G1 X21.9172 Y41.1471
G3 X21.7701 Y41.1919 I-1.2389 J-3.8033
G1 X21.0878 Y41.3856
G3 X20.5082 Y41.5045 I-1.0918 J-3.8481
G1 X18.504 Y41.7633
G1 X18.1283 Y41.8172
G3 X16.9917 I-0.5683 J-3.9594
G1 X16.6161 Y41.7633
G1 X14.6119 Y41.5045
G3 X14.0323 Y41.3856 I0.5123 J-3.9671
G1 X13.3499 Y41.1919
G3 X13.2028 Y41.1471 I1.0918 J-3.8481
G1 X11.6145 Y40.6298
G3 X11.0533 Y40.3985 I1.2389 J-3.8033
G1 X9.7235 Y39.7283
G3 X9.3554 Y39.5176 I1.8001 J-3.572
G1 X7.7748 Y38.498
G3 X7.3997 Y38.224 I2.1683 J-3.3613
G1 X6.1319 Y37.1796
G3 X5.9901 Y37.0571 I2.5433 J-3.0873
G1 X5.1865 Y36.3294
G3 X4.2289 Y35.0171 I2.6851 J-2.9649
G1 X2.7819 Y31.8274
G3 X2.548 Y31.1989 I3.6841 J-1.7285
G3 X2.4279 Y30.5965 I3.8511 J-1.0812
G1 X2.2073 Y28.7667
G3 X2.2433 Y27.571 I3.9712 J-0.4788
G1 X2.6764 Y25.1933
G1 X2.7903 Y24.4806
G3 X2.8621 Y24.1316 I3.9499 J0.6312
G1 X3.0181 Y23.5148
G3 X3.1596 Y23.0673 I3.878 J0.9802
G1 X3.2027 Y22.9544
G3 X2.8155 Y21.5795 I3.5947 J-1.7544
G1 X2.8049 Y21.4691
G3 X3.065 Y18.2 I3.767 J-1.3452
G1 X3.4343 Y17.5269
G0 Z3.0
G0 X-0.8152 Y29.488
G0 Z-11.0
G1 F300.0 Z-11.9
G3 F780.0 X-0.075 Y29.8473 I-2.4192 J5.9251
G1 X-0.1707 Y29.0534
G3 X-0.1131 Y27.1417 I6.3492 J-0.7655
G1 X0.3153 Y24.7896
G1 X0.4251 Y24.1027
G3 X0.54 Y23.5447 I6.3151 J1.0092
G1 X0.6699 Y23.0308
G3 X0.4486 Y21.9686 I6.1275 J-1.8308
G3 X0.9651 Y17.048 I6.1234 J-1.8446
G1 X1.34 Y16.3645
G3 X1.2972 Y16.3817 I-2.4037 J-5.9314
G0 Z3.0
G0 X-0.785 Y29.4533
G0 Z-11.7
G1 F300.0 Z-12.6
G3 F780.0 X-0.2611 Y29.6959 I-2.4242 J5.9231
G1 X-0.3437 Y29.0106
G3 X-0.2861 Y27.0989 I6.3492 J-0.7655
G1 X-0.057 Y25.8411
G1 X0.2271 Y24.0631
G3 X0.342 Y23.5052 I6.3151 J1.0092
G1 X0.5252 Y22.7801
G3 X0.5112 Y22.6477 I6.3523 J-0.7393
G1 X0.4455 Y21.9584
G3 X0.1809 Y19.8936 I6.1264 J-1.8345
G0 Z3.0
G0 X33.8366 Y16.4067
G0 Z-11.0
G1 F300.0 Z-11.9
G3 F780.0 X33.7938 Y16.3896 I2.3559 J-5.9506
G1 X34.155 Y17.048
G3 X34.6715 Y21.9686 I-5.6069 J3.0759
G3 X34.4502 Y23.0308 I-6.3488 J-0.7686
G1 X34.5801 Y23.5447
G3 X34.695 Y24.1027 I-6.2002 J1.5671
G1 X34.8047 Y24.7897
G1 X35.2332 Y27.1417
G3 X35.2908 Y29.0534 I-6.2916 J1.1462
G1 X35.2402 Y29.4727
G3 X36.016 Y29.0773 I3.2878 J5.491
G1 F300.0 X33.0858 Y28.724
G1 Z-12.6
G1 F780.0 X32.9643 Y29.7317
