 [VECTRIC CNC OUTPUT FOR CAMASTER TOOLCHANGE ]
 [MACHINES WITH WINCNC CONTROL ONLY]
 
 [FILENAME: 12-inch-spiral]
 [06:17 PM, Saturday December 19 2015]
 
 [MATERIAL size: 12.104" x 12.588" x 0.170"]
 [Z Zero Position: Table Surface]
 
 [TOOL LIST]
 [2 = downcut router .125 leather]
 [1 = hack to stop spindle hopefully]
 [6 = Dragknife End Mill]
  
 G90 [ABSOLUTE MODE]
  
 M5 [SPINDLE OFF]
 G53 Z0 [LIFT Z TO TOP]
  
 T2 [ GET TOOL NUMBER 2 ]
 [downcut router .125 leather]
 
 S12000 [ SET SPINDLE SPEED RPM ]
 M3 [SPINDLE ON]
  
 G53 Z0 [LIFT Z TO TOP]
 
 [TOOLPATH NAME: Drill 1]
 F10 XY [SET FEEDRATE FOR X AND Y]
 F30 Z [SET FEEDRATE FOR Z]
  
 G0 X3.673147 Y2.955140
 G0 Z0.800
 G1 X3.673147 Y2.955140 Z0.002000
 G0 X3.673147 Y2.955140 Z0.370000
 G0 X6.556849 Y2.387283 Z0.370000
 G1 X6.556849 Y2.387283 Z0.002000
 G0 X6.556849 Y2.387283 Z0.370000
 G0 X9.111558 Y3.833709 Z0.370000
 G1 X9.111558 Y3.833709 Z0.002000
 G0 X9.111558 Y3.833709 Z0.370000
 G0 X10.051290 Y6.611099 Z0.370000
 G1 X10.051290 Y6.611099 Z0.002000
 G0 X10.051290 Y6.611099 Z0.370000
 G0 X10.837750 Y7.883955 Z0.370000
 G1 X10.837750 Y7.883955 Z0.002000
 G0 X10.837750 Y7.883955 Z0.370000
 G0 X9.167354 Y10.319713 Z0.370000
 G1 X9.167354 Y10.319713 Z0.002000
 G0 X9.167354 Y10.319713 Z0.370000
 G0 X6.396878 Y11.337712 Z0.370000
 G1 X6.396878 Y11.337712 Z0.002000
 G0 X6.396878 Y11.337712 Z0.370000
 G0 X3.560844 Y10.527434 Z0.370000
 G1 X3.560844 Y10.527434 Z0.002000
 G0 X3.560844 Y10.527434 Z0.370000
 G0 X1.781072 Y8.178233 Z0.370000
 G1 X1.781072 Y8.178233 Z0.002000
 G0 X1.781072 Y8.178233 Z0.370000
 G0 X1.811862 Y5.233608 Z0.370000
 G1 X1.811862 Y5.233608 Z0.002000
 G0 X1.811862 Y5.233608 Z0.370000
 M5
 G53 Z0
  
 T1 [ GET TOOL NUMBER 1 ]
 [hack to stop spindle hopefully]
  
 M3 [SPINDLE ON]
  
 G53 Z0
 
 
 [TOOLPATH NAME: Quick Engrave 1]
 [hack to stop spindle hopefully]
 
 S0 [ SET SPINDLE SPEED RPM ]
 F236 XY [SET FEEDRATE FOR X AND Y]
 F24 Z [SET FEEDRATE FOR Z]
 
 G0 X6.051805 Y7.488364
 G0 Z0.800
 G1 X6.051805 Y7.488364 Z0.070000
 G1 X6.051805 Y6.988364 Z0.070000
 G0 X6.051805 Y6.988364 Z0.370000
 M5
 G53 Z0
  
 T6 [ GET TOOL NUMBER 6 ]
 [Dragknife End Mill]
  
 M3 [SPINDLE ON]
  
 G53 Z0
 
 
 [TOOLPATH NAME: drag knife]
 [Dragknife End Mill]
 
 S0 [ SET SPINDLE SPEED RPM ]
 F100 XY [SET FEEDRATE FOR X AND Y]
 F30 Z [SET FEEDRATE FOR Z]
 
 G0 X10.219774 Y6.770874
 G0 Z0.800
 G1 X10.219774 Y6.770874 Z0.163000
 G2 X10.051289 Y6.611099 I-0.160000 J0.000000
 G1 X10.051289 Y6.611099 Z0.120000
 G1 X10.009491 Y5.824107 Z0.120000
 G1 X9.813146 Y5.054542 Z0.120000
 G1 X9.467517 Y4.332685 Z0.120000
 G1 X8.983788 Y3.687418 Z0.120000
 G1 X8.378711 Y3.145064 Z0.120000
 G1 X7.674033 Y2.728321 Z0.120000
 G1 X6.895722 Y2.455317 Z0.120000
 G1 X6.073007 Y2.338835 Z0.120000
 G1 X5.237284 Y2.385730 Z0.120000
 G1 X4.420917 Y2.596576 Z0.120000
 G1 X3.655984 Y2.965553 Z0.120000
 G1 X2.973020 Y3.480582 Z0.120000
 G1 X2.531453 Y3.952086 Z0.120000
 G1 X2.161987 Y4.486248 Z0.120000
 G1 X1.873513 Y5.071997 Z0.120000
 G1 X1.673224 Y5.697004 Z0.120000
 G1 X1.566410 Y6.348063 Z0.120000
 G1 X1.556384 Y7.011251 Z0.120000
 G1 X1.644377 Y7.672126 Z0.120000
 G1 X1.829469 Y8.316149 Z0.120000
 G1 X2.108627 Y8.929113 Z0.120000
 G1 X2.476733 Y9.497342 Z0.120000
 G1 X2.926617 Y10.007895 Z0.120000
 G1 X3.449227 Y10.448982 Z0.120000
 G1 X4.033915 Y10.810293 Z0.120000
 G1 X4.668565 Y11.083152 Z0.120000
 G1 X5.339747 Y11.260679 Z0.120000
 G1 X6.033094 Y11.338036 Z0.120000
 G1 X6.733727 Y11.312543 Z0.120000
 G1 X7.426454 Y11.183743 Z0.120000
 G1 X8.095996 Y10.953443 Z0.120000
 G1 X8.727440 Y10.625709 Z0.120000
 G1 X9.306667 Y10.206731 Z0.120000
 G1 X9.820559 Y9.704749 Z0.120000
 G1 X10.257208 Y9.129976 Z0.120000
 G1 X10.606305 Y8.494319 Z0.120000
 G1 X10.859416 Y7.811037 Z0.120000
 G1 X11.010117 Y7.094554 Z0.120000
 G1 X11.054133 Y6.360270 Z0.120000
 G1 X10.989503 Y5.624112 Z0.120000
 G1 X10.816614 Y4.902085 Z0.120000
 G1 X10.538223 Y4.210041 Z0.120000
 G1 X10.159451 Y3.563427 Z0.120000
 G1 X9.687677 Y2.976832 Z0.120000
 G1 X9.132312 Y2.463572 Z0.120000
 G1 X8.504680 Y2.035489 Z0.120000
 G1 X7.817874 Y1.702742 Z0.120000
 G1 X7.086408 Y1.473479 Z0.120000
 G1 X6.325792 Y1.353626 Z0.120000
 G1 X5.552319 Y1.346770 Z0.120000
 G1 X4.782816 Y1.454076 Z0.120000
 G1 X4.034173 Y1.674204 Z0.120000
 G1 X3.322859 Y2.003369 Z0.120000
 G1 X2.664682 Y2.435368 Z0.120000
 G1 X2.074524 Y2.961646 Z0.120000
 G1 X1.565898 Y3.571501 Z0.120000
 G1 X1.150579 Y4.252399 Z0.120000
 G1 X0.838410 Y4.990141 Z0.120000
 G1 X0.637118 Y5.769067 Z0.120000
 G1 X0.552058 Y6.572478 Z0.120000
 G1 X0.592600 Y7.436984 Z0.120000
 G1 X0.768819 Y8.288358 Z0.120000
 G1 X1.077566 Y9.105316 Z0.120000
 G1 X1.512362 Y9.867245 Z0.120000
 G1 X2.063526 Y10.554717 Z0.120000
 G1 X2.718444 Y11.150038 Z0.120000
 G1 X3.461816 Y11.637641 Z0.120000
 G1 X4.275953 Y12.004452 Z0.120000
 G1 X5.141250 Y12.240291 Z0.120000
 G1 X6.036654 Y12.338156 Z0.120000
 G1 X6.940256 Y12.294418 Z0.120000
 G1 X7.829744 Y12.108928 Z0.120000
 G1 X8.682899 Y11.785062 Z0.120000
 G1 X9.478213 Y11.329673 Z0.120000
 G1 X10.195438 Y10.752947 Z0.120000
 G1 X10.816149 Y10.068128 Z0.120000
 G1 X11.324152 Y9.291251 Z0.120000
 G1 X11.705872 Y8.440831 Z0.120000
 G1 X11.950762 Y7.537366 Z0.120000
 G1 X12.051596 Y6.602848 Z0.120000
 G1 X12.051596 Y6.602848 Z0.163000
 G3 X12.194431 Y6.761925 I-0.017164 J0.159077
 G0 X12.194431 Y6.761925 Z0.370000
 
 [TOOLPATH NAME: drag knife]
 [Dragknife End Mill]
 
 S0 [ SET SPINDLE SPEED RPM ]
 F100 XY [SET FEEDRATE FOR X AND Y]
 F30 Z [SET FEEDRATE FOR Z]
 
 G0 X10.219774 Y6.770874 Z0.370000
 G1 X10.219774 Y6.770874 Z0.163000
 G2 X10.051289 Y6.611099 I-0.160000 J0.000000
 G1 X10.051289 Y6.611099 Z0.000000
 G1 X10.009491 Y5.824107 Z0.000000
 G1 X9.813146 Y5.054542 Z0.000000
 G1 X9.467517 Y4.332685 Z0.000000
 G1 X8.983788 Y3.687418 Z0.000000
 G1 X8.378711 Y3.145064 Z0.000000
 G1 X7.674033 Y2.728321 Z0.000000
 G1 X6.895722 Y2.455317 Z0.000000
 G1 X6.073007 Y2.338835 Z0.000000
 G1 X5.237284 Y2.385730 Z0.000000
 G1 X4.420917 Y2.596576 Z0.000000
 G1 X3.655984 Y2.965553 Z0.000000
 G1 X2.973020 Y3.480582 Z0.000000
 G1 X2.531453 Y3.952086 Z0.000000
 G1 X2.161987 Y4.486248 Z0.000000
 G1 X1.873513 Y5.071997 Z0.000000
 G1 X1.673224 Y5.697004 Z0.000000
 G1 X1.566410 Y6.348063 Z0.000000
 G1 X1.556384 Y7.011251 Z0.000000
 G1 X1.644377 Y7.672126 Z0.000000
 G1 X1.829469 Y8.316149 Z0.000000
 G1 X2.108627 Y8.929113 Z0.000000
 G1 X2.476733 Y9.497342 Z0.000000
 G1 X2.926617 Y10.007895 Z0.000000
 G1 X3.449227 Y10.448982 Z0.000000
 G1 X4.033915 Y10.810293 Z0.000000
 G1 X4.668565 Y11.083152 Z0.000000
 G1 X5.339747 Y11.260679 Z0.000000
 G1 X6.033094 Y11.338036 Z0.000000
 G1 X6.733727 Y11.312543 Z0.000000
 G1 X7.426454 Y11.183743 Z0.000000
 G1 X8.095996 Y10.953443 Z0.000000
 G1 X8.727440 Y10.625709 Z0.000000
 G1 X9.306667 Y10.206731 Z0.000000
 G1 X9.820559 Y9.704749 Z0.000000
 G1 X10.257208 Y9.129976 Z0.000000
 G1 X10.606305 Y8.494319 Z0.000000
 G1 X10.859416 Y7.811037 Z0.000000
 G1 X11.010117 Y7.094554 Z0.000000
 G1 X11.054133 Y6.360270 Z0.000000
 G1 X10.989503 Y5.624112 Z0.000000
 G1 X10.816614 Y4.902085 Z0.000000
 G1 X10.538223 Y4.210041 Z0.000000
 G1 X10.159451 Y3.563427 Z0.000000
 G1 X9.687677 Y2.976832 Z0.000000
 G1 X9.132312 Y2.463572 Z0.000000
 G1 X8.504680 Y2.035489 Z0.000000
 G1 X7.817874 Y1.702742 Z0.000000
 G1 X7.086408 Y1.473479 Z0.000000
 G1 X6.325792 Y1.353626 Z0.000000
 G1 X5.552319 Y1.346770 Z0.000000
 G1 X4.782816 Y1.454076 Z0.000000
 G1 X4.034173 Y1.674204 Z0.000000
 G1 X3.322859 Y2.003369 Z0.000000
 G1 X2.664682 Y2.435368 Z0.000000
 G1 X2.074524 Y2.961646 Z0.000000
 G1 X1.565898 Y3.571501 Z0.000000
 G1 X1.150579 Y4.252399 Z0.000000
 G1 X0.838410 Y4.990141 Z0.000000
 G1 X0.637118 Y5.769067 Z0.000000
 G1 X0.552058 Y6.572478 Z0.000000
 G1 X0.592600 Y7.436984 Z0.000000
 G1 X0.768819 Y8.288358 Z0.000000
 G1 X1.077566 Y9.105316 Z0.000000
 G1 X1.512362 Y9.867245 Z0.000000
 G1 X2.063526 Y10.554717 Z0.000000
 G1 X2.718444 Y11.150038 Z0.000000
 G1 X3.461816 Y11.637641 Z0.000000
 G1 X4.275953 Y12.004452 Z0.000000
 G1 X5.141250 Y12.240291 Z0.000000
 G1 X6.036654 Y12.338156 Z0.000000
 G1 X6.940256 Y12.294418 Z0.000000
 G1 X7.829744 Y12.108928 Z0.000000
 G1 X8.682899 Y11.785062 Z0.000000
 G1 X9.478213 Y11.329673 Z0.000000
 G1 X10.195438 Y10.752947 Z0.000000
 G1 X10.816149 Y10.068128 Z0.000000
 G1 X11.324152 Y9.291251 Z0.000000
 G1 X11.705872 Y8.440831 Z0.000000
 G1 X11.950762 Y7.537366 Z0.000000
 G1 X12.051596 Y6.602848 Z0.000000
 G1 X12.051596 Y6.602848 Z0.163000
 G3 X12.194431 Y6.761925 I-0.017164 J0.159077
 G0 X12.194431 Y6.761925 Z0.370000
 G53 Z0
 M5
