;FLAVOR:RepRap
;TIME:713
;Filament used: 0.153994m
;Layer height: 0.1
;Generated with Cura_SteamEngine 2.5.0
M190 S60
M104 S200
M109 S200
G28 ;Home
G1 Z15.0 F6000 ;Move the platform down 15mm
;Prime the extruder
G92 E0
G1 F200 E3
G92 E0
;LAYER_COUNT:58
;LAYER:0
M107
G0 F3600 X43.256 Y45.828 Z0.3
;TYPE:SKIRT
G1 F1800 X43.853 Y45.312 E0.01484
G1 X44.5 Y44.859 E0.0297
G1 X45.15 Y44.493 E0.04373
G1 X45.776 Y44.179 E0.05691
G1 X46.499 Y43.861 E0.07176
G1 X47.428 Y43.572 E0.09006
G1 X47.769 Y43.489 E0.09667
G1 X48.545 Y43.342 E0.11152
G1 X49.332 Y43.273 E0.12638
G1 X49.802 Y43.27 E0.13522
G1 X50.672 Y43.291 E0.15159
G1 X51.46 Y43.35 E0.16646
G1 X52.237 Y43.489 E0.18131
G1 X52.96 Y43.692 E0.19543
G1 X53.456 Y43.858 E0.20527
G1 X54.191 Y44.146 E0.22012
G1 X54.893 Y44.508 E0.23498
G1 X55.286 Y44.751 E0.24367
G1 X55.869 Y45.137 E0.25682
G1 X56.76 Y45.825 E0.278
G1 X62.876 Y51.289 E0.43227
G1 X63.036 Y51.39 E0.43583
G1 X63.356 Y51.533 E0.44242
G1 X70.982 Y53.757 E0.59184
G1 X72.053 Y54.156 E0.61334
G1 X72.687 Y54.447 E0.62647
G1 X73.387 Y54.812 E0.64132
G1 X74.046 Y55.247 E0.65617
G1 X74.65 Y55.738 E0.67081
G1 X75.169 Y56.205 E0.68394
G1 X75.729 Y56.762 E0.6988
G1 X76.229 Y57.373 E0.71365
G1 X76.637 Y57.985 E0.72749
G1 X76.997 Y58.584 E0.74063
G1 X77.369 Y59.281 E0.7555
G1 X77.732 Y60.196 E0.77401
G1 X77.84 Y60.529 E0.7806
G1 X78.045 Y61.291 E0.79544
G1 X78.187 Y62.22 E0.81312
G1 X78.251 Y62.915 E0.82625
G1 X78.284 Y63.704 E0.8411
G1 X78.236 Y64.492 E0.85595
G1 X78.114 Y65.248 E0.87036
G1 X77.969 Y65.932 E0.88351
G1 X77.767 Y66.695 E0.89836
G1 X77.488 Y67.434 E0.91321
G1 X77.149 Y68.116 E0.92754
G1 X76.809 Y68.725 E0.94066
G1 X76.39 Y69.394 E0.95551
G1 X75.905 Y70.018 E0.97038
G1 X75.373 Y70.576 E0.98488
G1 X74.866 Y71.058 E0.99804
G1 X74.267 Y71.572 E1.01288
G1 X73.619 Y72.024 E1.02775
G1 X72.976 Y72.384 E1.04161
G1 X72.351 Y72.696 E1.05475
G1 X71.282 Y73.134 E1.07648
G1 X63.689 Y75.606 E1.22669
G1 X63.416 Y75.738 E1.23239
G1 X63.23 Y75.863 E1.23661
G1 X57.17 Y81.616 E1.39378
G1 X56.57 Y82.13 E1.40865
G1 X55.922 Y82.581 E1.4235
G1 X55.558 Y82.794 E1.43143
G1 X54.794 Y83.214 E1.44783
G1 X54.083 Y83.559 E1.46269
G1 X53.342 Y83.83 E1.47754
G1 X52.907 Y83.951 E1.48603
G1 X52.567 Y84.035 E1.49262
G1 X51.792 Y84.186 E1.50747
G1 X50.819 Y84.262 E1.52583
G1 X50.122 Y84.273 E1.53894
G1 X49.333 Y84.246 E1.55379
G1 X48.551 Y84.138 E1.56864
G1 X47.819 Y83.963 E1.5828
G1 X47.149 Y83.768 E1.59592
G1 X46.403 Y83.509 E1.61078
G1 X45.687 Y83.177 E1.62562
G1 X45.031 Y82.788 E1.63997
G1 X44.448 Y82.403 E1.65311
G1 X43.812 Y81.935 E1.66797
G1 X43.226 Y81.405 E1.68283
G1 X42.717 Y80.842 E1.69711
G1 X42.273 Y80.301 E1.71027
G1 X41.803 Y79.666 E1.72513
G1 X41.4 Y78.987 E1.73998
G1 X40.976 Y78.031 E1.75966
G1 X40.677 Y77.213 E1.77604
G1 X40.444 Y76.458 E1.7909
G1 X40.288 Y75.684 E1.80575
G1 X40.204 Y74.636 E1.82553
G1 X40.195 Y73.939 E1.83864
G1 X40.224 Y73.15 E1.85349
G1 X40.362 Y72.226 E1.87107
G1 X42.048 Y64.243 E2.02454
G1 X42.071 Y63.925 E2.03054
G1 X42.046 Y63.549 E2.03763
G1 X41.984 Y63.224 E2.04385
G1 X40.114 Y55.631 E2.19095
G1 X39.964 Y54.856 E2.2058
G1 X39.899 Y54.182 E2.21854
G1 X39.871 Y53.658 E2.22841
G1 X39.869 Y52.869 E2.24325
G1 X39.947 Y52.083 E2.25811
G1 X40.025 Y51.646 E2.26646
G1 X40.168 Y50.962 E2.2796
G1 X40.369 Y50.198 E2.29446
G1 X40.645 Y49.458 E2.30932
G1 X40.985 Y48.769 E2.32377
G1 X41.324 Y48.159 E2.3369
G1 X41.742 Y47.489 E2.35175
G1 X42.226 Y46.865 E2.36661
G1 X42.751 Y46.311 E2.38096
G1 X43.256 Y45.828 E2.39411
G0 F3600 X43.532 Y46.117
G1 F1800 X44.115 Y45.615 E2.40858
G1 X44.747 Y45.176 E2.42306
G1 X45.329 Y44.85 E2.4356
G1 X45.955 Y44.536 E2.44878
G1 X46.66 Y44.228 E2.46325
G1 X47.523 Y43.961 E2.48024
G1 X47.864 Y43.878 E2.48684
G1 X48.62 Y43.735 E2.50132
G1 X49.386 Y43.672 E2.51577
G1 X49.793 Y43.67 E2.52343
G1 X50.663 Y43.691 E2.5398
G1 X51.429 Y43.75 E2.55425
G1 X52.186 Y43.887 E2.56872
G1 X52.833 Y44.072 E2.58138
G1 X53.329 Y44.238 E2.59122
G1 X54.044 Y44.519 E2.60567
G1 X54.727 Y44.874 E2.62015
G1 X55.065 Y45.085 E2.62764
G1 X55.648 Y45.471 E2.6408
G1 X56.493 Y46.123 E2.66087
G1 X62.633 Y51.609 E2.81576
G1 X62.849 Y51.745 E2.82056
G1 X63.217 Y51.909 E2.82814
G1 X70.87 Y54.141 E2.97809
G1 X71.886 Y54.52 E2.99849
G1 X72.52 Y54.811 E3.01161
G1 X73.201 Y55.167 E3.02607
G1 X73.842 Y55.593 E3.04054
G1 X74.383 Y56.035 E3.05368
G1 X74.902 Y56.502 E3.06682
G1 X75.446 Y57.046 E3.08129
G1 X75.931 Y57.643 E3.09576
G1 X76.295 Y58.191 E3.10813
G1 X76.655 Y58.79 E3.12128
G1 X77.016 Y59.469 E3.13574
G1 X77.351 Y60.319 E3.15293
G1 X77.459 Y60.652 E3.15952
G1 X77.658 Y61.395 E3.17398
G1 X77.789 Y62.256 E3.19037
G1 X77.853 Y62.951 E3.20349
G1 X77.883 Y63.72 E3.21797
G1 X77.834 Y64.488 E3.23245
G1 X77.723 Y65.165 E3.24535
G1 X77.578 Y65.849 E3.2585
G1 X77.38 Y66.592 E3.27297
G1 X77.105 Y67.31 E3.28743
G1 X76.8 Y67.921 E3.30028
G1 X76.46 Y68.53 E3.3134
G1 X76.051 Y69.181 E3.32786
G1 X75.576 Y69.787 E3.34234
G1 X75.098 Y70.286 E3.35534
G1 X74.591 Y70.768 E3.3685
G1 X74.006 Y71.268 E3.38298
G1 X73.373 Y71.705 E3.39744
G1 X72.797 Y72.026 E3.40985
G1 X72.172 Y72.338 E3.42299
G1 X71.158 Y72.753 E3.4436
G1 X63.551 Y75.23 E3.59408
G1 X63.207 Y75.396 E3.60127
G1 X62.983 Y75.547 E3.60635
G1 X56.895 Y81.326 E3.76425
G1 X56.31 Y81.826 E3.77872
G1 X55.365 Y82.444 E3.79996
G1 X54.601 Y82.864 E3.81636
G1 X53.909 Y83.199 E3.83083
G1 X53.185 Y83.46 E3.8453
G1 X52.811 Y83.563 E3.8526
G1 X52.471 Y83.647 E3.85919
G1 X51.716 Y83.792 E3.87365
G1 X50.813 Y83.862 E3.89069
G1 X50.116 Y83.873 E3.9038
G1 X49.347 Y83.845 E3.91827
G1 X48.586 Y83.738 E3.93273
G1 X47.931 Y83.579 E3.94541
G1 X47.261 Y83.384 E3.95853
G1 X46.535 Y83.131 E3.973
G1 X45.839 Y82.804 E3.98746
G1 X45.251 Y82.454 E4.00033
G1 X44.668 Y82.069 E4.01347
G1 X44.049 Y81.612 E4.02795
G1 X43.481 Y81.094 E4.04241
G1 X43.026 Y80.589 E4.05519
G1 X42.582 Y80.048 E4.06836
G1 X42.125 Y79.428 E4.08285
G1 X41.736 Y78.765 E4.09731
G1 X41.352 Y77.893 E4.11523
G1 X41.053 Y77.075 E4.13161
G1 X40.827 Y76.34 E4.14608
G1 X40.678 Y75.586 E4.16053
G1 X40.604 Y74.631 E4.17855
G1 X40.595 Y73.934 E4.19166
G1 X40.625 Y73.165 E4.20614
G1 X40.754 Y72.309 E4.22242
G1 X42.445 Y64.303 E4.37634
G1 X42.472 Y63.926 E4.38345
G1 X42.444 Y63.504 E4.39141
G1 X42.368 Y63.108 E4.39899
G1 X40.503 Y55.535 E4.5457
G1 X40.358 Y54.78 E4.56016
G1 X40.299 Y54.161 E4.57186
G1 X40.271 Y53.637 E4.58173
G1 X40.269 Y52.868 E4.5962
G1 X40.417 Y51.728 E4.61782
G1 X40.56 Y51.044 E4.63097
G1 X40.756 Y50.3 E4.64544
G1 X41.028 Y49.581 E4.6599
G1 X41.335 Y48.963 E4.67288
G1 X41.674 Y48.353 E4.68601
G1 X42.082 Y47.701 E4.70047
G1 X42.555 Y47.095 E4.71493
G1 X43.027 Y46.6 E4.7278
G1 X43.532 Y46.117 E4.74094
G0 F3600 X43.809 Y46.406
G1 F1800 X44.376 Y45.919 E4.755
G1 X44.992 Y45.495 E4.76907
G1 X45.509 Y45.208 E4.78019
G1 X46.135 Y44.894 E4.79337
G1 X46.82 Y44.595 E4.80743
G1 X47.618 Y44.35 E4.82313
G1 X47.959 Y44.267 E4.82973
G1 X48.694 Y44.129 E4.8438
G1 X49.783 Y44.07 E4.86431
G1 X50.653 Y44.091 E4.88068
G1 X51.399 Y44.149 E4.89476
G1 X52.134 Y44.286 E4.90882
G1 X52.706 Y44.451 E4.92002
G1 X53.202 Y44.617 E4.92986
G1 X53.897 Y44.892 E4.94392
G1 X54.844 Y45.418 E4.9643
G1 X55.427 Y45.804 E4.97745
G1 X56.227 Y46.421 E4.99645
G1 X62.396 Y51.933 E5.15207
G1 X62.656 Y52.096 E5.15784
G1 X63.078 Y52.285 E5.16654
G1 X70.759 Y54.525 E5.31704
G1 X71.719 Y54.883 E5.33631
G1 X72.353 Y55.174 E5.34944
G1 X73.015 Y55.522 E5.3635
G1 X73.637 Y55.939 E5.37759
G1 X74.115 Y56.332 E5.38923
G1 X74.634 Y56.799 E5.40236
G1 X75.163 Y57.329 E5.41645
G1 X75.632 Y57.912 E5.43052
G1 X75.952 Y58.397 E5.44145
G1 X76.312 Y58.996 E5.4546
G1 X76.662 Y59.657 E5.46867
G1 X76.971 Y60.442 E5.48454
G1 X77.079 Y60.775 E5.49112
G1 X77.271 Y61.498 E5.50519
G1 X77.391 Y62.293 E5.52032
G1 X77.455 Y62.988 E5.53345
G1 X77.483 Y63.736 E5.54753
G1 X77.432 Y64.482 E5.56159
G1 X77.332 Y65.082 E5.57303
G1 X77.187 Y65.766 E5.58619
G1 X76.993 Y66.488 E5.60025
G1 X76.723 Y67.186 E5.61433
G1 X76.451 Y67.726 E5.6257
G1 X76.111 Y68.335 E5.63882
G1 X75.712 Y68.968 E5.6529
G1 X75.248 Y69.555 E5.66697
G1 X74.822 Y69.996 E5.67851
G1 X74.315 Y70.478 E5.69166
G1 X73.746 Y70.964 E5.70574
G1 X73.129 Y71.386 E5.7198
G1 X72.618 Y71.668 E5.73078
G1 X71.993 Y71.98 E5.74392
G1 X71.034 Y72.373 E5.76342
G1 X63.397 Y74.86 E5.9145
G1 X63.01 Y75.047 E5.92258
G1 X62.73 Y75.235 E5.92893
G1 X56.619 Y81.036 E6.08742
G1 X56.05 Y81.521 E6.10149
G1 X55.172 Y82.093 E6.1212
G1 X54.408 Y82.513 E6.1376
G1 X53.734 Y82.838 E6.15167
G1 X52.715 Y83.175 E6.17186
G1 X52.375 Y83.259 E6.17845
G1 X51.64 Y83.399 E6.19252
G1 X50.806 Y83.462 E6.20826
G1 X50.109 Y83.473 E6.22137
G1 X49.362 Y83.445 E6.23543
G1 X48.622 Y83.337 E6.2495
G1 X48.043 Y83.195 E6.26071
G1 X47.373 Y83 E6.27384
G1 X46.667 Y82.753 E6.28791
G1 X45.991 Y82.432 E6.30198
G1 X45.472 Y82.12 E6.31337
G1 X44.889 Y81.735 E6.32652
G1 X44.287 Y81.29 E6.3406
G1 X43.737 Y80.784 E6.35466
G1 X43.335 Y80.335 E6.36599
G1 X42.891 Y79.794 E6.37916
G1 X42.448 Y79.191 E6.39323
G1 X42.072 Y78.544 E6.40731
G1 X41.727 Y77.756 E6.42349
G1 X41.428 Y76.938 E6.43987
G1 X41.21 Y76.223 E6.45393
G1 X41.068 Y75.488 E6.46802
G1 X41.004 Y74.625 E6.48429
G1 X40.995 Y73.928 E6.49741
G1 X41.025 Y73.181 E6.51147
G1 X41.145 Y72.391 E6.5265
G1 X42.842 Y64.356 E6.68098
G1 X42.873 Y63.928 E6.68905
G1 X42.841 Y63.452 E6.69802
G1 X42.76 Y63.029 E6.70612
G1 X40.891 Y55.44 E6.85314
G1 X40.751 Y54.705 E6.86722
G1 X40.698 Y54.14 E6.87789
G1 X40.67 Y53.616 E6.88776
G1 X40.67 Y52.867 E6.90185
G1 X40.808 Y51.81 E6.9219
G1 X40.951 Y51.126 E6.93505
G1 X41.143 Y50.403 E6.94912
G1 X41.411 Y49.704 E6.9632
G1 X41.684 Y49.158 E6.97468
G1 X42.023 Y48.548 E6.98781
G1 X42.421 Y47.914 E7.00189
G1 X42.884 Y47.327 E7.01596
G1 X43.304 Y46.889 E7.02737
G1 X43.809 Y46.406 E7.04051
G0 F3600 X44.085 Y46.695
G1 F1800 X44.637 Y46.223 E7.05418
G1 X45.237 Y45.814 E7.06784
G1 X45.688 Y45.566 E7.07752
G1 X46.314 Y45.252 E7.09069
G1 X46.98 Y44.962 E7.10435
G1 X47.712 Y44.738 E7.11875
G1 X48.053 Y44.655 E7.12536
G1 X48.767 Y44.523 E7.13901
G1 X49.773 Y44.47 E7.15796
G1 X50.643 Y44.491 E7.17433
G1 X51.367 Y44.548 E7.18799
G1 X52.081 Y44.685 E7.20167
G1 X52.579 Y44.83 E7.21143
G1 X53.075 Y44.996 E7.22127
G1 X53.75 Y45.264 E7.23493
G1 X54.624 Y45.752 E7.25376
G1 X55.207 Y46.138 E7.26691
G1 X55.96 Y46.719 E7.2848
G1 X62.154 Y52.253 E7.44104
G1 X62.469 Y52.451 E7.44804
G1 X62.939 Y52.661 E7.45772
G1 X70.647 Y54.909 E7.60876
G1 X71.552 Y55.247 E7.62693
G1 X72.186 Y55.538 E7.64005
G1 X72.829 Y55.877 E7.65372
G1 X73.43 Y56.284 E7.66738
G1 X73.848 Y56.63 E7.67758
G1 X74.367 Y57.097 E7.69072
G1 X74.879 Y57.612 E7.70438
G1 X75.332 Y58.18 E7.71804
G1 X75.609 Y58.603 E7.72755
G1 X75.969 Y59.202 E7.7407
G1 X76.308 Y59.844 E7.75436
G1 X76.59 Y60.566 E7.76894
G1 X76.698 Y60.899 E7.77552
G1 X76.884 Y61.601 E7.78918
G1 X76.992 Y62.33 E7.80305
G1 X77.056 Y63.025 E7.81617
G1 X77.083 Y63.751 E7.82984
G1 X77.03 Y64.475 E7.8435
G1 X76.941 Y64.999 E7.85349
G1 X76.796 Y65.683 E7.86665
G1 X76.606 Y66.384 E7.88031
G1 X76.341 Y67.06 E7.89397
G1 X76.102 Y67.531 E7.9039
G1 X75.762 Y68.14 E7.91702
G1 X75.373 Y68.754 E7.93069
G1 X74.92 Y69.321 E7.94435
G1 X74.546 Y69.706 E7.95444
G1 X74.039 Y70.188 E7.9676
G1 X73.486 Y70.659 E7.98126
G1 X72.885 Y71.066 E7.99492
G1 X72.44 Y71.31 E8.00446
G1 X71.815 Y71.622 E8.0176
G1 X70.91 Y71.993 E8.036
G1 X63.246 Y74.488 E8.18761
G1 X62.809 Y74.7 E8.19675
G1 X62.481 Y74.921 E8.20419
G1 X56.344 Y80.746 E8.36335
G1 X55.79 Y81.216 E8.37702
G1 X54.98 Y81.743 E8.3952
G1 X54.216 Y82.163 E8.4116
G1 X53.561 Y82.477 E8.42526
G1 X52.619 Y82.786 E8.44391
G1 X52.279 Y82.87 E8.4505
G1 X51.565 Y83.005 E8.46416
G1 X50.8 Y83.062 E8.47859
G1 X50.103 Y83.073 E8.49171
G1 X49.377 Y83.045 E8.50537
G1 X48.659 Y82.937 E8.51903
G1 X48.155 Y82.811 E8.5288
G1 X47.485 Y82.616 E8.54193
G1 X46.799 Y82.375 E8.55561
G1 X46.145 Y82.06 E8.56926
G1 X45.692 Y81.786 E8.57922
G1 X45.109 Y81.401 E8.59236
G1 X44.526 Y80.968 E8.60602
G1 X43.994 Y80.474 E8.61968
G1 X43.644 Y80.081 E8.62958
G1 X43.2 Y79.54 E8.64274
G1 X42.771 Y78.954 E8.6564
G1 X42.409 Y78.324 E8.67007
G1 X42.103 Y77.619 E8.68453
G1 X41.804 Y76.801 E8.70091
G1 X41.593 Y76.106 E8.71457
G1 X41.459 Y75.392 E8.72824
G1 X41.404 Y74.62 E8.7428
G1 X41.395 Y73.923 E8.75591
G1 X41.425 Y73.197 E8.76958
G1 X41.537 Y72.474 E8.78334
G1 X43.239 Y64.417 E8.93824
G1 X43.274 Y63.93 E8.94743
G1 X43.238 Y63.398 E8.95746
G1 X43.155 Y62.961 E8.96582
G1 X41.279 Y55.344 E9.11338
G1 X41.145 Y54.63 E9.12705
G1 X41.097 Y54.118 E9.13672
G1 X41.069 Y53.594 E9.14659
G1 X41.071 Y52.868 E9.16025
G1 X41.2 Y51.891 E9.17879
G1 X41.343 Y51.207 E9.19193
G1 X41.53 Y50.506 E9.20558
G1 X41.794 Y49.829 E9.21925
G1 X42.034 Y49.352 E9.22929
G1 X42.373 Y48.742 E9.24242
G1 X42.76 Y48.127 E9.25609
G1 X43.213 Y47.559 E9.26975
G1 X43.58 Y47.178 E9.27971
G1 X44.085 Y46.695 E9.29285
G0 F3600 X44.362 Y46.984
G1 F1800 X44.897 Y46.528 E9.30607
G1 X45.481 Y46.134 E9.31932
G1 X45.867 Y45.923 E9.3276
G1 X46.493 Y45.609 E9.34077
G1 X47.139 Y45.33 E9.35401
G1 X47.807 Y45.127 E9.36714
G1 X48.148 Y45.044 E9.37374
G1 X48.84 Y44.916 E9.38698
G1 X49.764 Y44.87 E9.40438
G1 X50.634 Y44.891 E9.42075
G1 X51.335 Y44.948 E9.43398
G1 X52.026 Y45.084 E9.44723
G1 X52.452 Y45.21 E9.45559
G1 X52.948 Y45.376 E9.46543
G1 X53.602 Y45.637 E9.47867
G1 X54.403 Y46.085 E9.49594
G1 X54.986 Y46.471 E9.50909
G1 X55.694 Y47.018 E9.52592
G1 X61.909 Y52.571 E9.68269
G1 X62.285 Y52.807 E9.69104
G1 X62.799 Y53.037 E9.70164
G1 X70.535 Y55.293 E9.85322
G1 X71.385 Y55.61 E9.87028
G1 X72.019 Y55.901 E9.8834
G1 X72.641 Y56.231 E9.89665
G1 X73.222 Y56.629 E9.90989
G1 X73.58 Y56.927 E9.91866
G1 X74.099 Y57.394 E9.93179
G1 X74.595 Y57.894 E9.94504
G1 X75.031 Y58.447 E9.95828
G1 X75.266 Y58.809 E9.9664
G1 X75.626 Y59.408 E9.97955
G1 X75.954 Y60.031 E9.99279
G1 X76.21 Y60.689 E10.00607
G1 X76.318 Y61.022 E10.01266
G1 X76.496 Y61.703 E10.0259
G1 X76.594 Y62.366 E10.03851
G1 X76.658 Y63.061 E10.05163
G1 X76.683 Y63.765 E10.06489
G1 X76.627 Y64.467 E10.07813
G1 X76.549 Y64.916 E10.08671
G1 X76.404 Y65.6 E10.09986
G1 X76.219 Y66.279 E10.1131
G1 X75.959 Y66.933 E10.12633
G1 X75.752 Y67.336 E10.13486
G1 X75.412 Y67.945 E10.14798
G1 X75.035 Y68.54 E10.16123
G1 X74.593 Y69.087 E10.17445
G1 X74.271 Y69.416 E10.18311
G1 X73.764 Y69.898 E10.19627
G1 X73.227 Y70.354 E10.20953
G1 X72.642 Y70.745 E10.22276
G1 X72.261 Y70.952 E10.23092
G1 X71.636 Y71.264 E10.24406
G1 X70.786 Y71.612 E10.26133
G1 X63.099 Y74.115 E10.4134
G1 X62.612 Y74.351 E10.42358
G1 X62.228 Y74.609 E10.43229
G1 X56.068 Y80.456 E10.59205
G1 X55.531 Y80.911 E10.60529
G1 X54.787 Y81.392 E10.62195
G1 X54.023 Y81.812 E10.63835
G1 X53.388 Y82.116 E10.65159
G1 X52.523 Y82.398 E10.66871
G1 X52.183 Y82.482 E10.67529
G1 X51.491 Y82.612 E10.68854
G1 X50.794 Y82.662 E10.70168
G1 X50.097 Y82.673 E10.7148
G1 X49.393 Y82.644 E10.72805
G1 X48.698 Y82.536 E10.74128
G1 X48.266 Y82.427 E10.74966
G1 X47.596 Y82.232 E10.76279
G1 X46.933 Y81.997 E10.77602
G1 X46.3 Y81.689 E10.78926
G1 X45.912 Y81.453 E10.7978
G1 X45.329 Y81.068 E10.81095
G1 X44.765 Y80.647 E10.82418
G1 X44.252 Y80.165 E10.83743
G1 X43.953 Y79.827 E10.84591
G1 X43.509 Y79.286 E10.85908
G1 X43.094 Y78.718 E10.87231
G1 X42.747 Y78.106 E10.88555
G1 X42.479 Y77.482 E10.89832
G1 X42.18 Y76.664 E10.9147
G1 X41.976 Y75.99 E10.92795
G1 X41.85 Y75.297 E10.9412
G1 X41.804 Y74.615 E10.95406
G1 X41.795 Y73.918 E10.96717
G1 X41.825 Y73.215 E10.9804
G1 X41.928 Y72.557 E10.99293
G1 X43.636 Y64.471 E11.14839
G1 X43.675 Y63.931 E11.15857
G1 X43.635 Y63.345 E11.16962
G1 X43.544 Y62.865 E11.17881
G1 X41.668 Y55.248 E11.32638
G1 X41.539 Y54.556 E11.33962
G1 X41.497 Y54.097 E11.34829
G1 X41.469 Y53.573 E11.35816
G1 X41.471 Y52.869 E11.3714
G1 X41.591 Y51.973 E11.3884
G1 X41.734 Y51.289 E11.40155
G1 X41.917 Y50.609 E11.4148
G1 X42.176 Y49.955 E11.42803
G1 X42.384 Y49.546 E11.43666
G1 X42.723 Y48.936 E11.44979
G1 X43.099 Y48.341 E11.46303
G1 X43.54 Y47.793 E11.47626
G1 X43.857 Y47.467 E11.48481
G1 X44.362 Y46.984 E11.49796
G0 F3600 X44.638 Y47.273
G1 F1800 X45.157 Y46.833 E11.51075
G1 X45.724 Y46.455 E11.52357
G1 X46.047 Y46.281 E11.53047
G1 X46.673 Y45.967 E11.54365
G1 X47.298 Y45.698 E11.55645
