( AXIS "splash g-code" Not intended for actual milling )
( To run this code anyway you might have to Touch Off the Z axis)
( depending on your setup. As if you had some material in your mill... )
( Hint jog the Z axis down a bit then touch off )
( Also press the Toggle Skip Lines with "/" to see that part )
( If the program is too big or small for your machine, change the scale #3 )
G21 G90 G64 G40

G00 Z3.000000
G00 X135.965044 Y12.999580

G01 Z-2.000000 F100.0
G01 X133.158366 Y13.192225 Z-2.000000 F400.000000
G01 X132.360386 Y13.192225
G01 X132.277853 Y6.478187
G01 X132.387922 Y2.020515
G01 X128.948359 Y2.020515
G01 X129.085945 Y6.147987
G01 X129.030894 Y13.192225
G01 X128.232914 Y13.192225
G01 X125.371203 Y12.999580
G01 X125.151075 Y13.274747
G01 X125.343686 Y15.916353
G01 X135.965044 Y15.916353
G01 X136.157655 Y15.641186
G01 X135.965044 Y12.999580
G01 X135.965044 Y12.999580
G00 Z3.000000

G00 Z3.000000
G00 X122.308714 Y2.020515

G01 Z-2.000000 F100.0
G01 X118.841636 Y2.020515 Z-2.000000 F400.000000
G01 X118.979220 Y6.147987
G01 X118.841636 Y15.916353
G01 X122.363739 Y15.916353
G01 X122.171128 Y6.478187
G01 X122.308714 Y2.020515
G01 X122.308714 Y2.020515
G00 Z3.000000

G00 Z3.000000
G00 X111.342540 Y9.367408

G01 Z-2.000000 F100.0
G03 X113.925653 Y6.075529 Z-2.000000 I68.558984 J51.138285 F400.000000
G03 X116.790801 Y2.763465 Z-2.000000 I72.268270 J59.621400
G01 X116.708265 Y2.350715
G02 X114.825410 Y1.956556 Z-2.000000 I-6.043911 J24.176920
G02 X113.296221 Y1.772893 Z-2.000000 I-2.667378 J15.750894
G01 X112.855966 Y1.965481
G02 X110.189835 Y5.611033 Z-2.000000 I114.737982 J86.709934
G02 X107.930513 Y8.927170 Z-2.000000 I92.672396 J65.566488
G01 X107.875463 Y6.478187
G01 X108.013046 Y2.020515
G01 X104.545969 Y2.020515
G01 X104.683555 Y6.147987
G01 X104.545969 Y15.916353
G01 X108.068082 Y15.916353
G01 X107.930496 Y9.642575
G01 X111.727771 Y14.512997
G01 X112.580776 Y15.916353
G01 X116.378051 Y15.943841
G01 X111.342540 Y9.367380
G01 X111.342540 Y9.367408
G00 Z3.000000

G00 Z3.000000
G00 X101.792177 Y4.607081

G01 Z-2.000000 F100.0
G01 X101.544530 Y2.020515 Z-2.000000 F400.000000
G01 X92.023834 Y2.020515
G01 X92.161420 Y6.147987
G01 X92.023834 Y15.916353
G01 X101.682116 Y15.916353
G01 X101.874727 Y15.641186
G01 X101.654599 Y13.082158
G01 X98.077461 Y13.219714
G01 X95.490911 Y13.219714
G01 X95.435861 Y10.413042
G01 X97.912341 Y10.385666
G01 X100.306269 Y10.468216
G01 X100.498888 Y10.220566
G01 X100.278760 Y7.606483
G01 X97.664694 Y7.689033
G01 X95.380827 Y7.689033
G01 X95.353339 Y6.478299
G01 X95.408389 Y4.717261
G01 X97.829833 Y4.717261
G01 X101.572075 Y4.827328
G01 X101.792205 Y4.607166
G01 X101.792177 Y4.607081
G00 Z3.000000

G00 Z3.000000
G00 X87.992244 Y2.020515

G01 Z-2.000000 F100.0
G01 X84.222486 Y2.020515 Z-2.000000 F400.000000
G01 X78.664167 Y10.633175
G01 X78.471548 Y10.633175
G01 X78.444059 Y6.890937
G01 X78.554126 Y2.020515
G01 X75.417254 Y2.020515
G01 X75.554829 Y6.092953
G01 X75.417254 Y15.916353
G01 X79.159487 Y15.916353
G01 X84.717814 Y7.303687
G01 X84.965459 Y7.303687
G01 X84.855400 Y15.778769
G01 X88.047306 Y15.998894
G01 X87.854686 Y6.423153
G01 X87.992272 Y2.020515
G01 X87.992244 Y2.020515
G00 Z3.000000

G00 Z3.000000
G00 X71.199025 Y2.020515

G01 Z-2.000000 F100.0
G01 X67.731954 Y2.020515 Z-2.000000 F400.000000
G01 X67.869540 Y6.147987
G01 X67.731954 Y15.916353
G01 X71.254059 Y15.916353
G01 X71.061448 Y6.478187
G01 X71.199025 Y2.020515
G01 X71.199025 Y2.020515
G00 Z3.000000

G00 Z3.000000
G00 X63.727884 Y2.020515

G01 Z-2.000000 F100.0
G01 X60.260812 Y2.020515 Z-2.000000 F400.000000
G01 X60.398389 Y6.147987
G01 X60.370901 Y7.496303
G01 X57.261546 Y7.523679
G01 X54.482385 Y7.468617
G01 X54.454897 Y6.478045
G01 X54.592474 Y2.020374
G01 X51.125403 Y2.020374
G01 X51.262980 Y6.147845
G01 X51.125403 Y15.916183
G01 X54.647508 Y15.916183
G01 X54.537438 Y10.412901
G01 X57.481702 Y10.357839
G01 X60.343413 Y10.385215
G01 X60.260879 Y15.916014
G01 X63.782982 Y15.916014
G01 X63.590362 Y6.477876
G01 X63.727948 Y2.020204
G01 X63.727884 Y2.020515
G00 Z3.000000

G00 Z3.000000
G00 X44.738084 Y16.108964

G01 Z-2.000000 F100.0
G02 X46.765860 Y15.922266 Z-2.000000 I-0.000000 J-11.105479 F400.000000
G02 X48.590384 Y15.393536 Z-2.000000 I-1.764550 J-9.501415
G01 X47.985026 Y12.476792
G01 X47.709862 Y12.339208
G03 X46.257209 Y13.025113 Z-2.000000 I-2.906479 J-4.274319
G03 X44.517954 Y13.274747 Z-2.000000 I-1.739255 J-5.934061
G03 X42.977016 Y12.981026 Z-2.000000 I-0.000000 J-4.188950
G03 X42.013957 Y12.284175 Z-2.000000 I0.884878 J-2.236821
G03 X41.453088 Y11.223201 Z-2.000000 I2.066151 J-1.770975
G03 X41.188462 Y9.229825 Z-2.000000 I7.375540 J-1.993376
G03 X42.341176 Y5.842345 Z-2.000000 I5.553755 J0.000000
G03 X44.683048 Y4.689631 Z-2.000000 I2.341873 J1.802539
G03 X46.365409 Y4.896741 Z-2.000000 I0.000000 J6.936506
G03 X47.985026 Y5.515131 Z-2.000000 I-1.759846 J7.039334
G01 X48.287703 Y5.350031
G01 X48.012542 Y2.460781
G02 X46.354935 Y1.974908 Z-2.000000 I-3.221320 J7.919374
G02 X44.462920 Y1.800410 Z-2.000000 I-1.892015 J10.169934
G02 X41.307182 Y2.340960 Z-2.000000 I-0.000000 J9.481885
G02 X39.317340 Y3.616481 Z-2.000000 I1.719783 J4.872760
G02 X38.080681 Y5.645080 Z-2.000000 I3.863735 J3.746622
G02 X37.556288 Y8.844620 Z-2.000000 I9.498658 J3.199539
G02 X38.105347 Y12.086607 Z-2.000000 I9.845891 J0.000000
G02 X39.427410 Y14.210314 Z-2.000000 I5.381031 J-1.876470
G02 X41.531222 Y15.552945 Z-2.000000 I3.989425 J-3.931578
G02 X44.738084 Y16.108964 Z-2.000000 I3.206862 J-8.969848
G01 X44.738084 Y16.108964
G00 Z3.000000

G00 Z3.000000
G00 X32.887522 Y2.020515

G01 Z-2.000000 F100.0
G01 X32.502292 Y4.029231 Z-2.000000 F400.000000
G01 X32.254636 Y4.827215
G01 X29.447961 Y4.854590
G01 X26.971482 Y4.799529
G01 X26.778871 Y4.221679
G01 X26.366121 Y2.020374
G01 X22.981594 Y2.020374
G01 X27.852013 Y15.916183
G01 X31.951958 Y15.916183
G01 X36.382108 Y2.020374
G01 X32.887522 Y2.020374
G01 X32.887522 Y2.020515
G00 Z3.000000

G00 Z3.000000
G00 X29.943259 Y12.751958

G01 Z-2.000000 F100.0
G01 X29.723123 Y12.751958 Z-2.000000 F400.000000
G01 X27.879521 Y7.441270
G01 X29.668098 Y7.413894
G01 X31.511692 Y7.441270
G01 X29.943259 Y12.751958
G01 X29.943259 Y12.751958
G00 Z3.000000

G00 Z3.000000
G00 X17.894490 Y2.020515

G01 Z-2.000000 F100.0
G01 X17.619326 Y7.386237 Z-2.000000 F400.000000
G01 X16.986440 Y14.210314
G01 X16.711279 Y14.210314
G01 X12.748909 Y3.891648
G01 X9.859681 Y3.891648
G01 X6.255026 Y14.210314
G01 X6.007381 Y14.210314
G01 X5.319470 Y7.743953
G01 X4.934239 Y2.020515
G01 X1.797357 Y2.020515
G01 X3.585926 Y19.741135
G01 X7.878492 Y19.741135
G01 X8.593929 Y17.127072
G01 X11.400605 Y8.734553
G01 X11.648251 Y8.734553
G01 X14.592513 Y17.127072
G01 X15.390493 Y19.741135
G01 X19.600507 Y19.741135
G01 X21.196465 Y2.020515
G01 X17.894490 Y2.020515
G01 X17.894490 Y2.020515
G00 Z3.000000

M5
G00 X0.0000 Y0.0000
M2

