%
(MOTORCLAMP)
(MACHINE)
(  VENDOR ROCKWELL)
(  MODEL VERTICAL)
(  DESCRIPTION ROCKWELL MILL)
(T4 D=12.7 CR=0. - ZMIN=-19.05 - FLAT END MILL)
N10 G90 G94 G17 G91.1
N15 G21
(-ATTENTION- PROPERTY SAFE RETRACTS IS SET TO CLEARANCE HEIGHT.)
(ENSURE THE CLEARANCE HEIGHT WILL CLEAR THE PART AND OR FIXTURES.)
(RAISE THE Z-AXIS TO A SAFE HEIGHT BEFORE STARTING THE PROGRAM.)
(WHEN USING FUSION FOR PERSONAL USE, THE FEEDRATE OF RAPID)
(MOVES IS REDUCED TO MATCH THE FEEDRATE OF CUTTING MOVES,)
(WHICH CAN INCREASE MACHINING TIME. UNRESTRICTED RAPID MOVES)
(ARE AVAILABLE WITH A FUSION SUBSCRIPTION.)
(2D CONTOUR6)
(SKIP WRITETOOLCALL)
N20 S1200 M3
N25 G54
N30 G64 P0.01 Q0.01
N35 G0 X98.81 Y-37.09
(SKIP3 G43 HEADCONFIG)
N40 G0 Z15. F50.
N41 Z-5
N45 G1 Z-9.05 F50
N60 X98.815 Y-37.084 Z-17.922 F50.
N65 X98.829 Y-37.065 Z-18.063
N70 X98.853 Y-37.033 Z-18.199
N75 X98.885 Y-36.989 Z-18.331
N80 X98.927 Y-36.934 Z-18.456
N85 X98.976 Y-36.868 Z-18.572
N90 X99.033 Y-36.792 Z-18.678
N95 X99.097 Y-36.707 Z-18.773
N100 X99.167 Y-36.615 Z-18.855
N105 X99.241 Y-36.515 Z-18.924
N110 X99.32 Y-36.41 Z-18.979
N115 X99.402 Y-36.3 Z-19.018
N120 X99.487 Y-36.188 Z-19.042
N125 X99.572 Y-36.074 Z-19.05
N130 X100.334 Y-35.058
N135 G3 X100.08 Y-33.28 I-1.016 J0.762
N140 X52.5 I-23.79 J-31.72
N145 X52.246 Y-35.058 I0.762 J-1.016
N150 G1 X53.008 Y-36.074
N155 X53.093 Y-36.188 Z-19.042
N160 X53.178 Y-36.3 Z-19.018
N165 X53.26 Y-36.41 Z-18.979
N170 X53.339 Y-36.515 Z-18.924
N175 X53.413 Y-36.615 Z-18.855
N180 X53.483 Y-36.707 Z-18.773
N185 X53.547 Y-36.792 Z-18.678
N190 X53.604 Y-36.868 Z-18.572
N195 X53.653 Y-36.934 Z-18.456
N200 X53.695 Y-36.989 Z-18.331
N205 X53.727 Y-37.033 Z-18.199
N210 X53.751 Y-37.065 Z-18.063
N215 X53.765 Y-37.084 Z-17.922
N220 X53.77 Y-37.09 Z-17.78
N225 G0 Z-17
N230 X100.01 Y-35.49
N235 G0 Z-17
N240 G1 Z-17 F100
N245 Z-17.78
N250 X100.015 Y-35.484 Z-17.922 F50.
N255 X100.029 Y-35.465 Z-18.063
N260 X100.053 Y-35.433 Z-18.199
N265 X100.085 Y-35.389 Z-18.331
N270 X100.127 Y-35.334 Z-18.456
N275 X100.176 Y-35.268 Z-18.572
N280 X100.233 Y-35.192 Z-18.678
N285 X100.297 Y-35.107 Z-18.773
N290 X100.367 Y-35.015 Z-18.855
N295 X100.441 Y-34.915 Z-18.924
N300 X100.52 Y-34.81 Z-18.979
N305 X100.602 Y-34.7 Z-19.018
N310 X100.687 Y-34.588 Z-19.042
N315 X100.772 Y-34.474 Z-19.05
N320 X101.534 Y-33.458
N325 G3 X101.28 Y-31.68 I-1.016 J0.762
N330 X51.3 I-24.99 J-33.32
N335 X51.046 Y-33.458 I0.762 J-1.016
N340 G1 X51.808 Y-34.474
N345 X51.893 Y-34.588 Z-19.042
N350 X51.978 Y-34.7 Z-19.018
N355 X52.06 Y-34.81 Z-18.979
N360 X52.139 Y-34.915 Z-18.924
N365 X52.213 Y-35.015 Z-18.855
N370 X52.283 Y-35.107 Z-18.773
N375 X52.347 Y-35.192 Z-18.678
N380 X52.404 Y-35.268 Z-18.572
N385 X52.453 Y-35.334 Z-18.456
N390 X52.495 Y-35.389 Z-18.331
N395 X52.527 Y-35.433 Z-18.199
N400 X52.551 Y-35.465 Z-18.063
N405 X52.565 Y-35.484 Z-17.922
N410 X52.57 Y-35.49 Z-17.78
N415 G0 Z-17
N420 X101.21 Y-33.89
N425 G0 Z-17
N430 G1 Z-17.05 F100
N435 Z-17.78
N440 X101.215 Y-33.884 Z-17.922 F50.
N445 X101.229 Y-33.865 Z-18.063
N450 X101.253 Y-33.833 Z-18.199
N455 X101.285 Y-33.789 Z-18.331
N460 X101.327 Y-33.734 Z-18.456
N465 X101.376 Y-33.668 Z-18.572
N470 X101.433 Y-33.592 Z-18.678
N475 X101.497 Y-33.507 Z-18.773
N480 X101.567 Y-33.415 Z-18.855
N485 X101.641 Y-33.315 Z-18.924
N490 X101.72 Y-33.21 Z-18.979
N495 X101.802 Y-33.1 Z-19.018
N500 X101.887 Y-32.988 Z-19.042
N505 X101.972 Y-32.874 Z-19.05
N510 X102.734 Y-31.858
N515 G3 X102.48 Y-30.08 I-1.016 J0.762
N520 X50.1 I-26.19 J-34.92
N525 X49.846 Y-31.858 I0.762 J-1.016
N530 G1 X50.608 Y-32.874
N535 X50.693 Y-32.988 Z-19.042
N540 X50.778 Y-33.1 Z-19.018
N545 X50.86 Y-33.21 Z-18.979
N550 X50.939 Y-33.315 Z-18.924
N555 X51.013 Y-33.415 Z-18.855
N560 X51.083 Y-33.507 Z-18.773
N565 X51.147 Y-33.592 Z-18.678
N570 X51.204 Y-33.668 Z-18.572
N575 X51.253 Y-33.734 Z-18.456
N580 X51.295 Y-33.789 Z-18.331
N585 X51.327 Y-33.833 Z-18.199
N590 X51.351 Y-33.865 Z-18.063
N595 X51.365 Y-33.884 Z-17.922
N600 X51.37 Y-33.89 Z-17.78
N605 G0 Z15.
N610 M5
N615 M30
%
