; LightBurn 1.7.03
; LinuxCNC device profile, absolute coords
; Bounds: X316.69 Y697.5 to X360.47 Y721.51
G21
G90
; Cut @ 150 mm/min, 100% power
M8
M67 E0 Q0
G0 X318 Y697.5 F1200
G91
G0 Z4
G90
; Layer 
M67 E0 Q1
G1  Y717.5F150
; Cut @ 150 mm/min, 100% power
M8
M67 E0 Q0
G0 X318.455 Y720.219 F1200
; Layer 
M67 E0 Q1
G1 X318.355F150
M67 E0 Q0
G0 X318.255 F1200
M67 E0 Q1
G1 X318.155F150
M67 E0 Q0
G0 X318.055 F1200
M67 E0 Q1
G1 X317.955F150
M67 E0 Q0
G0 X317.855 F1200
M67 E0 Q1
G1 X317.755F150
M67 E0 Q0
G0 X317.655 F1200
M67 E0 Q1
G1 X317.555F150
M67 E0 Q0
G0 X317.455 F1200
M67 E0 Q1
G1 X317.355F150
M67 E0 Q0
G0 X317.255 F1200
M67 E0 Q1
G1 X317.155F150
M67 E0 Q0
G0 X317.055 F1200
M67 E0 Q1
G1 X316.955F150
M67 E0 Q0
G0 X316.855 F1200
M67 E0 Q1
G1 X316.755F150
M67 E0 Q0
G0 X316.705 Y720.268 F1200
M67 E0 Q1
G1  Y720.287F150
G1 X316.779 Y720.321
M67 E0 Q0
G0 X316.87 Y720.363 F1200
M67 E0 Q1
G1 X316.96 Y720.405F150
M67 E0 Q0
G0 X317.051 Y720.447 F1200
M67 E0 Q1
G1 X317.142 Y720.489F150
M67 E0 Q0
G0 X317.233 Y720.531 F1200
M67 E0 Q1
G1 X317.324 Y720.572F150
M67 E0 Q0
G0 X317.414 Y720.614 F1200
M67 E0 Q1
G1 X317.505 Y720.656F150
M67 E0 Q0
G0 X317.596 Y720.698 F1200
M67 E0 Q1
G1 X317.687 Y720.74F150
M67 E0 Q0
G0 X317.778 Y720.782 F1200
M67 E0 Q1
G1 X317.869 Y720.823F150
M67 E0 Q0
G0 X317.931 F1200
M67 E0 Q1
G1  Y720.721F150
M67 E0 Q0
G0  Y720.622 F1200
M67 E0 Q1
G1  Y720.521F150
M67 E0 Q0
G0  Y720.422 F1200
M67 E0 Q1
G1  Y720.322F150
M67 E0 Q0
G0  Y720.221 F1200
M67 E0 Q1
G1  Y720.122F150
M67 E0 Q0
G0  Y720.021 F1200
M67 E0 Q1
G1  Y719.957F150
M67 E0 Q0
G0 X318.386 Y719.626 F1200
M67 E0 Q1
G1 X318.455F150
G1  Y719.595
M67 E0 Q0
G0  Y719.495 F1200
M67 E0 Q1
G1  Y719.447F150
G1 X318.403
M67 E0 Q0
G0 X318.303 F1200
M67 E0 Q1
G1 X318.276F150
G1  Y719.52
M67 E0 Q0
G0  Y719.62 F1200
M67 E0 Q1
G1  Y719.626F150
G1 X318.37
M67 E0 Q0
G0 X317.518 Y719.116 F1200
M67 E0 Q1
G1 X317.618F150
M67 E0 Q0
G0 X317.718 F1200
M67 E0 Q1
G1 X317.818F150
M67 E0 Q0
G0 X317.918 F1200
M67 E0 Q1
G1 X318.018F150
M67 E0 Q0
G0 X318.118 F1200
M67 E0 Q1
G1 X318.124F150
G1 X318.215 Y719.091
M67 E0 Q0
G0 X318.306 Y719.054 F1200
M67 E0 Q1
G1 X318.372 Y719.006F150
G1 X318.383 Y718.991
M67 E0 Q0
G0 X318.441 Y718.91 F1200
M67 E0 Q1
G1 X318.461 Y718.812F150
M67 E0 Q0
G0 X318.469 Y718.713 F1200
M67 E0 Q1
G1  Y718.675F150
G1 X318.457 Y718.614
M67 E0 Q0
G0 X318.428 Y718.52 F1200
M67 E0 Q1
G1 X318.368 Y718.44F150
M67 E0 Q0
G0 X318.291 Y718.377 F1200
M67 E0 Q1
G1 X318.248 Y718.344F150
G1 X318.202 Y718.339
M67 E0 Q0
G0 X318.103 Y718.331 F1200
M67 E0 Q1
G1 X318.003F150
M67 E0 Q0
G0 X317.903 F1200
M67 E0 Q1
G1 X317.803F150
M67 E0 Q0
G0 X317.703 F1200
M67 E0 Q1
G1 X317.603F150
M67 E0 Q0
G0 X317.503 F1200
M67 E0 Q1
G1 X317.403F150
M67 E0 Q0
G0 X317.303 F1200
M67 E0 Q1
G1 X317.203F150
M67 E0 Q0
G0 X317.103 F1200
M67 E0 Q1
G1 X317.036F150
G1 X317.003 Y718.337
M67 E0 Q0
G0 X316.905 Y718.357 F1200
M67 E0 Q1
G1 X316.898F150
G1 X316.819 Y718.407
M67 E0 Q0
G0 X316.756 Y718.481 F1200
M67 E0 Q1
G1 X316.705 Y718.565F150
M67 E0 Q0
G0 X316.692 Y718.666 F1200
M67 E0 Q1
G1  Y718.675F150
G1  Y718.766
M67 E0 Q0
G0 X316.71 Y718.864 F1200
M67 E0 Q1
G1 X316.719 Y718.909F150
G1 X316.745 Y718.956
M67 E0 Q0
G0 X316.808 Y719.031 F1200
M67 E0 Q1
G1 X316.884 Y719.089F150
G1 X316.889
M67 E0 Q0
G0 X316.987 Y719.107 F1200
M67 E0 Q1
G1 X317.036 Y719.116F150
G1 X317.087
M67 E0 Q0
G0 X317.187 F1200
M67 E0 Q1
G1 X317.287F150
M67 E0 Q0
G0 X317.387 F1200
M67 E0 Q1
G1 X317.487F150
; Cut @ 150 mm/min, 100% power
M8
M67 E0 Q0
G0 X321 Y697.5 F1200
G91
G0 Z0.43
G90
; Layer 
M67 E0 Q1
G1  Y717.5F150
; Cut @ 150 mm/min, 100% power
M8
M67 E0 Q0
G0 X321.386 Y719.736 F1200
; Layer 
M67 E0 Q1
G1 X321.455F150
G1  Y719.705
M67 E0 Q0
G0  Y719.605 F1200
M67 E0 Q1
G1  Y719.557F150
G1 X321.403
M67 E0 Q0
G0 X321.303 F1200
M67 E0 Q1
G1 X321.276F150
G1  Y719.63
M67 E0 Q0
G0  Y719.73 F1200
M67 E0 Q1
G1  Y719.736F150
G1 X321.37
M67 E0 Q0
G0 X321.455 Y718.593 F1200
M67 E0 Q1
G1 X321.355F150
M67 E0 Q0
G0 X321.255 F1200
M67 E0 Q1
G1 X321.155F150
M67 E0 Q0
G0 X321.055 F1200
M67 E0 Q1
G1 X320.955F150
M67 E0 Q0
G0 X320.855 F1200
M67 E0 Q1
G1 X320.755F150
M67 E0 Q0
G0 X320.655 F1200
M67 E0 Q1
G1 X320.555F150
M67 E0 Q0
G0 X320.455 F1200
M67 E0 Q1
G1 X320.355F150
M67 E0 Q0
G0 X320.255 F1200
M67 E0 Q1
G1 X320.155F150
M67 E0 Q0
G0 X320.055 F1200
M67 E0 Q1
G1 X319.955F150
M67 E0 Q0
G0 X319.855 F1200
M67 E0 Q1
G1 X319.755F150
M67 E0 Q0
G0 X319.705 Y718.643 F1200
M67 E0 Q1
G1  Y718.661F150
G1 X319.779 Y718.695
M67 E0 Q0
G0 X319.87 Y718.737 F1200
M67 E0 Q1
G1 X319.96 Y718.779F150
M67 E0 Q0
G0 X320.051 Y718.821 F1200
M67 E0 Q1
G1 X320.142 Y718.863F150
M67 E0 Q0
G0 X320.233 Y718.905 F1200
M67 E0 Q1
G1 X320.324 Y718.946F150
M67 E0 Q0
G0 X320.414 Y718.988 F1200
M67 E0 Q1
G1 X320.505 Y719.03F150
M67 E0 Q0
G0 X320.596 Y719.072 F1200
M67 E0 Q1
G1 X320.687 Y719.114F150
M67 E0 Q0
G0 X320.778 Y719.156 F1200
M67 E0 Q1
G1 X320.869 Y719.197F150
M67 E0 Q0
G0 X320.931 F1200
M67 E0 Q1
G1  Y719.096F150
M67 E0 Q0
G0  Y718.996 F1200
M67 E0 Q1
G1  Y718.896F150
M67 E0 Q0
G0  Y718.796 F1200
M67 E0 Q1
G1  Y718.696F150
M67 E0 Q0
G0  Y718.596 F1200
M67 E0 Q1
G1  Y718.496F150
M67 E0 Q0
G0  Y718.396 F1200
M67 E0 Q1
G1  Y718.331F150
; Cut @ 150 mm/min, 100% power
M8
M67 E0 Q0
G0 X324 Y697.5 F1200
G91
G0 Z0.43
G90
; Layer 
M67 E0 Q1
G1  Y717.5F150
; Cut @ 150 mm/min, 100% power
M8
M67 E0 Q0
G0 X324.386 Y719.64 F1200
; Layer 
M67 E0 Q1
G1 X324.455F150
G1  Y719.609
M67 E0 Q0
G0  Y719.509 F1200
M67 E0 Q1
G1  Y719.461F150
G1 X324.403
M67 E0 Q0
G0 X324.303 F1200
M67 E0 Q1
G1 X324.276F150
G1  Y719.533
M67 E0 Q0
G0  Y719.633 F1200
M67 E0 Q1
G1  Y719.64F150
G1 X324.37
M67 E0 Q0
G0 X323.987 Y719.13 F1200
M67 E0 Q1
G1 X324.087F150
M67 E0 Q0
G0 X324.185 Y719.116 F1200
M67 E0 Q1
G1 X324.248 Y719.102F150
G1 X324.28 Y719.087
M67 E0 Q0
G0 X324.361 Y719.031 F1200
M67 E0 Q1
G1 X324.4 Y718.992F150
G1 X324.422 Y718.953
M67 E0 Q0
G0 X324.459 Y718.862 F1200
M67 E0 Q1
G1 X324.469 Y718.785F150
G1  Y718.762
M67 E0 Q0
G0 X324.466 Y718.662 F1200
M67 E0 Q1
G1 X324.455 Y718.565F150
M67 E0 Q0
G0 X324.406 Y718.476 F1200
M67 E0 Q1
G1 X324.331 Y718.413F150
M67 E0 Q0
G0 X324.246 Y718.358 F1200
M67 E0 Q1
G1 X324.148 Y718.336F150
M67 E0 Q0
G0 X324.049 Y718.331 F1200
M67 E0 Q1
G1 X323.949F150
M67 E0 Q0
G0 X323.849 F1200
M67 E0 Q1
G1 X323.749F150
M67 E0 Q0
G0 X323.649 F1200
M67 E0 Q1
G1 X323.549F150
M67 E0 Q0
G0 X323.449 F1200
M67 E0 Q1
G1 X323.349F150
M67 E0 Q0
G0 X323.249 F1200
M67 E0 Q1
G1 X323.149F150
M67 E0 Q0
G0 X323.049 F1200
M67 E0 Q1
G1 X323.036F150
G1 X322.953 Y718.356
M67 E0 Q0
G0 X322.862 Y718.395 F1200
M67 E0 Q1
G1 X322.788 Y718.441F150
G1 X322.779 Y718.451
M67 E0 Q0
G0 X322.718 Y718.529 F1200
M67 E0 Q1
G1 X322.702 Y718.628F150
M67 E0 Q0
G0 X322.691 Y718.727 F1200
M67 E0 Q1
G1  Y718.785F150
G1 X322.699 Y718.826
M67 E0 Q0
G0 X322.717 Y718.924 F1200
M67 E0 Q1
G1  Y718.937F150
G1 X322.776 Y719.003
M67 E0 Q0
G0 X322.852 Y719.065 F1200
M67 E0 Q1
G1 X322.912 Y719.102F150
G1 X322.941 Y719.109
M67 E0 Q0
G0 X323.039 Y719.13 F1200
M67 E0 Q1
G1 X323.139F150
M67 E0 Q0
G0 X323.239 F1200
M67 E0 Q1
G1 X323.339F150
M67 E0 Q0
G0 X323.439 F1200
M67 E0 Q1
G1 X323.477F150
G1 X323.537 Y719.116
M67 E0 Q0
G0 X323.63 Y719.083 F1200
M67 E0 Q1
G1 X323.713 Y719.027F150
M67 E0 Q0
G0 X323.775 Y718.95 F1200
M67 E0 Q1
G1 X323.794 Y718.923F150
G1 X323.809 Y718.857
M67 E0 Q0
G0 X323.831 Y718.76 F1200
M67 E0 Q1
G1 X323.835 Y718.744F150
G1 X323.821 Y718.662
M67 E0 Q0
G0 X323.798 Y718.565 F1200
M67 E0 Q1
G1 X323.743 Y718.482F150
M67 E0 Q0
G0 X323.671 Y718.414 F1200
M67 E0 Q1
G1 X323.591 Y718.354F150
; Cut @ 150 mm/min, 100% power
M8
M67 E0 Q0
G0 X327 Y697.5 F1200
G91
G0 Z0.43
G90
; Layer 
M67 E0 Q1
G1  Y717.5F150
; Cut @ 150 mm/min, 100% power
M8
M67 E0 Q0
G0 X325.705 Y720.026 F1200
; Layer 
M67 E0 Q1
G1  Y720.126F150
M67 E0 Q0
G0  Y720.226 F1200
M67 E0 Q1
G1  Y720.326F150
M67 E0 Q0
G0  Y720.426 F1200
M67 E0 Q1
G1  Y720.526F150
M67 E0 Q0
G0  Y720.626 F1200
M67 E0 Q1
G1  Y720.673F150
G1 X325.757
M67 E0 Q0
G0 X325.857 Y720.677 F1200
M67 E0 Q1
G1 X325.957 Y720.68F150
M67 E0 Q0
G0 X326.057 Y720.683 F1200
M67 E0 Q1
G1 X326.157F150
M67 E0 Q0
G0 X326.257 Y720.688 F1200
M67 E0 Q1
G1 X326.357 Y720.691F150
M67 E0 Q0
G0 X326.457 Y720.694 F1200
M67 E0 Q1
G1 X326.557F150
M67 E0 Q0
G0 X326.657 Y720.699 F1200
M67 E0 Q1
G1 X326.725F150
G1  Y720.669
M67 E0 Q0
G0 X326.638 Y720.631 F1200
M67 E0 Q1
G1 X326.559 Y720.604F150
G1 X326.546 Y720.595
M67 E0 Q0
G0 X326.464 Y720.537 F1200
M67 E0 Q1
G1 X326.399 Y720.461F150
M67 E0 Q0
G0 X326.361 Y720.371 F1200
M67 E0 Q1
G1 X326.353 Y720.343F150
G1 X326.36 Y720.272
M67 E0 Q0
G0 X326.379 Y720.174 F1200
M67 E0 Q1
G1 X326.394 Y720.122F150
G1 X326.424 Y720.087
M67 E0 Q0
G0 X326.492 Y720.016 F1200
M67 E0 Q1
G1 X326.577 Y719.963F150
M67 E0 Q0
G0 X326.673 Y719.935 F1200
M67 E0 Q1
G1 X326.697 Y719.929F150
G1 X326.772
M67 E0 Q0
G0 X326.872 F1200
M67 E0 Q1
G1 X326.972F150
M67 E0 Q0
G0 X327.072 F1200
M67 E0 Q1
G1 X327.124F150
G1 X327.17 Y719.943
M67 E0 Q0
G0 X327.266 Y719.972 F1200
M67 E0 Q1
G1 X327.352 Y720.022F150
M67 E0 Q0
G0 X327.418 Y720.097 F1200
M67 E0 Q1
G1 X327.427 Y720.108F150
G1 X327.452 Y720.19
M67 E0 Q0
G0 X327.469 Y720.287 F1200
M67 E0 Q1
G1  Y720.37F150
G1 X327.466 Y720.387
M67 E0 Q0
G0 X327.444 Y720.483 F1200
M67 E0 Q1
G1 X327.391 Y720.568F150
M67 E0 Q0
G0 X327.326 Y720.641 F1200
M67 E0 Q1
G1 X327.262 Y720.687F150
G1 X327.241 Y720.691
M67 E0 Q0
G0 X327.143 Y720.711 F1200
M67 E0 Q1
G1 X327.124 Y720.715F150
G1 X327.043
M67 E0 Q0
G0 X327.386 Y719.612 F1200
M67 E0 Q1
G1 X327.455F150
G1  Y719.581
M67 E0 Q0
G0  Y719.481 F1200
M67 E0 Q1
G1  Y719.433F150
G1 X327.403
M67 E0 Q0
G0 X327.303 F1200
M67 E0 Q1
G1 X327.276F150
G1  Y719.506
M67 E0 Q0
G0  Y719.606 F1200
M67 E0 Q1
G1  Y719.612F150
G1 X327.37
M67 E0 Q0
G0 X326.959 Y719.102 F1200
M67 E0 Q1
G1 X327.059F150
M67 E0 Q0
G0 X327.158 Y719.096 F1200
M67 E0 Q1
G1 X327.256 Y719.076F150
M67 E0 Q0
G0 X327.339 Y719.02 F1200
M67 E0 Q1
G1 X327.359 Y719.006F150
G1 X327.407 Y718.948
M67 E0 Q0
G0 X327.447 Y718.858 F1200
M67 E0 Q1
G1 X327.469 Y718.785F150
G1 X327.474 Y718.762
M67 E0 Q0
G0 X327.477 Y718.663 F1200
M67 E0 Q1
G1 X327.469 Y718.593F150
G1 X327.457 Y718.566
M67 E0 Q0
G0 X327.412 Y718.478 F1200
M67 E0 Q1
G1 X327.359 Y718.413F150
G1 X327.345 Y718.404
M67 E0 Q0
G0 X327.264 Y718.346 F1200
M67 E0 Q1
G1 X327.166 Y718.325F150
M67 E0 Q0
G0 X327.067 Y718.317 F1200
M67 E0 Q1
G1 X326.967F150
M67 E0 Q0
G0 X326.867 F1200
M67 E0 Q1
G1 X326.807F150
G1 X326.768 Y718.326
M67 E0 Q0
G0 X326.672 Y718.352 F1200
M67 E0 Q1
G1 X326.591 Y718.41F150
M67 E0 Q0
G0 X326.548 Y718.5 F1200
M67 E0 Q1
G1 X326.532 Y718.537F150
G1 X326.496 Y718.49
M67 E0 Q0
G0 X326.434 Y718.412 F1200
M67 E0 Q1
G1 X326.38 Y718.358F150
G1 X326.357 Y718.355
M67 E0 Q0
G0 X326.257 Y718.344 F1200
M67 E0 Q1
G1 X326.157F150
M67 E0 Q0
G0 X326.057 F1200
M67 E0 Q1
G1 X326.022F150
G1 X325.958 Y718.353
M67 E0 Q0
G0 X325.865 Y718.385 F1200
M67 E0 Q1
G1 X325.815 Y718.413F150
G1 X325.785 Y718.443
M67 E0 Q0
G0 X325.726 Y718.521 F1200
M67 E0 Q1
G1 X325.705 Y718.593F150
G1 X325.701 Y718.617
M67 E0 Q0
G0 X325.691 Y718.717 F1200
M67 E0 Q1
G1  Y718.744F150
G1 X325.7 Y718.816
M67 E0 Q0
G0 X325.736 Y718.908 F1200
M67 E0 Q1
G1 X325.76 Y718.951F150
G1 X325.796 Y718.986
M67 E0 Q0
G0 X325.878 Y719.041 F1200
M67 E0 Q1
G1 X325.926 Y719.061F150
G1 X325.972 Y719.074
M67 E0 Q0
G0 X326.07 Y719.089 F1200
M67 E0 Q1
G1 X326.17F150
M67 E0 Q0
G0 X326.532 Y718.537 F1200
M67 E0 Q1
G1  Y718.637F150
M67 E0 Q0
G0  Y718.737 F1200
M67 E0 Q1
G1  Y718.837F150
; Cut @ 150 mm/min, 100% power
M8
M67 E0 Q0
G0 X330 Y697.5 F1200
G91
G0 Z0.42
G90
; Layer 
M67 E0 Q1
G1  Y717.5F150
; Cut @ 150 mm/min, 100% power
M8
M67 E0 Q0
G0 X330.386 Y719.598 F1200
; Layer 
M67 E0 Q1
G1 X330.455F150
G1  Y719.567
M67 E0 Q0
G0  Y719.467 F1200
M67 E0 Q1
G1  Y719.419F150
G1 X330.403
M67 E0 Q0
G0 X330.303 F1200
M67 E0 Q1
G1 X330.276F150
G1  Y719.492
M67 E0 Q0
G0  Y719.592 F1200
M67 E0 Q1
G1  Y719.598F150
G1 X330.37
M67 E0 Q0
G0 X328.705 Y719.089 F1200
M67 E0 Q1
G1  Y718.989F150
M67 E0 Q0
G0  Y718.889 F1200
M67 E0 Q1
G1  Y718.789F150
M67 E0 Q0
G0  Y718.689 F1200
M67 E0 Q1
G1  Y718.589F150
M67 E0 Q0
G0  Y718.489 F1200
M67 E0 Q1
G1  Y718.389F150
M67 E0 Q0
G0 X328.747 Y718.331 F1200
M67 E0 Q1
G1 X328.801F150
G1 X328.844 Y718.347
M67 E0 Q0
G0 X328.938 Y718.382 F1200
M67 E0 Q1
G1 X329.031 Y718.417F150
M67 E0 Q0
G0 X329.125 Y718.452 F1200
M67 E0 Q1
G1 X329.219 Y718.487F150
M67 E0 Q0
G0 X329.312 Y718.522 F1200
M67 E0 Q1
G1 X329.406 Y718.557F150
M67 E0 Q0
G0 X329.5 Y718.593 F1200
M67 E0 Q1
G1 X329.593 Y718.628F150
M67 E0 Q0
G0 X329.687 Y718.663 F1200
M67 E0 Q1
G1 X329.781 Y718.698F150
M67 E0 Q0
G0 X329.874 Y718.733 F1200
M67 E0 Q1
G1 X329.968 Y718.768F150
M67 E0 Q0
G0 X330.061 Y718.803 F1200
M67 E0 Q1
G1 X330.155 Y718.838F150
M67 E0 Q0
G0 X330.249 Y718.873 F1200
M67 E0 Q1
G1 X330.342 Y718.909F150
M67 E0 Q0
G0 X330.436 Y718.944 F1200
M67 E0 Q1
G1 X330.455 Y718.951F150
; Cut @ 150 mm/min, 100% power
M8
M67 E0 Q0
G0 X333 Y697.5 F1200
G91
G0 Z0.43
G90
; Layer 
M67 E0 Q1
G1  Y717.5F150
; Cut @ 150 mm/min, 100% power
M8
M67 E0 Q0
G0 X332.174 Y719.612 F1200
; Layer 
M67 E0 Q1
G1 X332.074F150
M67 E0 Q0
G0 X331.975 Y719.626 F1200
M67 E0 Q1
G1 X331.912 Y719.64F150
G1 X331.88 Y719.656
M67 E0 Q0
G0 X331.799 Y719.711 F1200
M67 E0 Q1
G1 X331.76 Y719.75F150
G1 X331.738 Y719.789
M67 E0 Q0
G0 X331.701 Y719.88 F1200
M67 E0 Q1
G1 X331.691 Y719.97F150
G1  Y719.98
M67 E0 Q0
G0  Y720.08 F1200
M67 E0 Q1
G1 X331.705 Y720.177F150
M67 E0 Q0
G0 X331.753 Y720.266 F1200
M67 E0 Q1
G1 X331.824 Y720.337F150
M67 E0 Q0
G0 X331.912 Y720.384 F1200
M67 E0 Q1
G1 X332.009 Y720.406F150
M67 E0 Q0
G0 X332.109 Y720.411 F1200
M67 E0 Q1
G1 X332.209F150
M67 E0 Q0
G0 X332.309 F1200
M67 E0 Q1
G1 X332.409F150
M67 E0 Q0
G0 X332.509 F1200
M67 E0 Q1
G1 X332.609F150
M67 E0 Q0
G0 X332.709 F1200
M67 E0 Q1
G1 X332.809F150
M67 E0 Q0
G0 X332.909 F1200
M67 E0 Q1
G1 X333.009F150
M67 E0 Q0
G0 X333.109 F1200
M67 E0 Q1
G1 X333.124F150
G1 X333.207 Y720.395
M67 E0 Q0
G0 X333.299 Y720.361 F1200
M67 E0 Q1
G1 X333.372 Y720.315F150
G1 X333.38 Y720.304
M67 E0 Q0
G0 X333.439 Y720.222 F1200
M67 E0 Q1
G1  Y720.219F150
G1 X333.458 Y720.125
M67 E0 Q0
G0 X333.469 Y720.026 F1200
M67 E0 Q1
G1  Y719.97F150
G1 X333.461 Y719.926
M67 E0 Q0
G0 X333.443 Y719.828 F1200
M67 E0 Q1
G1  Y719.819F150
G1 X333.387 Y719.746
M67 E0 Q0
G0 X333.314 Y719.681 F1200
M67 E0 Q1
G1 X333.248 Y719.64F150
G1 X333.226 Y719.635
M67 E0 Q0
G0 X333.128 Y719.613 F1200
M67 E0 Q1
G1 X333.124F150
G1 X333.028
M67 E0 Q0
G0 X332.928 F1200
M67 E0 Q1
G1 X332.828F150
M67 E0 Q0
G0 X332.728 F1200
M67 E0 Q1
G1 X332.683F150
G1 X332.63 Y719.624
M67 E0 Q0
G0 X332.536 Y719.655 F1200
M67 E0 Q1
G1 X332.453 Y719.711F150
M67 E0 Q0
G0 X332.389 Y719.787 F1200
M67 E0 Q1
G1 X332.366 Y719.819F150
G1 X332.353 Y719.878
M67 E0 Q0
G0 X332.33 Y719.975 F1200
M67 E0 Q1
G1 X332.325 Y719.998F150
G1 X332.338 Y720.074
M67 E0 Q0
G0 X332.357 Y720.171 F1200
M67 E0 Q1
G1 X332.409 Y720.257F150
M67 E0 Q0
G0 X332.475 Y720.328 F1200
M67 E0 Q1
G1 X332.559 Y720.383F150
M67 E0 Q0
G0 X333.386 Y719.281 F1200
M67 E0 Q1
G1 X333.455F150
G1  Y719.25
M67 E0 Q0
G0  Y719.15 F1200
M67 E0 Q1
G1  Y719.102F150
G1 X333.403
M67 E0 Q0
G0 X333.303 F1200
M67 E0 Q1
G1 X333.276F150
G1  Y719.175
M67 E0 Q0
G0  Y719.275 F1200
M67 E0 Q1
G1  Y719.281F150
G1 X333.37
M67 E0 Q0
G0 X332.049 Y718.772 F1200
M67 E0 Q1
G1 X331.993 Y718.689F150
M67 E0 Q0
G0 X331.936 Y718.607 F1200
M67 E0 Q1
G1 X331.926 Y718.593F150
G1 X331.862 Y718.541
M67 E0 Q0
G0 X331.784 Y718.478 F1200
M67 E0 Q1
G1 X331.707 Y718.415F150
M67 E0 Q0
G0 X331.803 F1200
M67 E0 Q1
G1 X331.903F150
M67 E0 Q0
G0 X332.003 F1200
M67 E0 Q1
G1 X332.103F150
M67 E0 Q0
G0 X332.203 F1200
M67 E0 Q1
G1 X332.303F150
M67 E0 Q0
G0 X332.403 F1200
M67 E0 Q1
G1 X332.503F150
M67 E0 Q0
G0 X332.603 F1200
M67 E0 Q1
G1 X332.703F150
M67 E0 Q0
G0 X332.803 F1200
M67 E0 Q1
G1 X332.903F150
M67 E0 Q0
G0 X333.003 F1200
M67 E0 Q1
G1 X333.103F150
M67 E0 Q0
G0 X333.203 F1200
M67 E0 Q1
G1 X333.303F150
M67 E0 Q0
G0 X333.403 F1200
M67 E0 Q1
G1 X333.455F150
; Cut @ 150 mm/min, 100% power
M8
M67 E0 Q0
G0 X336 Y697.5 F1200
G91
G0 Z0.43
G90
; Layer 
M67 E0 Q1
G1  Y717.5F150
; Cut @ 150 mm/min, 100% power
M8
M67 E0 Q0
G0 X336.386 Y719.64 F1200
; Layer 
M67 E0 Q1
G1 X336.455F150
G1  Y719.609
M67 E0 Q0
G0  Y719.509 F1200
M67 E0 Q1
G1  Y719.461F150
G1 X336.403
M67 E0 Q0
G0 X336.303 F1200
M67 E0 Q1
G1 X336.276F150
G1  Y719.533
M67 E0 Q0
G0  Y719.633 F1200
M67 E0 Q1
G1  Y719.64F150
G1 X336.37
M67 E0 Q0
G0 X335.174 Y718.331 F1200
M67 E0 Q1
G1 X335.074F150
M67 E0 Q0
G0 X334.975 Y718.344 F1200
M67 E0 Q1
G1 X334.912 Y718.358F150
G1 X334.88 Y718.374
M67 E0 Q0
G0 X334.799 Y718.43 F1200
M67 E0 Q1
G1 X334.76 Y718.469F150
G1 X334.738 Y718.508
M67 E0 Q0
G0 X334.701 Y718.599 F1200
M67 E0 Q1
G1 X334.691 Y718.689F150
G1  Y718.698
M67 E0 Q0
G0  Y718.798 F1200
M67 E0 Q1
G1 X334.705 Y718.896F150
M67 E0 Q0
G0 X334.753 Y718.985 F1200
M67 E0 Q1
G1 X334.824 Y719.056F150
M67 E0 Q0
G0 X334.912 Y719.102 F1200
M67 E0 Q1
G1 X335.009 Y719.124F150
M67 E0 Q0
G0 X335.109 Y719.13 F1200
M67 E0 Q1
G1 X335.209F150
M67 E0 Q0
G0 X335.309 F1200
M67 E0 Q1
G1 X335.409F150
M67 E0 Q0
G0 X335.509 F1200
M67 E0 Q1
G1 X335.609F150
M67 E0 Q0
G0 X335.709 F1200
M67 E0 Q1
G1 X335.809F150
M67 E0 Q0
G0 X335.909 F1200
M67 E0 Q1
G1 X336.009F150
M67 E0 Q0
G0 X336.109 F1200
M67 E0 Q1
G1 X336.124F150
G1 X336.207 Y719.113
M67 E0 Q0
G0 X336.299 Y719.079 F1200
M67 E0 Q1
G1 X336.372 Y719.033F150
G1 X336.38 Y719.022
M67 E0 Q0
G0 X336.439 Y718.941 F1200
M67 E0 Q1
G1  Y718.937F150
G1 X336.458 Y718.843
M67 E0 Q0
G0 X336.469 Y718.744 F1200
M67 E0 Q1
G1  Y718.689F150
G1 X336.461 Y718.645
M67 E0 Q0
G0 X336.443 Y718.546 F1200
M67 E0 Q1
G1  Y718.537F150
G1 X336.387 Y718.465
M67 E0 Q0
G0 X336.314 Y718.399 F1200
M67 E0 Q1
G1 X336.248 Y718.358F150
G1 X336.226 Y718.353
M67 E0 Q0
G0 X336.128 Y718.332 F1200
M67 E0 Q1
G1 X336.124F150
G1 X336.028
M67 E0 Q0
G0 X335.928 F1200
M67 E0 Q1
G1 X335.828F150
M67 E0 Q0
G0 X335.728 F1200
M67 E0 Q1
G1 X335.683F150
G1 X335.63 Y718.343
M67 E0 Q0
G0 X335.536 Y718.374 F1200
M67 E0 Q1
G1 X335.453 Y718.429F150
M67 E0 Q0
G0 X335.389 Y718.505 F1200
M67 E0 Q1
G1 X335.366 Y718.537F150
G1 X335.353 Y718.596
M67 E0 Q0
G0 X335.33 Y718.694 F1200
M67 E0 Q1
G1 X335.325 Y718.717F150
G1 X335.338 Y718.792
M67 E0 Q0
G0 X335.357 Y718.89 F1200
M67 E0 Q1
G1 X335.409 Y718.975F150
M67 E0 Q0
G0 X335.475 Y719.046 F1200
M67 E0 Q1
G1 X335.559 Y719.102F150
; Cut @ 150 mm/min, 100% power
M8
M67 E0 Q0
G0 X339 Y697.5 F1200
G91
G0 Z0.43
G90
; Layer 
M67 E0 Q1
G1  Y717.5F150
; Cut @ 150 mm/min, 100% power
M8
M67 E0 Q0
G0 X337.705 Y720.715 F1200
; Layer 
M67 E0 Q1
G1  Y720.615F150
M67 E0 Q0
G0  Y720.515 F1200
M67 E0 Q1
G1  Y720.415F150
M67 E0 Q0
G0  Y720.315 F1200
M67 E0 Q1
G1  Y720.215F150
M67 E0 Q0
G0  Y720.115 F1200
M67 E0 Q1
G1  Y720.015F150
M67 E0 Q0
G0 X337.747 Y719.957 F1200
M67 E0 Q1
G1 X337.801F150
G1 X337.844 Y719.973
M67 E0 Q0
G0 X337.938 Y720.008 F1200
M67 E0 Q1
G1 X338.031 Y720.043F150
M67 E0 Q0
G0 X338.125 Y720.078 F1200
M67 E0 Q1
G1 X338.219 Y720.113F150
M67 E0 Q0
G0 X338.312 Y720.148 F1200
M67 E0 Q1
G1 X338.406 Y720.183F150
M67 E0 Q0
G0 X338.5 Y720.219 F1200
M67 E0 Q1
G1 X338.593 Y720.254F150
M67 E0 Q0
G0 X338.687 Y720.289 F1200
M67 E0 Q1
G1 X338.781 Y720.324F150
M67 E0 Q0
G0 X338.874 Y720.359 F1200
M67 E0 Q1
G1 X338.968 Y720.394F150
M67 E0 Q0
G0 X339.061 Y720.429 F1200
M67 E0 Q1
G1 X339.155 Y720.464F150
M67 E0 Q0
G0 X339.249 Y720.499 F1200
M67 E0 Q1
G1 X339.342 Y720.535F150
M67 E0 Q0
G0 X339.436 Y720.57 F1200
M67 E0 Q1
G1 X339.455 Y720.577F150
M67 E0 Q0
G0 X339.386 Y719.626 F1200
M67 E0 Q1
G1 X339.455F150
G1  Y719.595
M67 E0 Q0
G0  Y719.495 F1200
M67 E0 Q1
G1  Y719.447F150
G1 X339.403
M67 E0 Q0
G0 X339.303 F1200
M67 E0 Q1
G1 X339.276F150
G1  Y719.52
M67 E0 Q0
G0  Y719.62 F1200
M67 E0 Q1
G1  Y719.626F150
G1 X339.37
M67 E0 Q0
G0 X338.518 Y719.116 F1200
M67 E0 Q1
G1 X338.618F150
M67 E0 Q0
G0 X338.718 F1200
M67 E0 Q1
G1 X338.818F150
M67 E0 Q0
G0 X338.918 F1200
M67 E0 Q1
G1 X339.018F150
M67 E0 Q0
G0 X339.118 F1200
M67 E0 Q1
G1 X339.124F150
G1 X339.215 Y719.091
M67 E0 Q0
G0 X339.306 Y719.054 F1200
M67 E0 Q1
G1 X339.372 Y719.006F150
G1 X339.383 Y718.991
M67 E0 Q0
G0 X339.441 Y718.91 F1200
M67 E0 Q1
G1 X339.461 Y718.812F150
M67 E0 Q0
G0 X339.469 Y718.713 F1200
M67 E0 Q1
G1  Y718.675F150
G1 X339.457 Y718.614
M67 E0 Q0
G0 X339.428 Y718.52 F1200
M67 E0 Q1
G1 X339.368 Y718.44F150
M67 E0 Q0
G0 X339.291 Y718.377 F1200
M67 E0 Q1
G1 X339.248 Y718.344F150
G1 X339.202 Y718.339
M67 E0 Q0
G0 X339.103 Y718.331 F1200
M67 E0 Q1
G1 X339.003F150
M67 E0 Q0
G0 X338.903 F1200
M67 E0 Q1
G1 X338.803F150
M67 E0 Q0
G0 X338.703 F1200
M67 E0 Q1
G1 X338.603F150
M67 E0 Q0
G0 X338.503 F1200
M67 E0 Q1
G1 X338.403F150
M67 E0 Q0
G0 X338.303 F1200
M67 E0 Q1
G1 X338.203F150
M67 E0 Q0
G0 X338.103 F1200
M67 E0 Q1
G1 X338.036F150
G1 X338.003 Y718.337
M67 E0 Q0
G0 X337.905 Y718.357 F1200
M67 E0 Q1
G1 X337.898F150
G1 X337.819 Y718.407
M67 E0 Q0
G0 X337.756 Y718.481 F1200
M67 E0 Q1
G1 X337.705 Y718.565F150
M67 E0 Q0
G0 X337.692 Y718.666 F1200
M67 E0 Q1
G1  Y718.675F150
G1  Y718.766
M67 E0 Q0
G0 X337.71 Y718.864 F1200
M67 E0 Q1
G1 X337.719 Y718.909F150
G1 X337.745 Y718.956
M67 E0 Q0
G0 X337.808 Y719.031 F1200
M67 E0 Q1
G1 X337.884 Y719.089F150
G1 X337.889
M67 E0 Q0
G0 X337.987 Y719.107 F1200
M67 E0 Q1
G1 X338.036 Y719.116F150
G1 X338.087
M67 E0 Q0
G0 X338.187 F1200
M67 E0 Q1
G1 X338.287F150
M67 E0 Q0
G0 X338.387 F1200
M67 E0 Q1
G1 X338.487F150
; Cut @ 150 mm/min, 100% power
M8
M67 E0 Q0
G0 X342 Y697.5 F1200
G91
G0 Z0.43
G90
; Layer 
M67 E0 Q1
G1  Y717.5F150
; Cut @ 150 mm/min, 100% power
M8
M67 E0 Q0
G0 X342.386 Y719.736 F1200
; Layer 
M67 E0 Q1
G1 X342.455F150
G1  Y719.705
M67 E0 Q0
G0  Y719.605 F1200
M67 E0 Q1
G1  Y719.557F150
G1 X342.403
M67 E0 Q0
G0 X342.303 F1200
M67 E0 Q1
G1 X342.276F150
G1  Y719.63
M67 E0 Q0
G0  Y719.73 F1200
M67 E0 Q1
G1  Y719.736F150
G1 X342.37
M67 E0 Q0
G0 X342.455 Y718.593 F1200
M67 E0 Q1
G1 X342.355F150
M67 E0 Q0
G0 X342.255 F1200
M67 E0 Q1
G1 X342.155F150
M67 E0 Q0
G0 X342.055 F1200
M67 E0 Q1
G1 X341.955F150
M67 E0 Q0
G0 X341.855 F1200
M67 E0 Q1
G1 X341.755F150
M67 E0 Q0
G0 X341.655 F1200
M67 E0 Q1
G1 X341.555F150
M67 E0 Q0
G0 X341.455 F1200
M67 E0 Q1
G1 X341.355F150
M67 E0 Q0
G0 X341.255 F1200
M67 E0 Q1
G1 X341.155F150
M67 E0 Q0
G0 X341.055 F1200
M67 E0 Q1
G1 X340.955F150
M67 E0 Q0
G0 X340.855 F1200
M67 E0 Q1
G1 X340.755F150
M67 E0 Q0
G0 X340.705 Y718.643 F1200
M67 E0 Q1
G1  Y718.661F150
G1 X340.779 Y718.695
M67 E0 Q0
G0 X340.87 Y718.737 F1200
M67 E0 Q1
G1 X340.96 Y718.779F150
M67 E0 Q0
G0 X341.051 Y718.821 F1200
M67 E0 Q1
G1 X341.142 Y718.863F150
M67 E0 Q0
G0 X341.233 Y718.905 F1200
M67 E0 Q1
G1 X341.324 Y718.946F150
M67 E0 Q0
G0 X341.414 Y718.988 F1200
M67 E0 Q1
G1 X341.505 Y719.03F150
M67 E0 Q0
G0 X341.596 Y719.072 F1200
M67 E0 Q1
G1 X341.687 Y719.114F150
M67 E0 Q0
G0 X341.778 Y719.156 F1200
M67 E0 Q1
G1 X341.869 Y719.197F150
M67 E0 Q0
G0 X341.931 F1200
M67 E0 Q1
G1  Y719.096F150
M67 E0 Q0
G0  Y718.996 F1200
M67 E0 Q1
G1  Y718.896F150
M67 E0 Q0
G0  Y718.796 F1200
M67 E0 Q1
G1  Y718.696F150
M67 E0 Q0
G0  Y718.596 F1200
M67 E0 Q1
G1  Y718.496F150
M67 E0 Q0
G0  Y718.396 F1200
M67 E0 Q1
G1  Y718.331F150
; Cut @ 150 mm/min, 100% power
M8
M67 E0 Q0
G0 X345 Y697.5 F1200
G91
G0 Z0.43
G90
; Layer 
M67 E0 Q1
G1  Y717.5F150
; Cut @ 150 mm/min, 100% power
M8
M67 E0 Q0
G0 X345.386 Y719.64 F1200
; Layer 
M67 E0 Q1
G1 X345.455F150
G1  Y719.609
M67 E0 Q0
G0  Y719.509 F1200
M67 E0 Q1
G1  Y719.461F150
G1 X345.403
M67 E0 Q0
G0 X345.303 F1200
M67 E0 Q1
G1 X345.276F150
G1  Y719.533
M67 E0 Q0
G0  Y719.633 F1200
M67 E0 Q1
G1  Y719.64F150
G1 X345.37
M67 E0 Q0
G0 X344.987 Y719.13 F1200
M67 E0 Q1
G1 X345.087F150
M67 E0 Q0
G0 X345.185 Y719.116 F1200
M67 E0 Q1
G1 X345.248 Y719.102F150
G1 X345.28 Y719.087
M67 E0 Q0
G0 X345.361 Y719.031 F1200
M67 E0 Q1
G1 X345.4 Y718.992F150
G1 X345.422 Y718.953
M67 E0 Q0
G0 X345.459 Y718.862 F1200
M67 E0 Q1
G1 X345.469 Y718.785F150
G1  Y718.762
M67 E0 Q0
G0 X345.466 Y718.662 F1200
M67 E0 Q1
G1 X345.455 Y718.565F150
M67 E0 Q0
G0 X345.406 Y718.476 F1200
M67 E0 Q1
G1 X345.331 Y718.413F150
M67 E0 Q0
G0 X345.246 Y718.358 F1200
M67 E0 Q1
G1 X345.148 Y718.336F150
M67 E0 Q0
G0 X345.049 Y718.331 F1200
M67 E0 Q1
G1 X344.949F150
M67 E0 Q0
G0 X344.849 F1200
M67 E0 Q1
G1 X344.749F150
M67 E0 Q0
G0 X344.649 F1200
M67 E0 Q1
G1 X344.549F150
M67 E0 Q0
G0 X344.449 F1200
M67 E0 Q1
G1 X344.349F150
M67 E0 Q0
G0 X344.249 F1200
M67 E0 Q1
G1 X344.149F150
M67 E0 Q0
G0 X344.049 F1200
M67 E0 Q1
G1 X344.036F150
G1 X343.953 Y718.356
M67 E0 Q0
G0 X343.862 Y718.395 F1200
M67 E0 Q1
G1 X343.788 Y718.441F150
G1 X343.779 Y718.451
M67 E0 Q0
G0 X343.718 Y718.529 F1200
M67 E0 Q1
G1 X343.702 Y718.628F150
M67 E0 Q0
G0 X343.691 Y718.727 F1200
M67 E0 Q1
G1  Y718.785F150
G1 X343.699 Y718.826
M67 E0 Q0
G0 X343.717 Y718.924 F1200
M67 E0 Q1
G1  Y718.937F150
G1 X343.776 Y719.003
M67 E0 Q0
G0 X343.852 Y719.065 F1200
M67 E0 Q1
G1 X343.912 Y719.102F150
G1 X343.941 Y719.109
M67 E0 Q0
G0 X344.039 Y719.13 F1200
M67 E0 Q1
G1 X344.139F150
M67 E0 Q0
G0 X344.239 F1200
M67 E0 Q1
G1 X344.339F150
M67 E0 Q0
G0 X344.439 F1200
M67 E0 Q1
G1 X344.477F150
G1 X344.537 Y719.116
M67 E0 Q0
G0 X344.63 Y719.083 F1200
M67 E0 Q1
G1 X344.713 Y719.027F150
M67 E0 Q0
G0 X344.775 Y718.95 F1200
M67 E0 Q1
G1 X344.794 Y718.923F150
G1 X344.809 Y718.857
M67 E0 Q0
G0 X344.831 Y718.76 F1200
M67 E0 Q1
G1 X344.835 Y718.744F150
G1 X344.821 Y718.662
M67 E0 Q0
G0 X344.798 Y718.565 F1200
M67 E0 Q1
G1 X344.743 Y718.482F150
M67 E0 Q0
G0 X344.671 Y718.414 F1200
M67 E0 Q1
G1 X344.591 Y718.354F150
; Cut @ 150 mm/min, 100% power
M8
M67 E0 Q0
G0 X348 Y697.5 F1200
G91
G0 Z0.43
G90
; Layer 
M67 E0 Q1
G1  Y717.5F150
; Cut @ 150 mm/min, 100% power
M8
M67 E0 Q0
G0 X347.931 Y720.742 F1200
; Layer 
M67 E0 Q1
G1 X348.031F150
M67 E0 Q0
G0 X348.131 Y720.736 F1200
M67 E0 Q1
G1 X348.229 Y720.718F150
M67 E0 Q0
G0 X348.318 Y720.675 F1200
M67 E0 Q1
G1 X348.345 Y720.659F150
G1 X348.394 Y720.61
M67 E0 Q0
G0 X348.442 Y720.524 F1200
M67 E0 Q1
G1 X348.455 Y720.494F150
G1 X348.463 Y720.427
M67 E0 Q0
G0 X348.469 Y720.328 F1200
M67 E0 Q1
G1  Y720.287F150
G1 X348.461 Y720.228
M67 E0 Q0
G0 X348.427 Y720.138 F1200
M67 E0 Q1
G1 X348.386 Y720.081F150
G1 X348.363 Y720.061
M67 E0 Q0
G0 X348.287 Y719.997 F1200
M67 E0 Q1
G1 X348.19 Y719.973F150
M67 E0 Q0
G0 X348.092 Y719.957 F1200
M67 E0 Q1
G1 X347.992F150
M67 E0 Q0
G0 X347.892 F1200
M67 E0 Q1
G1 X347.794F150
M67 E0 Q0
G0 X347.693 Y719.973 F1200
M67 E0 Q1
G1 X347.628 Y720.012F150
G1 X347.611 Y720.029
M67 E0 Q0
G0 X347.55 Y720.107 F1200
M67 E0 Q1
G1 X347.518 Y720.163F150
G1 X347.498 Y720.135
M67 E0 Q0
G0 X347.436 Y720.057 F1200
M67 E0 Q1
G1 X347.38 Y720.012F150
G1 X347.354 Y720.002
M67 E0 Q0
G0 X347.26 Y719.97 F1200
M67 E0 Q1
G1 X347.16F150
M67 E0 Q0
G0 X347.06 F1200
M67 E0 Q1
G1 X347.008F150
G1 X346.96 Y719.978
M67 E0 Q0
G0 X346.869 Y720.016 F1200
M67 E0 Q1
G1 X346.829 Y720.039F150
G1 X346.788 Y720.074
M67 E0 Q0
G0 X346.728 Y720.151 F1200
M67 E0 Q1
G1 X346.705 Y720.205F150
G1 X346.698 Y720.245
M67 E0 Q0
G0 X346.691 Y720.345 F1200
M67 E0 Q1
G1  Y720.384F150
G1 X346.698 Y720.444
M67 E0 Q0
G0 X346.725 Y720.538 F1200
M67 E0 Q1
G1 X346.76 Y720.591F150
G1 X346.786 Y720.617
M67 E0 Q0
G0 X346.864 Y720.677 F1200
M67 E0 Q1
G1 X346.912 Y720.701F150
G1 X346.958 Y720.707
M67 E0 Q0
G0 X347.058 Y720.715 F1200
M67 E0 Q1
G1 X347.158F150
M67 E0 Q0
G0 X347.258 F1200
M67 E0 Q1
G1 X347.27F150
G1 X347.355 Y720.693
M67 E0 Q0
G0 X347.444 Y720.649 F1200
M67 E0 Q1
G1 X347.449 Y720.646F150
G1 X347.499 Y720.566
M67 E0 Q0
G0 X347.552 Y720.59 F1200
M67 E0 Q1
G1 X347.587 Y720.646F150
G1 X347.613 Y720.667
M67 E0 Q0
G0 X347.699 Y720.714 F1200
M67 E0 Q1
G1 X347.794 Y720.742F150
M67 E0 Q0
G0 X347.895 F1200
M67 E0 Q1
G1 X347.931F150
M67 E0 Q0
G0 X347.518 Y720.535 F1200
M67 E0 Q1
G1  Y720.435F150
M67 E0 Q0
G0  Y720.335 F1200
M67 E0 Q1
G1  Y720.235F150
M67 E0 Q0
G0 X348.386 Y719.612 F1200
M67 E0 Q1
G1 X348.455F150
G1  Y719.581
M67 E0 Q0
G0  Y719.481 F1200
M67 E0 Q1
G1  Y719.433F150
G1 X348.403
M67 E0 Q0
G0 X348.303 F1200
M67 E0 Q1
G1 X348.276F150
G1  Y719.506
M67 E0 Q0
G0  Y719.606 F1200
M67 E0 Q1
G1  Y719.612F150
G1 X348.37
M67 E0 Q0
G0 X347.959 Y719.102 F1200
M67 E0 Q1
G1 X348.059F150
M67 E0 Q0
G0 X348.158 Y719.096 F1200
M67 E0 Q1
G1 X348.256 Y719.076F150
M67 E0 Q0
G0 X348.339 Y719.02 F1200
M67 E0 Q1
G1 X348.359 Y719.006F150
G1 X348.407 Y718.948
M67 E0 Q0
G0 X348.447 Y718.858 F1200
M67 E0 Q1
G1 X348.469 Y718.785F150
G1 X348.474 Y718.762
M67 E0 Q0
G0 X348.477 Y718.663 F1200
M67 E0 Q1
G1 X348.469 Y718.593F150
G1 X348.457 Y718.566
M67 E0 Q0
G0 X348.412 Y718.478 F1200
M67 E0 Q1
G1 X348.359 Y718.413F150
G1 X348.345 Y718.404
M67 E0 Q0
G0 X348.264 Y718.346 F1200
M67 E0 Q1
G1 X348.166 Y718.325F150
M67 E0 Q0
G0 X348.067 Y718.317 F1200
M67 E0 Q1
G1 X347.967F150
M67 E0 Q0
G0 X347.867 F1200
M67 E0 Q1
G1 X347.807F150
G1 X347.768 Y718.326
M67 E0 Q0
G0 X347.672 Y718.352 F1200
M67 E0 Q1
G1 X347.591 Y718.41F150
M67 E0 Q0
G0 X347.548 Y718.5 F1200
M67 E0 Q1
G1 X347.532 Y718.537F150
G1 X347.496 Y718.49
M67 E0 Q0
G0 X347.434 Y718.412 F1200
M67 E0 Q1
G1 X347.38 Y718.358F150
G1 X347.357 Y718.355
M67 E0 Q0
G0 X347.257 Y718.344 F1200
M67 E0 Q1
G1 X347.157F150
M67 E0 Q0
G0 X347.057 F1200
M67 E0 Q1
G1 X347.022F150
G1 X346.958 Y718.353
M67 E0 Q0
G0 X346.865 Y718.385 F1200
M67 E0 Q1
G1 X346.815 Y718.413F150
G1 X346.785 Y718.443
M67 E0 Q0
G0 X346.726 Y718.521 F1200
M67 E0 Q1
G1 X346.705 Y718.593F150
G1 X346.701 Y718.617
M67 E0 Q0
G0 X346.691 Y718.717 F1200
M67 E0 Q1
G1  Y718.744F150
G1 X346.7 Y718.816
M67 E0 Q0
G0 X346.736 Y718.908 F1200
M67 E0 Q1
G1 X346.76 Y718.951F150
G1 X346.796 Y718.986
M67 E0 Q0
G0 X346.878 Y719.041 F1200
M67 E0 Q1
G1 X346.926 Y719.061F150
G1 X346.972 Y719.074
M67 E0 Q0
G0 X347.07 Y719.089 F1200
M67 E0 Q1
G1 X347.17F150
M67 E0 Q0
G0 X347.532 Y718.537 F1200
M67 E0 Q1
G1  Y718.637F150
M67 E0 Q0
G0  Y718.737 F1200
M67 E0 Q1
G1  Y718.837F150
; Cut @ 150 mm/min, 100% power
M8
M67 E0 Q0
G0 X351 Y697.5 F1200
G91
G0 Z0.42
G90
; Layer 
M67 E0 Q1
G1  Y717.5F150
; Cut @ 150 mm/min, 100% power
M8
M67 E0 Q0
G0 X351.386 Y719.598 F1200
; Layer 
M67 E0 Q1
G1 X351.455F150
G1  Y719.567
M67 E0 Q0
G0  Y719.467 F1200
M67 E0 Q1
G1  Y719.419F150
G1 X351.403
M67 E0 Q0
G0 X351.303 F1200
M67 E0 Q1
G1 X351.276F150
G1  Y719.492
M67 E0 Q0
G0  Y719.592 F1200
M67 E0 Q1
G1  Y719.598F150
G1 X351.37
M67 E0 Q0
G0 X349.705 Y719.089 F1200
M67 E0 Q1
G1  Y718.989F150
M67 E0 Q0
G0  Y718.889 F1200
M67 E0 Q1
G1  Y718.789F150
M67 E0 Q0
G0  Y718.689 F1200
M67 E0 Q1
G1  Y718.589F150
M67 E0 Q0
G0  Y718.489 F1200
M67 E0 Q1
G1  Y718.389F150
M67 E0 Q0
G0 X349.747 Y718.331 F1200
M67 E0 Q1
G1 X349.801F150
G1 X349.844 Y718.347
M67 E0 Q0
G0 X349.938 Y718.382 F1200
M67 E0 Q1
G1 X350.031 Y718.417F150
M67 E0 Q0
G0 X350.125 Y718.452 F1200
M67 E0 Q1
G1 X350.219 Y718.487F150
M67 E0 Q0
G0 X350.312 Y718.522 F1200
M67 E0 Q1
G1 X350.406 Y718.557F150
M67 E0 Q0
G0 X350.5 Y718.593 F1200
M67 E0 Q1
G1 X350.593 Y718.628F150
M67 E0 Q0
G0 X350.687 Y718.663 F1200
M67 E0 Q1
G1 X350.781 Y718.698F150
M67 E0 Q0
G0 X350.874 Y718.733 F1200
M67 E0 Q1
G1 X350.968 Y718.768F150
M67 E0 Q0
G0 X351.061 Y718.803 F1200
M67 E0 Q1
G1 X351.155 Y718.838F150
M67 E0 Q0
G0 X351.249 Y718.873 F1200
M67 E0 Q1
G1 X351.342 Y718.909F150
M67 E0 Q0
G0 X351.436 Y718.944 F1200
M67 E0 Q1
G1 X351.455 Y718.951F150
; Cut @ 150 mm/min, 100% power
M8
M67 E0 Q0
G0 X354 Y697.5 F1200
G91
G0 Z0.43
G90
; Layer 
M67 E0 Q1
G1  Y717.5F150
; Cut @ 150 mm/min, 100% power
M8
M67 E0 Q0
G0 X353.987 Y720.411 F1200
; Layer 
M67 E0 Q1
G1 X354.087F150
M67 E0 Q0
G0 X354.185 Y720.398 F1200
M67 E0 Q1
G1 X354.248 Y720.384F150
G1 X354.28 Y720.368
M67 E0 Q0
G0 X354.361 Y720.312 F1200
M67 E0 Q1
G1 X354.4 Y720.274F150
G1 X354.422 Y720.234
M67 E0 Q0
G0 X354.459 Y720.143 F1200
M67 E0 Q1
G1 X354.469 Y720.067F150
G1  Y720.044
M67 E0 Q0
G0 X354.466 Y719.944 F1200
M67 E0 Q1
G1 X354.455 Y719.846F150
M67 E0 Q0
G0 X354.406 Y719.758 F1200
M67 E0 Q1
G1 X354.331 Y719.695F150
M67 E0 Q0
G0 X354.246 Y719.639 F1200
M67 E0 Q1
G1 X354.148 Y719.618F150
M67 E0 Q0
G0 X354.049 Y719.612 F1200
M67 E0 Q1
G1 X353.949F150
M67 E0 Q0
G0 X353.849 F1200
M67 E0 Q1
G1 X353.749F150
M67 E0 Q0
G0 X353.649 F1200
M67 E0 Q1
G1 X353.549F150
M67 E0 Q0
G0 X353.449 F1200
M67 E0 Q1
G1 X353.349F150
M67 E0 Q0
G0 X353.249 F1200
M67 E0 Q1
G1 X353.149F150
M67 E0 Q0
G0 X353.049 F1200
M67 E0 Q1
G1 X353.036F150
G1 X352.953 Y719.637
M67 E0 Q0
G0 X352.862 Y719.676 F1200
M67 E0 Q1
G1 X352.788 Y719.722F150
G1 X352.779 Y719.732
M67 E0 Q0
G0 X352.718 Y719.81 F1200
M67 E0 Q1
G1 X352.702 Y719.909F150
M67 E0 Q0
G0 X352.691 Y720.008 F1200
M67 E0 Q1
G1  Y720.067F150
G1 X352.699 Y720.107
M67 E0 Q0
G0 X352.717 Y720.206 F1200
M67 E0 Q1
G1  Y720.219F150
G1 X352.776 Y720.285
M67 E0 Q0
G0 X352.852 Y720.347 F1200
M67 E0 Q1
G1 X352.912 Y720.384F150
G1 X352.941 Y720.39
M67 E0 Q0
G0 X353.039 Y720.411 F1200
M67 E0 Q1
G1 X353.139F150
M67 E0 Q0
G0 X353.239 F1200
M67 E0 Q1
G1 X353.339F150
M67 E0 Q0
G0 X353.439 F1200
M67 E0 Q1
G1 X353.477F150
G1 X353.537 Y720.398
M67 E0 Q0
G0 X353.63 Y720.364 F1200
M67 E0 Q1
G1 X353.713 Y720.309F150
M67 E0 Q0
G0 X353.775 Y720.231 F1200
M67 E0 Q1
G1 X353.794 Y720.205F150
G1 X353.809 Y720.139
M67 E0 Q0
G0 X353.831 Y720.042 F1200
M67 E0 Q1
G1 X353.835 Y720.026F150
G1 X353.821 Y719.943
M67 E0 Q0
G0 X353.798 Y719.847 F1200
M67 E0 Q1
G1 X353.743 Y719.764F150
M67 E0 Q0
G0 X353.671 Y719.696 F1200
M67 E0 Q1
G1 X353.591 Y719.636F150
M67 E0 Q0
G0 X354.386 Y719.281 F1200
M67 E0 Q1
G1 X354.455F150
G1  Y719.25
M67 E0 Q0
G0  Y719.15 F1200
M67 E0 Q1
G1  Y719.102F150
G1 X354.403
M67 E0 Q0
G0 X354.303 F1200
M67 E0 Q1
G1 X354.276F150
G1  Y719.175
M67 E0 Q0
G0  Y719.275 F1200
M67 E0 Q1
G1  Y719.281F150
G1 X354.37
M67 E0 Q0
G0 X353.049 Y718.772 F1200
M67 E0 Q1
G1 X352.993 Y718.689F150
M67 E0 Q0
G0 X352.936 Y718.607 F1200
M67 E0 Q1
G1 X352.926 Y718.593F150
G1 X352.862 Y718.541
M67 E0 Q0
G0 X352.784 Y718.478 F1200
M67 E0 Q1
G1 X352.707 Y718.415F150
M67 E0 Q0
G0 X352.803 F1200
M67 E0 Q1
G1 X352.903F150
M67 E0 Q0
G0 X353.003 F1200
M67 E0 Q1
G1 X353.103F150
M67 E0 Q0
G0 X353.203 F1200
M67 E0 Q1
G1 X353.303F150
M67 E0 Q0
G0 X353.403 F1200
M67 E0 Q1
G1 X353.503F150
M67 E0 Q0
G0 X353.603 F1200
M67 E0 Q1
G1 X353.703F150
M67 E0 Q0
G0 X353.803 F1200
M67 E0 Q1
G1 X353.903F150
M67 E0 Q0
G0 X354.003 F1200
M67 E0 Q1
G1 X354.103F150
M67 E0 Q0
G0 X354.203 F1200
M67 E0 Q1
G1 X354.303F150
M67 E0 Q0
G0 X354.403 F1200
M67 E0 Q1
G1 X354.455F150
; Cut @ 150 mm/min, 100% power
M8
M67 E0 Q0
G0 X357 Y697.5 F1200
G91
G0 Z0.43
G90
; Layer 
M67 E0 Q1
G1  Y717.5F150
; Cut @ 150 mm/min, 100% power
M8
M67 E0 Q0
G0 X357.386 Y719.64 F1200
; Layer 
M67 E0 Q1
G1 X357.455F150
G1  Y719.609
M67 E0 Q0
G0  Y719.509 F1200
M67 E0 Q1
G1  Y719.461F150
G1 X357.403
M67 E0 Q0
G0 X357.303 F1200
M67 E0 Q1
G1 X357.276F150
G1  Y719.533
M67 E0 Q0
G0  Y719.633 F1200
M67 E0 Q1
G1  Y719.64F150
G1 X357.37
M67 E0 Q0
G0 X356.174 Y718.331 F1200
M67 E0 Q1
G1 X356.074F150
M67 E0 Q0
G0 X355.975 Y718.344 F1200
M67 E0 Q1
G1 X355.912 Y718.358F150
G1 X355.88 Y718.374
M67 E0 Q0
G0 X355.799 Y718.43 F1200
M67 E0 Q1
G1 X355.76 Y718.469F150
G1 X355.738 Y718.508
M67 E0 Q0
G0 X355.701 Y718.599 F1200
M67 E0 Q1
G1 X355.691 Y718.689F150
G1  Y718.698
M67 E0 Q0
G0  Y718.798 F1200
M67 E0 Q1
G1 X355.705 Y718.896F150
M67 E0 Q0
G0 X355.753 Y718.985 F1200
M67 E0 Q1
G1 X355.824 Y719.056F150
M67 E0 Q0
G0 X355.912 Y719.102 F1200
M67 E0 Q1
G1 X356.009 Y719.124F150
M67 E0 Q0
G0 X356.109 Y719.13 F1200
M67 E0 Q1
G1 X356.209F150
M67 E0 Q0
G0 X356.309 F1200
M67 E0 Q1
G1 X356.409F150
M67 E0 Q0
G0 X356.509 F1200
M67 E0 Q1
G1 X356.609F150
M67 E0 Q0
G0 X356.709 F1200
M67 E0 Q1
G1 X356.809F150
M67 E0 Q0
G0 X356.909 F1200
M67 E0 Q1
G1 X357.009F150
M67 E0 Q0
G0 X357.109 F1200
M67 E0 Q1
G1 X357.124F150
G1 X357.207 Y719.113
M67 E0 Q0
G0 X357.299 Y719.079 F1200
M67 E0 Q1
G1 X357.372 Y719.033F150
G1 X357.38 Y719.022
M67 E0 Q0
G0 X357.439 Y718.941 F1200
M67 E0 Q1
G1  Y718.937F150
G1 X357.458 Y718.843
M67 E0 Q0
G0 X357.469 Y718.744 F1200
M67 E0 Q1
G1  Y718.689F150
G1 X357.461 Y718.645
M67 E0 Q0
G0 X357.443 Y718.546 F1200
M67 E0 Q1
G1  Y718.537F150
G1 X357.387 Y718.465
M67 E0 Q0
G0 X357.314 Y718.399 F1200
M67 E0 Q1
G1 X357.248 Y718.358F150
G1 X357.226 Y718.353
M67 E0 Q0
G0 X357.128 Y718.332 F1200
M67 E0 Q1
G1 X357.124F150
G1 X357.028
M67 E0 Q0
G0 X356.928 F1200
M67 E0 Q1
G1 X356.828F150
M67 E0 Q0
G0 X356.728 F1200
M67 E0 Q1
G1 X356.683F150
G1 X356.63 Y718.343
M67 E0 Q0
G0 X356.536 Y718.374 F1200
M67 E0 Q1
G1 X356.453 Y718.429F150
M67 E0 Q0
G0 X356.389 Y718.505 F1200
M67 E0 Q1
G1 X356.366 Y718.537F150
G1 X356.353 Y718.596
M67 E0 Q0
G0 X356.33 Y718.694 F1200
M67 E0 Q1
G1 X356.325 Y718.717F150
G1 X356.338 Y718.792
M67 E0 Q0
G0 X356.357 Y718.89 F1200
M67 E0 Q1
G1 X356.409 Y718.975F150
M67 E0 Q0
G0 X356.475 Y719.046 F1200
M67 E0 Q1
G1 X356.559 Y719.102F150
; Cut @ 150 mm/min, 100% power
M8
M67 E0 Q0
G0 X360 Y697.5 F1200
G91
G0 Z0.43
G90
; Layer 
M67 E0 Q1
G1  Y717.5F150
; Cut @ 150 mm/min, 100% power
M8
M67 E0 Q0
G0 X359.049 Y721.514 F1200
; Layer 
M67 E0 Q1
G1 X358.993 Y721.432F150
M67 E0 Q0
G0 X358.936 Y721.349 F1200
M67 E0 Q1
G1 X358.926 Y721.335F150
G1 X358.862 Y721.283
M67 E0 Q0
G0 X358.784 Y721.22 F1200
M67 E0 Q1
G1 X358.707 Y721.157F150
M67 E0 Q0
G0 X358.803 F1200
M67 E0 Q1
G1 X358.903F150
M67 E0 Q0
G0 X359.003 F1200
M67 E0 Q1
G1 X359.103F150
M67 E0 Q0
G0 X359.203 F1200
M67 E0 Q1
G1 X359.303F150
M67 E0 Q0
G0 X359.403 F1200
M67 E0 Q1
G1 X359.503F150
M67 E0 Q0
G0 X359.603 F1200
M67 E0 Q1
G1 X359.703F150
M67 E0 Q0
G0 X359.803 F1200
M67 E0 Q1
G1 X359.903F150
M67 E0 Q0
G0 X360.003 F1200
M67 E0 Q1
G1 X360.103F150
M67 E0 Q0
G0 X360.203 F1200
M67 E0 Q1
G1 X360.303F150
M67 E0 Q0
G0 X360.403 F1200
M67 E0 Q1
G1 X360.455F150
M67 E0 Q0
G0 X359.518 Y720.742 F1200
M67 E0 Q1
G1 X359.618F150
M67 E0 Q0
G0 X359.718 F1200
M67 E0 Q1
G1 X359.818F150
M67 E0 Q0
G0 X359.918 F1200
M67 E0 Q1
G1 X360.018F150
M67 E0 Q0
G0 X360.118 F1200
M67 E0 Q1
G1 X360.124F150
G1 X360.215 Y720.717
M67 E0 Q0
G0 X360.306 Y720.68 F1200
M67 E0 Q1
G1 X360.372 Y720.632F150
G1 X360.383 Y720.617
M67 E0 Q0
G0 X360.441 Y720.536 F1200
M67 E0 Q1
G1 X360.461 Y720.438F150
M67 E0 Q0
G0 X360.469 Y720.339 F1200
M67 E0 Q1
G1  Y720.301F150
G1 X360.457 Y720.24
M67 E0 Q0
G0 X360.428 Y720.146 F1200
M67 E0 Q1
G1 X360.368 Y720.066F150
M67 E0 Q0
G0 X360.291 Y720.003 F1200
M67 E0 Q1
G1 X360.248 Y719.97F150
G1 X360.202 Y719.965
M67 E0 Q0
G0 X360.103 Y719.957 F1200
M67 E0 Q1
G1 X360.003F150
M67 E0 Q0
G0 X359.903 F1200
M67 E0 Q1
G1 X359.803F150
M67 E0 Q0
G0 X359.703 F1200
M67 E0 Q1
G1 X359.603F150
M67 E0 Q0
G0 X359.503 F1200
M67 E0 Q1
G1 X359.403F150
M67 E0 Q0
G0 X359.303 F1200
M67 E0 Q1
G1 X359.203F150
M67 E0 Q0
G0 X359.103 F1200
M67 E0 Q1
G1 X359.036F150
G1 X359.003 Y719.963
M67 E0 Q0
G0 X358.905 Y719.983 F1200
M67 E0 Q1
G1 X358.898F150
G1 X358.819 Y720.033
M67 E0 Q0
G0 X358.756 Y720.107 F1200
M67 E0 Q1
G1 X358.705 Y720.191F150
M67 E0 Q0
G0 X358.692 Y720.292 F1200
M67 E0 Q1
G1  Y720.301F150
G1  Y720.392
M67 E0 Q0
G0 X358.71 Y720.49 F1200
M67 E0 Q1
G1 X358.719 Y720.535F150
G1 X358.745 Y720.582
M67 E0 Q0
G0 X358.808 Y720.657 F1200
M67 E0 Q1
G1 X358.884 Y720.715F150
G1 X358.889
M67 E0 Q0
G0 X358.987 Y720.733 F1200
M67 E0 Q1
G1 X359.036 Y720.742F150
G1 X359.087
M67 E0 Q0
G0 X359.187 F1200
M67 E0 Q1
G1 X359.287F150
M67 E0 Q0
G0 X359.387 F1200
M67 E0 Q1
G1 X359.487F150
M67 E0 Q0
G0 X360.386 Y719.626 F1200
M67 E0 Q1
G1 X360.455F150
G1  Y719.595
M67 E0 Q0
G0  Y719.495 F1200
M67 E0 Q1
G1  Y719.447F150
G1 X360.403
M67 E0 Q0
G0 X360.303 F1200
M67 E0 Q1
G1 X360.276F150
G1  Y719.52
M67 E0 Q0
G0  Y719.62 F1200
M67 E0 Q1
G1  Y719.626F150
G1 X360.37
M67 E0 Q0
G0 X359.518 Y719.116 F1200
M67 E0 Q1
G1 X359.618F150
M67 E0 Q0
G0 X359.718 F1200
M67 E0 Q1
G1 X359.818F150
M67 E0 Q0
G0 X359.918 F1200
M67 E0 Q1
G1 X360.018F150
M67 E0 Q0
G0 X360.118 F1200
M67 E0 Q1
G1 X360.124F150
G1 X360.215 Y719.091
M67 E0 Q0
G0 X360.306 Y719.054 F1200
M67 E0 Q1
G1 X360.372 Y719.006F150
G1 X360.383 Y718.991
M67 E0 Q0
G0 X360.441 Y718.91 F1200
M67 E0 Q1
G1 X360.461 Y718.812F150
M67 E0 Q0
G0 X360.469 Y718.713 F1200
M67 E0 Q1
G1  Y718.675F150
G1 X360.457 Y718.614
M67 E0 Q0
G0 X360.428 Y718.52 F1200
M67 E0 Q1
G1 X360.368 Y718.44F150
M67 E0 Q0
G0 X360.291 Y718.377 F1200
M67 E0 Q1
G1 X360.248 Y718.344F150
G1 X360.202 Y718.339
M67 E0 Q0
G0 X360.103 Y718.331 F1200
M67 E0 Q1
G1 X360.003F150
M67 E0 Q0
G0 X359.903 F1200
M67 E0 Q1
G1 X359.803F150
M67 E0 Q0
G0 X359.703 F1200
M67 E0 Q1
G1 X359.603F150
M67 E0 Q0
G0 X359.503 F1200
M67 E0 Q1
G1 X359.403F150
M67 E0 Q0
G0 X359.303 F1200
M67 E0 Q1
G1 X359.203F150
M67 E0 Q0
G0 X359.103 F1200
M67 E0 Q1
G1 X359.036F150
G1 X359.003 Y718.337
M67 E0 Q0
G0 X358.905 Y718.357 F1200
M67 E0 Q1
G1 X358.898F150
G1 X358.819 Y718.407
M67 E0 Q0
G0 X358.756 Y718.481 F1200
M67 E0 Q1
G1 X358.705 Y718.565F150
M67 E0 Q0
G0 X358.692 Y718.666 F1200
M67 E0 Q1
G1  Y718.675F150
G1  Y718.766
M67 E0 Q0
G0 X358.71 Y718.864 F1200
M67 E0 Q1
G1 X358.719 Y718.909F150
G1 X358.745 Y718.956
M67 E0 Q0
G0 X358.808 Y719.031 F1200
M67 E0 Q1
G1 X358.884 Y719.089F150
G1 X358.889
M67 E0 Q0
G0 X358.987 Y719.107 F1200
M67 E0 Q1
G1 X359.036 Y719.116F150
G1 X359.087
M67 E0 Q0
G0 X359.187 F1200
M67 E0 Q1
G1 X359.287F150
M67 E0 Q0
G0 X359.387 F1200
M67 E0 Q1
G1 X359.487F150
G91
M67 E0 Q0
G0 Z-10
G90
M9
M67 E0 Q0
G90
