; LightBurn 1.7.03
; LinuxCNC device profile, absolute coords
; Bounds: X262.64 Y300.24 to X406.63 Y347.07
G21
G90
; Scan @ 300 mm/min, 50% power
M8
M67 E0 Q0
G0 X267.248 Y317.004 F1200
; Layer 
G91
G1 X-0.125 F300
M67 E0 Q0.5
G1 X-1.904
M67 E0 Q0
G1 X-0.125
G1 X-0.503Y-0.07
G1 X0.125
M67 E0 Q0.5
G1 X2.907
M67 E0 Q0
G1 X0.125
G1 X0.318Y-0.07
G1 X-0.125
M67 E0 Q0.5
G1 X-3.546
M67 E0 Q0
G1 X-0.125
G1 X-0.237Y-0.07
G1 X0.125
M67 E0 Q0.5
G1 X4.02
M67 E0 Q0
G1 X0.125
G1 X0.193Y-0.07
G1 X-0.125
M67 E0 Q0.5
G1 X-4.405
M67 E0 Q0
G1 X-0.125
G1 X-0.165Y-0.07
G1 X0.125
M67 E0 Q0.5
G1 X4.736
M67 E0 Q0
G1 X0.125
G1 X0.132Y-0.07
G1 X-0.125
M67 E0 Q0.5
G1 X-4.997
M67 E0 Q0
G1 X-0.125
G1 X-0.117Y-0.07
G1 X0.125
M67 E0 Q0.5
G1 X5.232
M67 E0 Q0
G1 X0.125
G1 X17.713Y-0.07 F1200
G1 X-0.125 F300
M67 E0 Q0.5
G1 X-15
M67 E0 Q0
G1 X-2.611 F1200
M67 E0 Q0.5
G1 X-5.433 F300
M67 E0 Q0
G1 X-0.125
G1 X-0.089Y-0.07
G1 X0.125
M67 E0 Q0.5
G1 X5.612
M67 E0 Q0
G1 X2.521 F1200
M67 E0 Q0.5
G1 X15 F300
M67 E0 Q0
G1 X0.125
G1 Y-0.07
G1 X-0.125
M67 E0 Q0.5
G1 X-15
M67 E0 Q0
G1 X-2.444 F1200
M67 E0 Q0.5
G1 X-5.765 F300
M67 E0 Q0
G1 X-0.125
G1 X-0.072Y-0.07
G1 X0.125
M67 E0 Q0.5
G1 X5.909
M67 E0 Q0
G1 X2.372 F1200
M67 E0 Q0.5
G1 X15 F300
M67 E0 Q0
G1 X0.125
G1 Y-0.07
G1 X-0.125
M67 E0 Q0.5
G1 X-15
M67 E0 Q0
G1 X-2.313 F1200
M67 E0 Q0.5
G1 X-6.025 F300
M67 E0 Q0
G1 X-0.125
G1 X-0.058Y-0.07
G1 X0.125
M67 E0 Q0.5
G1 X1.816
M67 E0 Q0
G1 X2.557 F1200
M67 E0 Q0.5
G1 X1.769 F300
M67 E0 Q0
G1 X2.254 F1200
M67 E0 Q0.5
G1 X15 F300
M67 E0 Q0
G1 X0.125
G1 Y-0.07
G1 X-0.125
M67 E0 Q0.5
G1 X-15
M67 E0 Q0
G1 X-2.208 F1200
M67 E0 Q0.5
G1 X-1.44 F300
M67 E0 Q0
G1 X-3.347 F1200
M67 E0 Q0.5
G1 X-1.447 F300
M67 E0 Q0
G1 X-0.125
G1 X-0.043Y-0.07
G1 X0.125
M67 E0 Q0.5
G1 X1.252
M67 E0 Q0
G1 X3.82 F1200
M67 E0 Q0.5
G1 X1.248 F300
M67 E0 Q0
G1 X2.165 F1200
M67 E0 Q0.5
G1 X15 F300
M67 E0 Q0
G1 X0.125
G1 Y-0.07
G1 X-0.125
M67 E0 Q0.5
G1 X-15
M67 E0 Q0
G1 X-2.123 F1200
M67 E0 Q0.5
G1 X-1.11 F300
M67 E0 Q0
G1 X-4.182 F1200
M67 E0 Q0.5
G1 X-1.112 F300
M67 E0 Q0
G1 X-0.125
G1 X-0.03Y-0.07
G1 X0.125
M67 E0 Q0.5
G1 X1.014
M67 E0 Q0
G1 X4.439 F1200
M67 E0 Q0.5
G1 X1.012 F300
M67 E0 Q0
G1 X2.092 F1200
M67 E0 Q0.5
G1 X15 F300
M67 E0 Q0
G1 X0.125
G1 Y-0.07
G1 X-0.125
M67 E0 Q0.5
G1 X-15
M67 E0 Q0
G1 X-2.061 F1200
M67 E0 Q0.5
G1 X-0.942 F300
M67 E0 Q0
G1 X-4.643 F1200
M67 E0 Q0.5
G1 X-0.942 F300
M67 E0 Q0
G1 X-0.125
G1 X-0.029Y-0.07
G1 X0.125
M67 E0 Q0.5
G1 X0.888
M67 E0 Q0
G1 X4.81 F1200
M67 E0 Q0.5
G1 X0.886 F300
M67 E0 Q0
G1 X2.033 F1200
M67 E0 Q0.5
G1 X15 F300
M67 E0 Q0
G1 X0.125
G1 Y-0.07
G1 X-0.125
M67 E0 Q0.5
G1 X-15
M67 E0 Q0
G1 X-2.012 F1200
M67 E0 Q0.5
G1 X-0.844 F300
M67 E0 Q0
G1 X-4.936 F1200
M67 E0 Q0.5
G1 X-0.845 F300
M67 E0 Q0
G1 X-0.125
G1 X-0.02Y-0.07
G1 X0.125
M67 E0 Q0.5
G1 X0.811
M67 E0 Q0
G1 X5.044 F1200
M67 E0 Q0.5
G1 X0.81 F300
M67 E0 Q0
G1 X1.992 F1200
M67 E0 Q0.5
G1 X15 F300
M67 E0 Q0
G1 X0.125
G1 Y-0.07
G1 X-0.125
M67 E0 Q0.5
G1 X-15
M67 E0 Q0
G1 X-1.971 F1200
M67 E0 Q0.5
G1 X-0.787 F300
M67 E0 Q0
G1 X-5.131 F1200
M67 E0 Q0.5
G1 X-0.788 F300
M67 E0 Q0
G1 X-0.125
G1 X-0.012Y-0.07
G1 X0.125
M67 E0 Q0.5
G1 X0.767
M67 E0 Q0
G1 X5.196 F1200
M67 E0 Q0.5
G1 X0.766 F300
M67 E0 Q0
G1 X1.96 F1200
M67 E0 Q0.5
G1 X15 F300
M67 E0 Q0
G1 X0.125
G1 Y-0.07
G1 X-0.125
M67 E0 Q0.5
G1 X-15
M67 E0 Q0
G1 X-1.949 F1200
M67 E0 Q0.5
G1 X-0.75 F300
M67 E0 Q0
G1 X-5.25 F1200
M67 E0 Q0.5
G1 X-0.751 F300
M67 E0 Q0
G1 X-0.125
G1 X-0.012Y-0.07
G1 X0.125
M67 E0 Q0.5
G1 X0.743
M67 E0 Q0
G1 X5.289 F1200
M67 E0 Q0.5
G1 X0.743 F300
M67 E0 Q0
G1 X1.937 F1200
M67 E0 Q0.5
G1 X15 F300
M67 E0 Q0
G1 X0.125
G1 Y-0.07
G1 X-0.125
M67 E0 Q0.5
G1 X-15
M67 E0 Q0
G1 X-1.93 F1200
M67 E0 Q0.5
G1 X-0.735 F300
M67 E0 Q0
G1 X-5.319 F1200
M67 E0 Q0.5
G1 X-0.735 F300
M67 E0 Q0
G1 X-0.125
G1 Y-0.07
G1 X0.121
M67 E0 Q0.5
G1 X0.727
M67 E0 Q0
G1 X5.342 F1200
M67 E0 Q0.5
G1 X0.727 F300
M67 E0 Q0
G1 X1.927 F1200
M67 E0 Q0.5
G1 X15 F300
M67 E0 Q0
G1 X0.125
G1 Y-0.07
G1 X-0.125
M67 E0 Q0.5
G1 X-15
M67 E0 Q0
G1 X-1.923 F1200
M67 E0 Q0.5
G1 X-0.726 F300
M67 E0 Q0
G1 X-5.351 F1200
M67 E0 Q0.5
G1 X-0.726 F300
M67 E0 Q0
G1 X-0.125
G1 Y-0.07
G1 X0.121
M67 E0 Q0.5
G1 X0.726
M67 E0 Q0
G1 X5.359 F1200
M67 E0 Q0.5
G1 X0.725 F300
M67 E0 Q0
G1 X1.92 F1200
M67 E0 Q0.5
G1 X15 F300
M67 E0 Q0
G1 X0.125
G1 Y-0.07
G1 X-0.125
M67 E0 Q0.5
G1 X-15
M67 E0 Q0
G1 X-1.921 F1200
M67 E0 Q0.5
G1 X-0.726 F300
M67 E0 Q0
G1 X-5.355 F1200
M67 E0 Q0.5
G1 X-0.725 F300
M67 E0 Q0
G1 X-0.125
G1 Y-0.07
G1 X0.128
M67 E0 Q0.5
G1 X0.727
M67 E0 Q0
G1 X5.345 F1200
M67 E0 Q0.5
G1 X0.727 F300
M67 E0 Q0
G1 X1.925 F1200
M67 E0 Q0.5
G1 X15 F300
M67 E0 Q0
G1 X0.125
G1 Y-0.07
G1 X-0.125
M67 E0 Q0.5
G1 X-15
M67 E0 Q0
G1 X-1.928 F1200
M67 E0 Q0.5
G1 X-0.731 F300
M67 E0 Q0
G1 X-5.331 F1200
M67 E0 Q0.5
G1 X-0.73 F300
M67 E0 Q0
G1 X-0.125
G1 Y-0.07
G1 X0.129
M67 E0 Q0.5
G1 X0.74
M67 E0 Q0
G1 X5.303 F1200
M67 E0 Q0.5
G1 X0.74 F300
M67 E0 Q0
G1 X1.933 F1200
M67 E0 Q0.5
G1 X15 F300
M67 E0 Q0
G1 X0.125
G1 Y-0.07
G1 X-0.125
M67 E0 Q0.5
G1 X-15
M67 E0 Q0
G1 X-1.944 F1200
M67 E0 Q0.5
G1 X-0.744 F300
M67 E0 Q0
G1 X-5.274 F1200
M67 E0 Q0.5
G1 X-0.743 F300
M67 E0 Q0
G1 X-0.125
G1 X0.011Y-0.07
G1 X0.125
M67 E0 Q0.5
G1 X0.759
M67 E0 Q0
G1 X5.22 F1200
M67 E0 Q0.5
G1 X0.76 F300
M67 E0 Q0
G1 X1.955 F1200
M67 E0 Q0.5
G1 X15 F300
M67 E0 Q0
G1 X0.125
G1 Y-0.07
G1 X-0.125
M67 E0 Q0.5
G1 X-15
M67 E0 Q0
G1 X-1.966 F1200
M67 E0 Q0.5
G1 X-0.776 F300
M67 E0 Q0
G1 X-5.166 F1200
M67 E0 Q0.5
G1 X-0.774 F300
M67 E0 Q0
G1 X-0.125
G1 X0.017Y-0.07
G1 X0.125
M67 E0 Q0.5
G1 X0.8
M67 E0 Q0
G1 X5.081 F1200
M67 E0 Q0.5
G1 X0.801 F300
M67 E0 Q0
G1 X1.983 F1200
M67 E0 Q0.5
G1 X15 F300
M67 E0 Q0
G1 X0.125
G1 Y-0.07
G1 X-0.125
M67 E0 Q0.5
G1 X-15
M67 E0 Q0
G1 X-2.004 F1200
M67 E0 Q0.5
G1 X-0.827 F300
M67 E0 Q0
G1 X-4.987 F1200
M67 E0 Q0.5
G1 X-0.827 F300
M67 E0 Q0
G1 X-0.125
G1 X0.021Y-0.07
G1 X0.125
M67 E0 Q0.5
G1 X0.868
M67 E0 Q0
G1 X4.864 F1200
M67 E0 Q0.5
G1 X0.868 F300
M67 E0 Q0
G1 X2.024 F1200
M67 E0 Q0.5
G1 X15 F300
M67 E0 Q0
G1 X0.125
G1 Y-0.07
G1 X-0.125
M67 E0 Q0.5
G1 X-15
M67 E0 Q0
G1 X-2.049 F1200
M67 E0 Q0.5
G1 X-0.919 F300
M67 E0 Q0
G1 X-4.712 F1200
M67 E0 Q0.5
G1 X-0.92 F300
M67 E0 Q0
G1 X-0.125
G1 X0.032Y-0.07
G1 X0.125
M67 E0 Q0.5
G1 X0.981
M67 E0 Q0
G1 X4.528 F1200
M67 E0 Q0.5
G1 X0.98 F300
M67 E0 Q0
G1 X2.079 F1200
M67 E0 Q0.5
G1 X15 F300
M67 E0 Q0
G1 X0.125
G1 Y-0.07
G1 X-0.125
M67 E0 Q0.5
G1 X-15
M67 E0 Q0
G1 X-2.11 F1200
M67 E0 Q0.5
G1 X-1.064 F300
M67 E0 Q0
G1 X-4.297 F1200
M67 E0 Q0.5
G1 X-1.066 F300
M67 E0 Q0
G1 X-0.125
G1 X0.036Y-0.07
G1 X0.125
M67 E0 Q0.5
G1 X1.185
M67 E0 Q0
G1 X3.987 F1200
M67 E0 Q0.5
G1 X1.182 F300
M67 E0 Q0
G1 X2.147 F1200
M67 E0 Q0.5
G1 X15 F300
M67 E0 Q0
G1 X0.125
G1 Y-0.07
G1 X-0.125
M67 E0 Q0.5
G1 X-15
M67 E0 Q0
G1 X-2.19 F1200
M67 E0 Q0.5
G1 X-1.374 F300
M67 E0 Q0
G1 X-3.52 F1200
M67 E0 Q0.5
G1 X-1.373 F300
M67 E0 Q0
G1 X-0.125
G1 X0.044Y-0.07
G1 X0.125
M67 E0 Q0.5
G1 X1.651
M67 E0 Q0
G1 X2.874 F1200
M67 E0 Q0.5
G1 X1.655 F300
M67 E0 Q0
G1 X2.233 F1200
M67 E0 Q0.5
G1 X15 F300
M67 E0 Q0
G1 X0.125
G1 Y-0.07
G1 X-0.125
M67 E0 Q0.5
G1 X-15
M67 E0 Q0
G1 X-2.288 F1200
M67 E0 Q0.5
G1 X-2.249 F300
M67 E0 Q0
G1 X-1.581 F1200
M67 E0 Q0.5
G1 X-2.24 F300
M67 E0 Q0
G1 X-0.125
G1 X0.06Y-0.07
G1 X0.125
M67 E0 Q0.5
G1 X5.952
M67 E0 Q0
G1 X2.346 F1200
M67 E0 Q0.5
G1 X15 F300
M67 E0 Q0
G1 X0.125
G1 Y-0.07
G1 X-0.125
M67 E0 Q0.5
G1 X-15
M67 E0 Q0
G1 X-2.41 F1200
M67 E0 Q0.5
G1 X-5.824 F300
M67 E0 Q0
G1 X-0.125
G1 X0.079Y-0.07
G1 X0.125
M67 E0 Q0.5
G1 X5.669
M67 E0 Q0
G1 X2.486 F1200
M67 E0 Q0.5
G1 X15 F300
M67 E0 Q0
G1 X0.125
G1 Y-0.07
G1 X-0.125
M67 E0 Q0.5
G1 X-15
M67 E0 Q0
G1 X-2.566 F1200
M67 E0 Q0.5
G1 X-5.509 F300
M67 E0 Q0
G1 X-0.125
G1 X0.102Y-0.07
G1 X0.125
M67 E0 Q0.5
G1 X5.308
M67 E0 Q0
G1 X2.665 F1200
M67 E0 Q0.5
G1 X15 F300
M67 E0 Q0
G1 X0.125
G1 Y-0.07
G1 X-0.125
M67 E0 Q0.5
G1 X-15
M67 E0 Q0
G1 X-2.77 F1200
M67 E0 Q0.5
G1 X-5.096 F300
M67 E0 Q0
G1 X-0.125
G1 X0.133Y-0.07
G1 X0.125
M67 E0 Q0.5
G1 X4.834
M67 E0 Q0
G1 X2.899 F1200
M67 E0 Q0.5
G1 X15 F300
M67 E0 Q0
G1 X0.125
G1 Y-0.07
G1 X-0.125
M67 E0 Q0.5
G1 X-15
M67 E0 Q0
G1 X-3.047 F1200
M67 E0 Q0.5
G1 X-4.536 F300
M67 E0 Q0
G1 X-0.125
G1 X0.172Y-0.07
G1 X0.125
M67 E0 Q0.5
G1 X4.195
M67 E0 Q0
G1 X3.216 F1200
M67 E0 Q0.5
G1 X15 F300
M67 E0 Q0
G1 X0.125
G1 Y-0.07
G1 X-0.125
M67 E0 Q0.5
G1 X-15
M67 E0 Q0
G1 X-3.439 F1200
M67 E0 Q0.5
G1 X-3.749 F300
M67 E0 Q0
G1 X-0.125
G1 X0.279Y-0.07
G1 X0.125
M67 E0 Q0.5
G1 X3.189
M67 E0 Q0
G1 X3.72 F1200
M67 E0 Q0.5
G1 X15 F300
M67 E0 Q0
G1 X0.125
G1 Y-0.07
G1 X-0.125
M67 E0 Q0.5
G1 X-15
M67 E0 Q0
G1 X-4.109 F1200
M67 E0 Q0.5
G1 X-2.414 F300
M67 E0 Q0
G1 X-0.125
G1 X0.828Y-0.07
G1 X0.125
M67 E0 Q0.5
G1 X0.739
M67 E0 Q0
G1 X4.956 F1200
M67 E0 Q0.5
G1 X15 F300
M67 E0 Q0
G1 X0.125
G1 Y-0.07
G1 X-0.125
M67 E0 Q0.5
G1 X-15
M67 E0 Q0
G1 X-0.125
G1 Y-0.07
G1 X0.125
M67 E0 Q0.5
G1 X15
M67 E0 Q0
G1 X0.125
G1 Y-0.07
G1 X-0.125
M67 E0 Q0.5
G1 X-15
M67 E0 Q0
G1 X-0.125
G1 Y-0.07
G1 X0.125
M67 E0 Q0.5
G1 X15
M67 E0 Q0
G1 X0.125
G1 Y-0.07
G1 X-0.125
M67 E0 Q0.5
G1 X-15
M67 E0 Q0
G1 X-0.125
G1 Y-0.07
G1 X0.125
M67 E0 Q0.5
G1 X15
M67 E0 Q0
G1 X0.125
G1 Y-0.07
G1 X-0.125
M67 E0 Q0.5
G1 X-15
M67 E0 Q0
G1 X-0.125
G1 Y-0.07
G1 X0.125
M67 E0 Q0.5
G1 X15
M67 E0 Q0
G1 X0.125
G1 Y-0.07
G1 X-0.125
M67 E0 Q0.5
G1 X-15
M67 E0 Q0
G1 X-0.125
G1 Y-0.07
G1 X0.125
M67 E0 Q0.5
G1 X15
M67 E0 Q0
G1 X0.125
G1 Y-0.07
G1 X-0.125
M67 E0 Q0.5
G1 X-15
M67 E0 Q0
G1 X-0.125
G1 Y-0.07
G1 X0.125
M67 E0 Q0.5
G1 X15
M67 E0 Q0
G1 X0.125
G1 Y-0.07
G1 X-0.125
M67 E0 Q0.5
G1 X-15
M67 E0 Q0
G1 X-0.125
G1 Y-0.07
G1 X0.125
M67 E0 Q0.5
G1 X15
M67 E0 Q0
G1 X0.125
G1 Y-0.07
G1 X-0.125
M67 E0 Q0.5
G1 X-15
M67 E0 Q0
G1 X-0.125
G1 Y-0.07
G1 X0.125
M67 E0 Q0.5
G1 X15
M67 E0 Q0
G1 X0.125
G1 Y-0.07
G1 X-0.125
M67 E0 Q0.5
G1 X-15
M67 E0 Q0
G1 X-0.125
G1 X-3.307Y-0.07 F1200
G1 X0.125 F300
M67 E0 Q0.5
G1 X1.252
M67 E0 Q0
G1 X2.055 F1200
M67 E0 Q0.5
G1 X15 F300
M67 E0 Q0
G1 X0.125
G1 Y-0.07
G1 X-0.125
M67 E0 Q0.5
G1 X-15
M67 E0 Q0
G1 X-2.055 F1200
M67 E0 Q0.5
G1 X-1.252 F300
M67 E0 Q0
G1 X-0.125
G1 Y-0.07
G1 X0.125
M67 E0 Q0.5
G1 X1.252
M67 E0 Q0
G1 X2.055 F1200
M67 E0 Q0.5
G1 X15 F300
M67 E0 Q0
G1 X0.125
G1 Y-0.07
G1 X-0.125
M67 E0 Q0.5
G1 X-15
M67 E0 Q0
G1 X-2.055 F1200
M67 E0 Q0.5
G1 X-1.252 F300
M67 E0 Q0
G1 X-0.125
G1 Y-0.07
G1 X0.125
M67 E0 Q0.5
G1 X1.252
M67 E0 Q0
G1 X2.055 F1200
M67 E0 Q0.5
G1 X15 F300
M67 E0 Q0
G1 X0.125
G1 Y-0.07
G1 X-0.125
M67 E0 Q0.5
G1 X-15
M67 E0 Q0
G1 X-2.055 F1200
M67 E0 Q0.5
G1 X-1.252 F300
M67 E0 Q0
G1 X-0.125
G1 Y-0.07
G1 X0.125
M67 E0 Q0.5
G1 X1.252
M67 E0 Q0
G1 X2.055 F1200
M67 E0 Q0.5
G1 X15 F300
M67 E0 Q0
G1 X0.125
G1 Y-0.07
G1 X-0.125
M67 E0 Q0.5
G1 X-15
M67 E0 Q0
G1 X-2.055 F1200
M67 E0 Q0.5
G1 X-1.252 F300
M67 E0 Q0
G1 X-0.125
G1 Y-0.07
G1 X0.125
M67 E0 Q0.5
G1 X1.252
M67 E0 Q0
G1 X2.055 F1200
M67 E0 Q0.5
G1 X15 F300
M67 E0 Q0
G1 X0.125
G1 Y-0.07
G1 X-0.125
M67 E0 Q0.5
G1 X-15
M67 E0 Q0
G1 X-2.055 F1200
M67 E0 Q0.5
G1 X-1.252 F300
M67 E0 Q0
G1 X-0.125
G1 Y-0.07
G1 X0.125
M67 E0 Q0.5
G1 X1.252
M67 E0 Q0
G1 X2.055 F1200
M67 E0 Q0.5
G1 X15 F300
M67 E0 Q0
G1 X0.125
G1 Y-0.07
G1 X-0.125
M67 E0 Q0.5
G1 X-15
M67 E0 Q0
G1 X-2.055 F1200
M67 E0 Q0.5
G1 X-1.252 F300
M67 E0 Q0
G1 X-0.125
G1 Y-0.07
G1 X0.125
M67 E0 Q0.5
G1 X1.252
M67 E0 Q0
G1 X2.055 F1200
M67 E0 Q0.5
G1 X15 F300
M67 E0 Q0
G1 X0.125
G1 Y-0.07
G1 X-0.125
M67 E0 Q0.5
G1 X-15
M67 E0 Q0
G1 X-2.055 F1200
M67 E0 Q0.5
G1 X-1.252 F300
M67 E0 Q0
G1 X-0.125
G1 Y-0.07
G1 X0.125
M67 E0 Q0.5
G1 X1.252
M67 E0 Q0
G1 X2.055 F1200
M67 E0 Q0.5
G1 X15 F300
M67 E0 Q0
G1 X0.125
G1 Y-0.07
G1 X-0.125
M67 E0 Q0.5
G1 X-15
M67 E0 Q0
G1 X-0.125
G1 Y-0.07
G1 X0.125
M67 E0 Q0.5
G1 X15
M67 E0 Q0
G1 X0.125
G1 Y-0.07
G1 X-0.125
M67 E0 Q0.5
G1 X-15
M67 E0 Q0
G1 X-0.125
G1 Y-0.07
G1 X0.125
M67 E0 Q0.5
G1 X15
M67 E0 Q0
G1 X0.125
G1 Y-0.07
G1 X-0.125
M67 E0 Q0.5
G1 X-15
M67 E0 Q0
G1 X-0.125
G1 Y-0.07
G1 X0.125
M67 E0 Q0.5
G1 X15
M67 E0 Q0
G1 X0.125
G1 Y-0.07
G1 X-0.125
M67 E0 Q0.5
G1 X-15
M67 E0 Q0
G1 X-0.125
G1 Y-0.07
G1 X0.125
M67 E0 Q0.5
G1 X15
M67 E0 Q0
G1 X0.125
G1 Y-0.07
G1 X-0.125
M67 E0 Q0.5
G1 X-15
M67 E0 Q0
G1 X-0.125
G1 Y-0.07
G1 X0.125
M67 E0 Q0.5
G1 X15
M67 E0 Q0
G1 X0.125
G1 Y-0.07
G1 X-0.125
M67 E0 Q0.5
G1 X-15
M67 E0 Q0
G1 X-0.125
G1 Y-0.07
G1 X0.125
M67 E0 Q0.5
G1 X15
M67 E0 Q0
G1 X0.125
G1 Y-0.07
G1 X-0.125
M67 E0 Q0.5
G1 X-15
M67 E0 Q0
G1 X-0.125
G1 Y-0.07
G1 X0.125
M67 E0 Q0.5
G1 X15
M67 E0 Q0
G1 X0.125
G1 Y-0.07
G1 X-0.125
M67 E0 Q0.5
G1 X-15
M67 E0 Q0
G1 X-0.125
G1 Y-0.07
G1 X0.125
M67 E0 Q0.5
G1 X15
M67 E0 Q0
G1 X0.125
G1 Y-0.07
G1 X-0.125
M67 E0 Q0.5
G1 X-15
M67 E0 Q0
G1 X-0.125
G1 X-6.056Y-0.07 F1200
G1 X0.125 F300
M67 E0 Q0.5
G1 X1.459
M67 E0 Q0
G1 X4.597 F1200
M67 E0 Q0.5
G1 X15 F300
M67 E0 Q0
G1 X0.125
G1 Y-0.07
G1 X-0.125
M67 E0 Q0.5
G1 X-15
M67 E0 Q0
G1 X-3.998 F1200
M67 E0 Q0.5
G1 X-2.665 F300
M67 E0 Q0
G1 X-0.125
G1 X-0.356Y-0.07
G1 X0.125
M67 E0 Q0.5
G1 X3.374
M67 E0 Q0
G1 X3.645 F1200
M67 E0 Q0.5
G1 X15 F300
M67 E0 Q0
G1 X0.125
G1 Y-0.07
G1 X-0.125
M67 E0 Q0.5
G1 X-15
M67 E0 Q0
G1 X-3.386 F1200
M67 E0 Q0.5
G1 X-3.892 F300
M67 E0 Q0
G1 X-0.125
G1 X-0.208Y-0.07
G1 X0.125
M67 E0 Q0.5
G1 X4.308
M67 E0 Q0
G1 X3.178 F1200
M67 E0 Q0.5
G1 X15 F300
M67 E0 Q0
G1 X0.125
G1 Y-0.07
G1 X-0.125
M67 E0 Q0.5
G1 X-15
M67 E0 Q0
G1 X-3.007 F1200
M67 E0 Q0.5
G1 X-4.647 F300
M67 E0 Q0
G1 X-0.125
G1 X-0.137Y-0.07
G1 X0.125
M67 E0 Q0.5
G1 X4.922
M67 E0 Q0
G1 X2.869 F1200
M67 E0 Q0.5
G1 X15 F300
M67 E0 Q0
G1 X0.125
G1 Y-0.07
G1 X-0.125
M67 E0 Q0.5
G1 X-15
M67 E0 Q0
G1 X-2.742 F1200
M67 E0 Q0.5
G1 X-5.175 F300
M67 E0 Q0
G1 X-0.125
G1 X-0.099Y-0.07
G1 X0.125
M67 E0 Q0.5
G1 X5.376
M67 E0 Q0
G1 X2.64 F1200
M67 E0 Q0.5
G1 X15 F300
M67 E0 Q0
G1 X0.125
G1 Y-0.07
G1 X-0.125
M67 E0 Q0.5
G1 X-15
M67 E0 Q0
G1 X-2.544 F1200
M67 E0 Q0.5
G1 X-5.567 F300
M67 E0 Q0
G1 X-0.125
G1 X-0.076Y-0.07
G1 X0.125
M67 E0 Q0.5
G1 X5.721
M67 E0 Q0
G1 X2.466 F1200
M67 E0 Q0.5
G1 X15 F300
M67 E0 Q0
G1 X0.125
G1 Y-0.07
G1 X-0.125
M67 E0 Q0.5
G1 X-15
M67 E0 Q0
G1 X-2.389 F1200
M67 E0 Q0.5
G1 X-5.874 F300
M67 E0 Q0
G1 X-0.125
G1 X-0.059Y-0.07
G1 X0.125
M67 E0 Q0.5
G1 X5.992
M67 E0 Q0
G1 X2.33 F1200
M67 E0 Q0.5
G1 X15 F300
M67 E0 Q0
G1 X0.125
G1 Y-0.07
G1 X-0.125
M67 E0 Q0.5
G1 X-15
M67 E0 Q0
G1 X-2.271 F1200
M67 E0 Q0.5
G1 X-1.884 F300
M67 E0 Q0
G1 X-2.259 F1200
M67 E0 Q0.5
G1 X-1.965 F300
M67 E0 Q0
G1 X-0.125
G1 X-0.051Y-0.07
G1 X0.125
M67 E0 Q0.5
G1 X1.513
M67 E0 Q0
G1 X3.202 F1200
M67 E0 Q0.5
G1 X1.494 F300
M67 E0 Q0
G1 X2.221 F1200
M67 E0 Q0.5
G1 X15 F300
M67 E0 Q0
G1 X0.125
G1 Y-0.07
G1 X-0.125
M67 E0 Q0.5
G1 X-15
M67 E0 Q0
G1 X-2.177 F1200
M67 E0 Q0.5
G1 X-1.303 F300
M67 E0 Q0
G1 X-3.685 F1200
M67 E0 Q0.5
G1 X-1.308 F300
M67 E0 Q0
G1 X-0.125
G1 X-0.042Y-0.07
G1 X0.125
M67 E0 Q0.5
G1 X1.144
M67 E0 Q0
G1 X4.093 F1200
M67 E0 Q0.5
G1 X1.144 F300
M67 E0 Q0
G1 X2.134 F1200
M67 E0 Q0.5
G1 X15 F300
M67 E0 Q0
G1 X0.125
G1 Y-0.07
G1 X-0.125
M67 E0 Q0.5
G1 X-15
M67 E0 Q0
G1 X-2.101 F1200
M67 E0 Q0.5
G1 X-1.037 F300
M67 E0 Q0
G1 X-4.373 F1200
M67 E0 Q0.5
G1 X-1.038 F300
M67 E0 Q0
G1 X-0.125
G1 X-0.03Y-0.07
G1 X0.125
M67 E0 Q0.5
G1 X0.957
M67 E0 Q0
G1 X4.594 F1200
M67 E0 Q0.5
G1 X0.958 F300
M67 E0 Q0
G1 X2.07 F1200
M67 E0 Q0.5
G1 X15 F300
M67 E0 Q0
G1 X0.125
G1 Y-0.07
G1 X-0.125
M67 E0 Q0.5
G1 X-15
M67 E0 Q0
G1 X-2.039 F1200
M67 E0 Q0.5
G1 X-0.902 F300
M67 E0 Q0
G1 X-4.764 F1200
M67 E0 Q0.5
G1 X-0.905 F300
M67 E0 Q0
G1 X-0.125
G1 X-0.021Y-0.07
G1 X0.125
M67 E0 Q0.5
G1 X0.857
M67 E0 Q0
G1 X4.9 F1200
M67 E0 Q0.5
G1 X0.856 F300
M67 E0 Q0
G1 X2.018 F1200
M67 E0 Q0.5
G1 X15 F300
M67 E0 Q0
G1 X0.125
G1 Y-0.07
G1 X-0.125
M67 E0 Q0.5
G1 X-15
M67 E0 Q0
G1 X-1.998 F1200
M67 E0 Q0.5
G1 X-0.817 F300
M67 E0 Q0
G1 X-5.019 F1200
M67 E0 Q0.5
G1 X-0.818 F300
M67 E0 Q0
G1 X-0.125
G1 X-0.02Y-0.07
G1 X0.125
M67 E0 Q0.5
G1 X0.795
M67 E0 Q0
G1 X5.106 F1200
M67 E0 Q0.5
G1 X0.794 F300
M67 E0 Q0
G1 X1.977 F1200
M67 E0 Q0.5
G1 X15 F300
M67 E0 Q0
G1 X0.125
G1 Y-0.07
G1 X-0.125
M67 E0 Q0.5
G1 X-15
M67 E0 Q0
G1 X-1.963 F1200
M67 E0 Q0.5
G1 X-0.771 F300
M67 E0 Q0
G1 X-5.181 F1200
M67 E0 Q0.5
G1 X-0.771 F300
M67 E0 Q0
G1 X-0.125
G1 X-0.011Y-0.07
G1 X0.125
M67 E0 Q0.5
G1 X0.755
M67 E0 Q0
G1 X5.236 F1200
M67 E0 Q0.5
G1 X0.754 F300
M67 E0 Q0
G1 X1.952 F1200
M67 E0 Q0.5
G1 X15 F300
M67 E0 Q0
G1 X0.125
G1 Y-0.07
G1 X-0.125
M67 E0 Q0.5
G1 X-15
M67 E0 Q0
G1 X-1.941 F1200
M67 E0 Q0.5
G1 X-0.743 F300
M67 E0 Q0
G1 X-5.281 F1200
M67 E0 Q0.5
G1 X-0.743 F300
M67 E0 Q0
G1 X-0.125
G1 X-0.01Y-0.07
G1 X0.125
M67 E0 Q0.5
G1 X0.738
M67 E0 Q0
G1 X5.311 F1200
M67 E0 Q0.5
G1 X0.738 F300
M67 E0 Q0
G1 X1.931 F1200
M67 E0 Q0.5
G1 X15 F300
M67 E0 Q0
G1 X0.125
G1 Y-0.07
G1 X-0.125
M67 E0 Q0.5
G1 X-15
M67 E0 Q0
G1 X-1.928 F1200
M67 E0 Q0.5
G1 X-0.727 F300
M67 E0 Q0
G1 X-5.339 F1200
M67 E0 Q0.5
G1 X-0.728 F300
M67 E0 Q0
G1 X-0.125
G1 Y-0.07
G1 X0.122
M67 E0 Q0.5
G1 X0.726
M67 E0 Q0
G1 X5.349 F1200
M67 E0 Q0.5
G1 X0.726 F300
M67 E0 Q0
G1 X1.924 F1200
M67 E0 Q0.5
G1 X15 F300
M67 E0 Q0
G1 X0.125
G1 Y-0.07
G1 X-0.125
M67 E0 Q0.5
G1 X-15
M67 E0 Q0
G1 X-1.921 F1200
M67 E0 Q0.5
G1 X-0.725 F300
M67 E0 Q0
G1 X-5.357 F1200
M67 E0 Q0.5
G1 X-0.726 F300
M67 E0 Q0
G1 X-0.125
G1 Y-0.07
G1 X0.125
M67 E0 Q0.5
G1 X0.726
M67 E0 Q0
G1 X5.357 F1200
M67 E0 Q0.5
G1 X0.726 F300
M67 E0 Q0
G1 X1.92 F1200
M67 E0 Q0.5
G1 X15 F300
M67 E0 Q0
G1 X0.125
G1 Y-0.07
G1 X-0.125
M67 E0 Q0.5
G1 X-15
M67 E0 Q0
G1 X-1.924 F1200
M67 E0 Q0.5
G1 X-0.726 F300
M67 E0 Q0
G1 X-5.349 F1200
M67 E0 Q0.5
G1 X-0.726 F300
M67 E0 Q0
G1 X-0.125
G1 Y-0.07
G1 X0.129
M67 E0 Q0.5
G1 X0.727
M67 E0 Q0
G1 X5.339 F1200
M67 E0 Q0.5
G1 X0.728 F300
M67 E0 Q0
G1 X1.927 F1200
M67 E0 Q0.5
G1 X15 F300
M67 E0 Q0
G1 X0.125
G1 Y-0.07
G1 X-0.125
M67 E0 Q0.5
G1 X-15
M67 E0 Q0
G1 X-1.931 F1200
M67 E0 Q0.5
G1 X-0.738 F300
M67 E0 Q0
G1 X-5.311 F1200
M67 E0 Q0.5
G1 X-0.738 F300
M67 E0 Q0
G1 X-0.125
G1 X0.01Y-0.07
G1 X0.125
M67 E0 Q0.5
G1 X0.742
M67 E0 Q0
G1 X5.282 F1200
M67 E0 Q0.5
G1 X0.743 F300
M67 E0 Q0
G1 X1.941 F1200
M67 E0 Q0.5
G1 X15 F300
M67 E0 Q0
G1 X0.125
G1 Y-0.07
G1 X-0.125
M67 E0 Q0.5
G1 X-15
M67 E0 Q0
G1 X-1.952 F1200
M67 E0 Q0.5
G1 X-0.755 F300
M67 E0 Q0
G1 X-5.235 F1200
M67 E0 Q0.5
G1 X-0.755 F300
M67 E0 Q0
G1 X-0.125
G1 X0.012Y-0.07
G1 X0.125
M67 E0 Q0.5
G1 X0.769
M67 E0 Q0
G1 X5.182 F1200
M67 E0 Q0.5
G1 X0.771 F300
M67 E0 Q0
G1 X1.963 F1200
M67 E0 Q0.5
G1 X15 F300
M67 E0 Q0
G1 X0.125
G1 Y-0.07
G1 X-0.125
M67 E0 Q0.5
G1 X-15
M67 E0 Q0
G1 X-1.978 F1200
M67 E0 Q0.5
G1 X-0.794 F300
M67 E0 Q0
G1 X-5.106 F1200
M67 E0 Q0.5
G1 X-0.793 F300
M67 E0 Q0
G1 X-0.125
G1 X0.02Y-0.07
G1 X0.125
M67 E0 Q0.5
G1 X0.816
M67 E0 Q0
G1 X5.021 F1200
M67 E0 Q0.5
G1 X0.816 F300
M67 E0 Q0
G1 X1.998 F1200
M67 E0 Q0.5
G1 X15 F300
M67 E0 Q0
G1 X0.125
G1 Y-0.07
G1 X-0.125
M67 E0 Q0.5
G1 X-15
M67 E0 Q0
G1 X-2.018 F1200
M67 E0 Q0.5
G1 X-0.856 F300
M67 E0 Q0
G1 X-4.9 F1200
M67 E0 Q0.5
G1 X-0.856 F300
M67 E0 Q0
G1 X-0.125
G1 X0.021Y-0.07
G1 X0.125
M67 E0 Q0.5
G1 X0.905
M67 E0 Q0
G1 X4.76 F1200
M67 E0 Q0.5
G1 X0.904 F300
M67 E0 Q0
G1 X2.04 F1200
M67 E0 Q0.5
G1 X15 F300
M67 E0 Q0
G1 X0.125
G1 Y-0.07
G1 X-0.125
M67 E0 Q0.5
G1 X-15
M67 E0 Q0
G1 X-2.07 F1200
M67 E0 Q0.5
G1 X-0.958 F300
M67 E0 Q0
G1 X-4.591 F1200
M67 E0 Q0.5
G1 X-0.958 F300
M67 E0 Q0
G1 X-0.125
G1 X0.031Y-0.07
G1 X0.125
M67 E0 Q0.5
G1 X1.04
M67 E0 Q0
G1 X4.365 F1200
M67 E0 Q0.5
G1 X1.04 F300
M67 E0 Q0
G1 X2.101 F1200
M67 E0 Q0.5
G1 X15 F300
M67 E0 Q0
G1 X0.125
G1 Y-0.07
G1 X-0.125
M67 E0 Q0.5
G1 X-15
M67 E0 Q0
G1 X-2.134 F1200
M67 E0 Q0.5
G1 X-1.151 F300
M67 E0 Q0
G1 X-4.077 F1200
M67 E0 Q0.5
G1 X-1.151 F300
M67 E0 Q0
G1 X-0.125
G1 X0.044Y-0.07
G1 X0.125
M67 E0 Q0.5
G1 X1.319
M67 E0 Q0
G1 X3.654 F1200
M67 E0 Q0.5
G1 X1.319 F300
M67 E0 Q0
G1 X2.177 F1200
M67 E0 Q0.5
G1 X15 F300
M67 E0 Q0
G1 X0.125
G1 Y-0.07
G1 X-0.125
M67 E0 Q0.5
G1 X-15
M67 E0 Q0
G1 X-2.22 F1200
M67 E0 Q0.5
G1 X-1.54 F300
M67 E0 Q0
G1 X-3.128 F1200
M67 E0 Q0.5
G1 X-1.537 F300
M67 E0 Q0
G1 X-0.125
G1 X0.05Y-0.07
G1 X0.125
M67 E0 Q0.5
G1 X1.984
M67 E0 Q0
G1 X2.129 F1200
M67 E0 Q0.5
G1 X1.991 F300
M67 E0 Q0
G1 X2.271 F1200
M67 E0 Q0.5
G1 X15 F300
M67 E0 Q0
G1 X0.125
G1 Y-0.07
G1 X-0.125
M67 E0 Q0.5
G1 X-15
M67 E0 Q0
G1 X-2.329 F1200
M67 E0 Q0.5
G1 X-5.986 F300
M67 E0 Q0
G1 X-0.125
G1 X0.059Y-0.07
G1 X0.125
M67 E0 Q0.5
G1 X5.868
M67 E0 Q0
G1 X2.388 F1200
M67 E0 Q0.5
G1 X15 F300
M67 E0 Q0
G1 X0.125
G1 Y-0.07
G1 X-0.125
M67 E0 Q0.5
G1 X-15
M67 E0 Q0
G1 X-2.464 F1200
M67 E0 Q0.5
G1 X-5.714 F300
M67 E0 Q0
G1 X-0.125
G1 X0.079Y-0.07
G1 X0.125
M67 E0 Q0.5
G1 X5.559
M67 E0 Q0
G1 X2.54 F1200
M67 E0 Q0.5
G1 X15 F300
M67 E0 Q0
G1 X0.125
G1 Y-0.07
G1 X-0.125
M67 E0 Q0.5
G1 X-15
M67 E0 Q0
G1 X-2.637 F1200
M67 E0 Q0.5
G1 X-5.365 F300
M67 E0 Q0
G1 X-0.125
G1 X0.103Y-0.07
G1 X0.125
M67 E0 Q0.5
G1 X5.163
M67 E0 Q0
G1 X2.736 F1200
M67 E0 Q0.5
G1 X15 F300
M67 E0 Q0
G1 X0.125
G1 Y-0.07
G1 X-0.125
M67 E0 Q0.5
G1 X-15
M67 E0 Q0
G1 X-2.862 F1200
M67 E0 Q0.5
G1 X-4.909 F300
M67 E0 Q0
G1 X-0.125
G1 X0.139Y-0.07
G1 X0.125
M67 E0 Q0.5
G1 X4.633
M67 E0 Q0
G1 X2.999 F1200
M67 E0 Q0.5
G1 X15 F300
M67 E0 Q0
G1 X0.125
G1 Y-0.07
G1 X-0.125
M67 E0 Q0.5
G1 X-15
M67 E0 Q0
G1 X-3.168 F1200
M67 E0 Q0.5
G1 X-4.292 F300
M67 E0 Q0
G1 X-0.125
G1 X0.207Y-0.07
G1 X0.125
M67 E0 Q0.5
G1 X3.878
M67 E0 Q0
G1 X3.375 F1200
M67 E0 Q0.5
G1 X15 F300
M67 E0 Q0
G1 X0.125
G1 Y-0.07
G1 X-0.125
M67 E0 Q0.5
G1 X-15
M67 E0 Q0
G1 X-3.634 F1200
M67 E0 Q0.5
G1 X-3.361 F300
M67 E0 Q0
G1 X-0.125
G1 X0.352Y-0.07
G1 X0.125
M67 E0 Q0.5
G1 X2.655
M67 E0 Q0
G1 X3.988 F1200
M67 E0 Q0.5
G1 X15 F300
M67 E0 Q0
G1 X0.125
G1 Y-0.07
G1 X-0.125
M67 E0 Q0.5
G1 X-15
M67 E0 Q0
G1 X-4.589 F1200
M67 E0 Q0.5
G1 X-1.464 F300
M67 E0 Q0
G1 X-0.125
G1 X6.053Y-0.07 F1200
G1 X0.125 F300
M67 E0 Q0.5
G1 X15
M67 E0 Q0
G1 X0.125
G1 Y-0.07
G1 X-0.125
M67 E0 Q0.5
G1 X-15
M67 E0 Q0
G1 X-0.125
G1 Y-0.07
G1 X0.125
M67 E0 Q0.5
G1 X15
M67 E0 Q0
G1 X0.125
G1 Y-0.07
G1 X-0.125
M67 E0 Q0.5
G1 X-15
M67 E0 Q0
G1 X-0.125
G1 Y-0.07
G1 X0.125
M67 E0 Q0.5
G1 X15
M67 E0 Q0
G1 X0.125
G1 Y-0.07
G1 X-0.125
M67 E0 Q0.5
G1 X-15
M67 E0 Q0
G1 X-0.125
G1 Y-0.07
G1 X0.125
M67 E0 Q0.5
G1 X15
M67 E0 Q0
G1 X0.125
G1 Y-0.07
G1 X-0.125
M67 E0 Q0.5
G1 X-15
M67 E0 Q0
G1 X-0.125
G1 Y-0.07
G1 X0.125
M67 E0 Q0.5
G1 X15
M67 E0 Q0
G1 X0.125
G1 Y-0.07
G1 X-0.125
M67 E0 Q0.5
G1 X-15
M67 E0 Q0
G1 X-0.125
G1 Y-0.07
G1 X0.125
M67 E0 Q0.5
G1 X15
M67 E0 Q0
G1 X0.125
G1 Y-0.07
G1 X-0.125
M67 E0 Q0.5
G1 X-15
M67 E0 Q0
G1 X-0.125
G1 X-8.598Y-0.07 F1200
G1 X0.125 F300
M67 E0 Q0.5
G1 X0.769
M67 E0 Q0
G1 X7.829 F1200
M67 E0 Q0.5
G1 X15 F300
M67 E0 Q0
G1 X0.125
G1 Y-0.07
G1 X-0.125
M67 E0 Q0.5
G1 X-15
M67 E0 Q0
G1 X-7.829 F1200
M67 E0 Q0.5
G1 X-0.769 F300
M67 E0 Q0
G1 X-0.125
G1 Y-0.07
G1 X0.125
M67 E0 Q0.5
G1 X0.769
M67 E0 Q0
G1 X7.829 F1200
M67 E0 Q0.5
G1 X15 F300
M67 E0 Q0
G1 X0.125
G1 Y-0.07
G1 X-0.125
M67 E0 Q0.5
G1 X-15
M67 E0 Q0
G1 X-7.829 F1200
M67 E0 Q0.5
G1 X-0.769 F300
M67 E0 Q0
G1 X-0.125
G1 Y-0.07
G1 X0.125
M67 E0 Q0.5
G1 X0.769
M67 E0 Q0
G1 X7.829 F1200
M67 E0 Q0.5
G1 X15 F300
M67 E0 Q0
G1 X0.125
G1 Y-0.07
G1 X-0.125
M67 E0 Q0.5
G1 X-15
M67 E0 Q0
G1 X-2.055 F1200
M67 E0 Q0.5
G1 X-0.018 F300
M67 E0 Q0
G1 X-5.756 F1200
M67 E0 Q0.5
G1 X-0.769 F300
M67 E0 Q0
G1 X-0.125
G1 Y-0.07
G1 X0.125
M67 E0 Q0.5
G1 X0.769
M67 E0 Q0
G1 X5.621 F1200
M67 E0 Q0.5
G1 X0.153 F300
M67 E0 Q0
G1 X2.055 F1200
M67 E0 Q0.5
G1 X15 F300
M67 E0 Q0
G1 X0.125
G1 Y-0.07
G1 X-0.125
M67 E0 Q0.5
G1 X-15
M67 E0 Q0
G1 X-2.055 F1200
M67 E0 Q0.5
G1 X-0.288 F300
M67 E0 Q0
G1 X-5.486 F1200
M67 E0 Q0.5
G1 X-0.769 F300
M67 E0 Q0
G1 X-0.125
G1 Y-0.07
G1 X0.125
M67 E0 Q0.5
G1 X0.769
M67 E0 Q0
G1 X5.351 F1200
M67 E0 Q0.5
G1 X0.423 F300
M67 E0 Q0
G1 X2.055 F1200
M67 E0 Q0.5
G1 X15 F300
M67 E0 Q0
G1 X0.125
G1 Y-0.07
G1 X-0.125
M67 E0 Q0.5
G1 X-15
M67 E0 Q0
G1 X-2.055 F1200
M67 E0 Q0.5
G1 X-0.558 F300
M67 E0 Q0
G1 X-5.216 F1200
M67 E0 Q0.5
G1 X-0.769 F300
M67 E0 Q0
G1 X-0.125
G1 Y-0.07
G1 X0.125
M67 E0 Q0.5
G1 X0.769
M67 E0 Q0
G1 X5.081 F1200
M67 E0 Q0.5
G1 X0.693 F300
M67 E0 Q0
G1 X2.055 F1200
M67 E0 Q0.5
G1 X15 F300
M67 E0 Q0
G1 X0.125
G1 Y-0.07
G1 X-0.125
M67 E0 Q0.5
G1 X-15
M67 E0 Q0
G1 X-2.055 F1200
M67 E0 Q0.5
G1 X-0.828 F300
M67 E0 Q0
G1 X-4.946 F1200
M67 E0 Q0.5
G1 X-0.769 F300
M67 E0 Q0
G1 X-0.125
G1 Y-0.07
G1 X0.125
M67 E0 Q0.5
G1 X0.769
M67 E0 Q0
G1 X4.812 F1200
M67 E0 Q0.5
G1 X0.962 F300
M67 E0 Q0
G1 X2.055 F1200
M67 E0 Q0.5
G1 X15 F300
M67 E0 Q0
G1 X0.125
G1 Y-0.07
G1 X-0.125
M67 E0 Q0.5
G1 X-15
M67 E0 Q0
G1 X-2.055 F1200
M67 E0 Q0.5
G1 X-1.097 F300
M67 E0 Q0
G1 X-4.677 F1200
M67 E0 Q0.5
G1 X-0.769 F300
M67 E0 Q0
G1 X-0.125
G1 Y-0.07
G1 X0.125
M67 E0 Q0.5
G1 X0.769
M67 E0 Q0
G1 X4.542 F1200
M67 E0 Q0.5
G1 X1.232 F300
M67 E0 Q0
G1 X2.055 F1200
M67 E0 Q0.5
G1 X15 F300
M67 E0 Q0
G1 X0.125
G1 Y-0.07
G1 X-0.125
M67 E0 Q0.5
G1 X-15
M67 E0 Q0
G1 X-2.055 F1200
M67 E0 Q0.5
G1 X-1.367 F300
M67 E0 Q0
G1 X-4.407 F1200
M67 E0 Q0.5
G1 X-0.769 F300
M67 E0 Q0
G1 X-0.125
G1 Y-0.07
G1 X0.125
M67 E0 Q0.5
G1 X0.769
M67 E0 Q0
G1 X4.272 F1200
M67 E0 Q0.5
G1 X1.502 F300
M67 E0 Q0
G1 X2.055 F1200
M67 E0 Q0.5
G1 X15 F300
M67 E0 Q0
G1 X0.125
G1 Y-0.07
G1 X-0.125
M67 E0 Q0.5
G1 X-15
M67 E0 Q0
G1 X-2.055 F1200
M67 E0 Q0.5
G1 X-1.637 F300
M67 E0 Q0
G1 X-4.137 F1200
M67 E0 Q0.5
G1 X-0.769 F300
M67 E0 Q0
G1 X-0.125
G1 Y-0.07
G1 X0.125
M67 E0 Q0.5
G1 X0.769
M67 E0 Q0
G1 X4.002 F1200
M67 E0 Q0.5
G1 X1.772 F300
M67 E0 Q0
G1 X2.055 F1200
M67 E0 Q0.5
G1 X15 F300
M67 E0 Q0
G1 X0.125
G1 Y-0.07
G1 X-0.125
M67 E0 Q0.5
G1 X-15
M67 E0 Q0
G1 X-2.16 F1200
M67 E0 Q0.5
G1 X-1.802 F300
M67 E0 Q0
G1 X-3.867 F1200
M67 E0 Q0.5
G1 X-0.769 F300
M67 E0 Q0
G1 X-0.125
G1 Y-0.07
G1 X0.125
M67 E0 Q0.5
G1 X0.769
M67 E0 Q0
G1 X3.733 F1200
M67 E0 Q0.5
G1 X1.798 F300
M67 E0 Q0
G1 X2.298 F1200
M67 E0 Q0.5
G1 X15 F300
M67 E0 Q0
G1 X0.125
G1 Y-0.07
G1 X-0.125
M67 E0 Q0.5
G1 X-15
M67 E0 Q0
G1 X-2.435 F1200
M67 E0 Q0.5
G1 X-1.796 F300
M67 E0 Q0
G1 X-3.598 F1200
M67 E0 Q0.5
G1 X-0.769 F300
M67 E0 Q0
G1 X-0.125
G1 Y-0.07
G1 X0.125
M67 E0 Q0.5
G1 X0.769
M67 E0 Q0
G1 X3.463 F1200
M67 E0 Q0.5
G1 X1.793 F300
M67 E0 Q0
G1 X2.573 F1200
M67 E0 Q0.5
G1 X15 F300
M67 E0 Q0
G1 X0.125
G1 Y-0.07
G1 X-0.125
M67 E0 Q0.5
G1 X-15
M67 E0 Q0
G1 X-2.711 F1200
M67 E0 Q0.5
G1 X-1.79 F300
M67 E0 Q0
G1 X-3.328 F1200
M67 E0 Q0.5
G1 X-0.769 F300
M67 E0 Q0
G1 X-0.125
G1 Y-0.07
G1 X0.125
M67 E0 Q0.5
G1 X0.769
M67 E0 Q0
G1 X3.193 F1200
M67 E0 Q0.5
G1 X1.788 F300
M67 E0 Q0
G1 X2.848 F1200
M67 E0 Q0.5
G1 X15 F300
M67 E0 Q0
G1 X0.125
G1 Y-0.07
G1 X-0.125
M67 E0 Q0.5
G1 X-15
M67 E0 Q0
G1 X-2.986 F1200
M67 E0 Q0.5
G1 X-1.785 F300
M67 E0 Q0
G1 X-3.058 F1200
M67 E0 Q0.5
G1 X-0.769 F300
M67 E0 Q0
G1 X-0.125
G1 Y-0.07
G1 X0.125
M67 E0 Q0.5
G1 X0.769
M67 E0 Q0
G1 X2.923 F1200
M67 E0 Q0.5
G1 X1.783 F300
M67 E0 Q0
G1 X3.123 F1200
M67 E0 Q0.5
G1 X15 F300
M67 E0 Q0
G1 X0.125
G1 Y-0.07
G1 X-0.125
M67 E0 Q0.5
G1 X-15
M67 E0 Q0
G1 X-3.261 F1200
M67 E0 Q0.5
G1 X-1.779 F300
M67 E0 Q0
G1 X-2.789 F1200
M67 E0 Q0.5
G1 X-0.769 F300
M67 E0 Q0
G1 X-0.125
G1 Y-0.07
G1 X0.125
M67 E0 Q0.5
G1 X0.769
M67 E0 Q0
G1 X2.654 F1200
M67 E0 Q0.5
G1 X1.776 F300
M67 E0 Q0
G1 X3.399 F1200
M67 E0 Q0.5
G1 X15 F300
M67 E0 Q0
G1 X0.125
G1 Y-0.07
G1 X-0.125
M67 E0 Q0.5
G1 X-15
M67 E0 Q0
G1 X-3.536 F1200
M67 E0 Q0.5
G1 X-1.774 F300
M67 E0 Q0
G1 X-2.519 F1200
M67 E0 Q0.5
G1 X-0.769 F300
M67 E0 Q0
G1 X-0.125
G1 Y-0.07
G1 X0.125
M67 E0 Q0.5
G1 X0.769
M67 E0 Q0
G1 X2.384 F1200
M67 E0 Q0.5
G1 X1.771 F300
M67 E0 Q0
G1 X3.674 F1200
M67 E0 Q0.5
G1 X15 F300
M67 E0 Q0
G1 X0.125
G1 Y-0.07
G1 X-0.125
M67 E0 Q0.5
G1 X-15
M67 E0 Q0
G1 X-3.811 F1200
M67 E0 Q0.5
G1 X-1.769 F300
M67 E0 Q0
G1 X-2.249 F1200
M67 E0 Q0.5
G1 X-0.769 F300
M67 E0 Q0
G1 X-0.125
G1 Y-0.07
G1 X0.125
M67 E0 Q0.5
G1 X0.769
M67 E0 Q0
G1 X2.114 F1200
M67 E0 Q0.5
G1 X1.766 F300
M67 E0 Q0
G1 X3.949 F1200
M67 E0 Q0.5
G1 X15 F300
M67 E0 Q0
G1 X0.125
G1 Y-0.07
G1 X-0.125
M67 E0 Q0.5
G1 X-15
M67 E0 Q0
G1 X-4.087 F1200
M67 E0 Q0.5
G1 X-1.763 F300
M67 E0 Q0
G1 X-1.979 F1200
M67 E0 Q0.5
G1 X-0.769 F300
M67 E0 Q0
G1 X-0.125
G1 Y-0.07
G1 X0.125
M67 E0 Q0.5
G1 X0.769
M67 E0 Q0
G1 X1.844 F1200
M67 E0 Q0.5
G1 X1.761 F300
M67 E0 Q0
G1 X4.224 F1200
M67 E0 Q0.5
G1 X15 F300
M67 E0 Q0
G1 X0.125
G1 Y-0.07
G1 X-0.125
M67 E0 Q0.5
G1 X-15
M67 E0 Q0
G1 X-4.362 F1200
M67 E0 Q0.5
G1 X-1.757 F300
M67 E0 Q0
G1 X-1.71 F1200
M67 E0 Q0.5
G1 X-0.769 F300
M67 E0 Q0
G1 X-0.125
G1 Y-0.07
G1 X0.125
M67 E0 Q0.5
G1 X0.769
M67 E0 Q0
G1 X1.575 F1200
M67 E0 Q0.5
G1 X1.754 F300
M67 E0 Q0
G1 X4.5 F1200
M67 E0 Q0.5
G1 X15 F300
M67 E0 Q0
G1 X0.125
G1 Y-0.07
G1 X-0.125
M67 E0 Q0.5
G1 X-15
M67 E0 Q0
G1 X-4.637 F1200
M67 E0 Q0.5
G1 X-1.752 F300
M67 E0 Q0
G1 X-1.44 F1200
M67 E0 Q0.5
G1 X-0.769 F300
M67 E0 Q0
G1 X-0.125
G1 Y-0.07
G1 X0.125
M67 E0 Q0.5
G1 X0.769
M67 E0 Q0
G1 X1.305 F1200
M67 E0 Q0.5
G1 X1.749 F300
M67 E0 Q0
G1 X4.775 F1200
M67 E0 Q0.5
G1 X15 F300
M67 E0 Q0
G1 X0.125
G1 Y-0.07
G1 X-0.125
M67 E0 Q0.5
G1 X-15
M67 E0 Q0
G1 X-4.912 F1200
M67 E0 Q0.5
G1 X-1.747 F300
M67 E0 Q0
G1 X-1.17 F1200
M67 E0 Q0.5
G1 X-0.769 F300
M67 E0 Q0
G1 X-0.125
G1 Y-0.07
G1 X0.125
M67 E0 Q0.5
G1 X0.769
M67 E0 Q0
G1 X1.035 F1200
M67 E0 Q0.5
G1 X1.744 F300
M67 E0 Q0
G1 X5.05 F1200
M67 E0 Q0.5
G1 X15 F300
M67 E0 Q0
G1 X0.125
G1 X-20.188Y-0.07 F1200
G1 X-0.125 F300
M67 E0 Q0.5
G1 X-1.741
M67 E0 Q0
G1 X-0.9
M67 E0 Q0.5
G1 X-0.769
M67 E0 Q0
G1 X-0.125
G1 Y-0.07
G1 X0.125
M67 E0 Q0.5
G1 X0.769
M67 E0 Q0
G1 X0.766
M67 E0 Q0.5
G1 X1.738
M67 E0 Q0
G1 X0.125
G1 X-0.138Y-0.07
G1 X-0.125
M67 E0 Q0.5
G1 X-1.735
M67 E0 Q0
G1 X-0.631
M67 E0 Q0.5
G1 X-0.769
M67 E0 Q0
G1 X-0.125
G1 Y-0.07
G1 X0.125
M67 E0 Q0.5
G1 X0.769
M67 E0 Q0
G1 X0.496
M67 E0 Q0.5
G1 X1.733
M67 E0 Q0
G1 X0.125
G1 X-0.138Y-0.07
G1 X-0.125
M67 E0 Q0.5
G1 X-1.73
M67 E0 Q0
G1 X-0.361
M67 E0 Q0.5
G1 X-0.769
M67 E0 Q0
G1 X-0.125
G1 Y-0.07
G1 X0.125
M67 E0 Q0.5
G1 X0.769
M67 E0 Q0
G1 X0.226
M67 E0 Q0.5
G1 X1.727
M67 E0 Q0
G1 X0.125
G1 X-0.137Y-0.07
G1 X-0.125
M67 E0 Q0.5
G1 X-1.725
M67 E0 Q0
G1 X-0.091
M67 E0 Q0.5
G1 X-0.769
M67 E0 Q0
G1 X-0.125
G1 Y-0.07
G1 X0.125
M67 E0 Q0.5
G1 X2.447
M67 E0 Q0
G1 X0.125
G1 X-0.137Y-0.07
G1 X-0.125
M67 E0 Q0.5
G1 X-2.31
M67 E0 Q0
G1 X-0.125
G1 Y-0.07
G1 X0.125
M67 E0 Q0.5
G1 X2.172
M67 E0 Q0
G1 X0.125
G1 X-0.138Y-0.07
G1 X-0.125
M67 E0 Q0.5
G1 X-2.034
M67 E0 Q0
G1 X-0.125
G1 Y-0.07
G1 X0.125
M67 E0 Q0.5
G1 X1.897
M67 E0 Q0
G1 X0.125
G1 X-0.138Y-0.07
G1 X-0.125
M67 E0 Q0.5
G1 X-1.759
M67 E0 Q0
G1 X-0.125
G1 Y-0.07
G1 X0.125
M67 E0 Q0.5
G1 X1.622
M67 E0 Q0
G1 X0.125
G1 X-0.138Y-0.07
G1 X-0.125
M67 E0 Q0.5
G1 X-1.484
M67 E0 Q0
G1 X-0.125
G1 Y-0.07
G1 X0.125
M67 E0 Q0.5
G1 X1.346
M67 E0 Q0
G1 X0.125
G1 X-0.137Y-0.07
G1 X-0.125
M67 E0 Q0.5
G1 X-1.209
M67 E0 Q0
G1 X-0.125
G1 Y-0.07
G1 X0.125
M67 E0 Q0.5
G1 X1.071
M67 E0 Q0
G1 X0.125
G90
; Scan @ 300 mm/min, 50% power
M8
M67 E0 Q0
G0 X296.755 Y317.04 F1200
; Layer 
G91
G1 X-0.125 F300
M67 E0 Q0.5
G1 X-0.91
M67 E0 Q0
G1 X-0.125
G1 X-0.836Y-0.079
G1 X0.125
M67 E0 Q0.5
G1 X2.571
M67 E0 Q0
G1 X0.125
G1 X0.405Y-0.078
G1 X-0.125
M67 E0 Q0.5
G1 X-3.384
M67 E0 Q0
G1 X-0.125
G1 X-0.286Y-0.079
G1 X0.125
M67 E0 Q0.5
G1 X3.956
M67 E0 Q0
G1 X0.125
G1 X0.222Y-0.079
G1 X-0.125
M67 E0 Q0.5
G1 X-4.399
M67 E0 Q0
G1 X-0.125
G1 X-0.183Y-0.079
G1 X0.125
M67 E0 Q0.5
G1 X4.765
M67 E0 Q0
G1 X0.125
G1 X0.149Y-0.079
G1 X-0.125
M67 E0 Q0.5
G1 X-5.058
M67 E0 Q0
G1 X-0.125
G1 X-0.123Y-0.079
G1 X0.125
M67 E0 Q0.5
G1 X5.305
M67 E0 Q0
G1 X2.676 F1200
M67 E0 Q0.5
G1 X15 F300
M67 E0 Q0
G1 X0.125
G1 Y-0.079
G1 X-0.125
M67 E0 Q0.5
G1 X-15
M67 E0 Q0
G1 X-2.561 F1200
M67 E0 Q0.5
G1 X-5.531 F300
M67 E0 Q0
G1 X-0.125
G1 X-0.088Y-0.079
G1 X0.125
M67 E0 Q0.5
G1 X5.707
M67 E0 Q0
G1 X2.473 F1200
M67 E0 Q0.5
G1 X15 F300
M67 E0 Q0
G1 X0.125
G1 Y-0.079
G1 X-0.125
M67 E0 Q0.5
G1 X-15
M67 E0 Q0
G1 X-2.387 F1200
M67 E0 Q0.5
G1 X-5.878 F300
M67 E0 Q0
G1 X-0.125
G1 X-0.066Y-0.078
G1 X0.125
M67 E0 Q0.5
G1 X6.011
M67 E0 Q0
G1 X2.32 F1200
M67 E0 Q0.5
G1 X15 F300
M67 E0 Q0
G1 X0.125
G1 Y-0.079
G1 X-0.125
M67 E0 Q0.5
G1 X-15
M67 E0 Q0
G1 X-2.254 F1200
M67 E0 Q0.5
G1 X-1.769 F300
M67 E0 Q0
G1 X-2.557 F1200
M67 E0 Q0.5
G1 X-1.816 F300
M67 E0 Q0
G1 X-0.125
G1 X-0.052Y-0.079
G1 X0.125
M67 E0 Q0.5
G1 X1.423
M67 E0 Q0
G1 X3.407 F1200
M67 E0 Q0.5
G1 X1.415 F300
M67 E0 Q0
G1 X2.203 F1200
M67 E0 Q0.5
G1 X15 F300
M67 E0 Q0
G1 X0.125
G1 Y-0.079
G1 X-0.125
M67 E0 Q0.5
G1 X-15
M67 E0 Q0
G1 X-2.154 F1200
M67 E0 Q0.5
G1 X-1.199 F300
M67 E0 Q0
G1 X-3.941 F1200
M67 E0 Q0.5
G1 X-1.202 F300
M67 E0 Q0
G1 X-0.125
G1 X-0.043Y-0.079
G1 X0.125
M67 E0 Q0.5
G1 X1.066
M67 E0 Q0
G1 X4.296 F1200
M67 E0 Q0.5
G1 X1.065 F300
M67 E0 Q0
G1 X2.112 F1200
M67 E0 Q0.5
G1 X15 F300
M67 E0 Q0
G1 X0.125
G1 Y-0.079
G1 X-0.125
M67 E0 Q0.5
G1 X-15
M67 E0 Q0
G1 X-2.077 F1200
M67 E0 Q0.5
G1 X-0.969 F300
M67 E0 Q0
G1 X-4.555 F1200
M67 E0 Q0.5
G1 X-0.972 F300
M67 E0 Q0
G1 X-0.125
G1 X-0.034Y-0.079
G1 X0.125
M67 E0 Q0.5
G1 X0.908
M67 E0 Q0
G1 X4.751 F1200
M67 E0 Q0.5
G1 X0.906 F300
M67 E0 Q0
G1 X2.042 F1200
M67 E0 Q0.5
G1 X15 F300
M67 E0 Q0
G1 X0.125
G1 Y-0.079
G1 X-0.125
M67 E0 Q0.5
G1 X-15
M67 E0 Q0
G1 X-2.017 F1200
M67 E0 Q0.5
G1 X-0.854 F300
M67 E0 Q0
G1 X-4.906 F1200
M67 E0 Q0.5
G1 X-0.855 F300
M67 E0 Q0
G1 X-0.125
G1 X-0.023Y-0.079
G1 X0.125
M67 E0 Q0.5
G1 X0.813
M67 E0 Q0
G1 X5.035 F1200
M67 E0 Q0.5
G1 X0.813 F300
M67 E0 Q0
G1 X1.994 F1200
M67 E0 Q0.5
G1 X15 F300
M67 E0 Q0
G1 X0.125
G1 Y-0.078
G1 X-0.125
M67 E0 Q0.5
G1 X-15
M67 E0 Q0
G1 X-1.971 F1200
M67 E0 Q0.5
G1 X-0.786 F300
M67 E0 Q0
G1 X-5.133 F1200
M67 E0 Q0.5
G1 X-0.788 F300
M67 E0 Q0
G1 X-0.125
G1 X-0.013Y-0.079
G1 X0.125
M67 E0 Q0.5
G1 X0.765
M67 E0 Q0
G1 X5.204 F1200
M67 E0 Q0.5
G1 X0.764 F300
M67 E0 Q0
G1 X1.958 F1200
M67 E0 Q0.5
G1 X15 F300
M67 E0 Q0
G1 X0.125
G1 Y-0.079
G1 X-0.125
M67 E0 Q0.5
G1 X-15
M67 E0 Q0
G1 X-1.946 F1200
M67 E0 Q0.5
G1 X-0.745 F300
M67 E0 Q0
G1 X-5.265 F1200
M67 E0 Q0.5
G1 X-0.747 F300
M67 E0 Q0
G1 X-0.125
G1 X-0.013Y-0.079
G1 X0.125
M67 E0 Q0.5
G1 X0.741
M67 E0 Q0
G1 X5.301 F1200
M67 E0 Q0.5
G1 X0.741 F300
M67 E0 Q0
G1 X1.933 F1200
M67 E0 Q0.5
G1 X15 F300
M67 E0 Q0
G1 X0.125
G1 Y-0.079
G1 X-0.125
M67 E0 Q0.5
G1 X-15
M67 E0 Q0
G1 X-1.928 F1200
M67 E0 Q0.5
G1 X-0.729 F300
M67 E0 Q0
G1 X-5.334 F1200
M67 E0 Q0.5
G1 X-0.73 F300
M67 E0 Q0
G1 X-0.125
G1 Y-0.079
G1 X0.121
M67 E0 Q0.5
G1 X0.727
M67 E0 Q0
G1 X5.347 F1200
M67 E0 Q0.5
G1 X0.727 F300
M67 E0 Q0
G1 X1.924 F1200
M67 E0 Q0.5
G1 X15 F300
M67 E0 Q0
G1 X0.125
G1 Y-0.079
G1 X-0.125
M67 E0 Q0.5
G1 X-15
M67 E0 Q0
G1 X-1.92 F1200
M67 E0 Q0.5
G1 X-0.726 F300
M67 E0 Q0
G1 X-5.357 F1200
M67 E0 Q0.5
G1 X-0.726 F300
M67 E0 Q0
G1 X-0.125
G1 Y-0.079
G1 X0.126
M67 E0 Q0.5
G1 X0.726
M67 E0 Q0
G1 X5.355 F1200
M67 E0 Q0.5
G1 X0.726 F300
M67 E0 Q0
G1 X1.921 F1200
M67 E0 Q0.5
G1 X15 F300
M67 E0 Q0
G1 X0.125
G1 Y-0.079
G1 X-0.125
M67 E0 Q0.5
G1 X-15
M67 E0 Q0
G1 X-1.925 F1200
M67 E0 Q0.5
G1 X-0.727 F300
M67 E0 Q0
G1 X-5.345 F1200
M67 E0 Q0.5
G1 X-0.727 F300
M67 E0 Q0
G1 X-0.125
G1 Y-0.078
G1 X0.129
M67 E0 Q0.5
G1 X0.732
M67 E0 Q0
G1 X5.327 F1200
M67 E0 Q0.5
G1 X0.732 F300
M67 E0 Q0
G1 X1.929 F1200
M67 E0 Q0.5
G1 X15 F300
M67 E0 Q0
G1 X0.125
G1 Y-0.079
G1 X-0.125
M67 E0 Q0.5
G1 X-15
M67 E0 Q0
G1 X-1.936 F1200
M67 E0 Q0.5
G1 X-0.741 F300
M67 E0 Q0
G1 X-5.295 F1200
M67 E0 Q0.5
G1 X-0.741 F300
M67 E0 Q0
G1 X-0.125
G1 X0.013Y-0.079
G1 X0.125
M67 E0 Q0.5
G1 X0.749
M67 E0 Q0
G1 X5.252 F1200
M67 E0 Q0.5
G1 X0.75 F300
M67 E0 Q0
G1 X1.949 F1200
M67 E0 Q0.5
G1 X15 F300
M67 E0 Q0
G1 X0.125
G1 Y-0.079
G1 X-0.125
M67 E0 Q0.5
G1 X-15
M67 E0 Q0
G1 X-1.961 F1200
M67 E0 Q0.5
G1 X-0.768 F300
M67 E0 Q0
G1 X-5.191 F1200
M67 E0 Q0.5
G1 X-0.767 F300
M67 E0 Q0
G1 X-0.125
G1 X0.015Y-0.079
G1 X0.125
M67 E0 Q0.5
G1 X0.792
M67 E0 Q0
G1 X5.11 F1200
M67 E0 Q0.5
G1 X0.793 F300
M67 E0 Q0
G1 X1.977 F1200
M67 E0 Q0.5
G1 X15 F300
M67 E0 Q0
G1 X0.125
G1 Y-0.079
G1 X-0.125
M67 E0 Q0.5
G1 X-15
M67 E0 Q0
G1 X-1.999 F1200
M67 E0 Q0.5
G1 X-0.819 F300
M67 E0 Q0
G1 X-5.013 F1200
M67 E0 Q0.5
G1 X-0.818 F300
M67 E0 Q0
G1 X-0.125
G1 X0.023Y-0.079
G1 X0.125
M67 E0 Q0.5
G1 X0.865
M67 E0 Q0
G1 X4.874 F1200
M67 E0 Q0.5
G1 X0.865 F300
M67 E0 Q0
G1 X2.022 F1200
M67 E0 Q0.5
G1 X15 F300
M67 E0 Q0
G1 X0.125
G1 Y-0.079
G1 X-0.125
M67 E0 Q0.5
G1 X-15
M67 E0 Q0
G1 X-2.05 F1200
M67 E0 Q0.5
G1 X-0.922 F300
M67 E0 Q0
G1 X-4.704 F1200
M67 E0 Q0.5
G1 X-0.922 F300
M67 E0 Q0
G1 X-0.125
G1 X0.035Y-0.079
G1 X0.125
M67 E0 Q0.5
G1 X0.996
M67 E0 Q0
G1 X4.488 F1200
M67 E0 Q0.5
G1 X0.994 F300
M67 E0 Q0
G1 X2.085 F1200
M67 E0 Q0.5
G1 X15 F300
M67 E0 Q0
G1 X0.125
G1 Y-0.078
G1 X-0.125
M67 E0 Q0.5
G1 X-15
M67 E0 Q0
G1 X-2.119 F1200
M67 E0 Q0.5
G1 X-1.102 F300
M67 E0 Q0
G1 X-4.204 F1200
M67 E0 Q0.5
G1 X-1.103 F300
M67 E0 Q0
G1 X-0.125
G1 X0.046Y-0.079
G1 X0.125
M67 E0 Q0.5
G1 X1.265
M67 E0 Q0
G1 X3.788 F1200
M67 E0 Q0.5
G1 X1.264 F300
M67 E0 Q0
G1 X2.165 F1200
M67 E0 Q0.5
G1 X15 F300
M67 E0 Q0
G1 X0.125
G1 Y-0.079
G1 X-0.125
M67 E0 Q0.5
G1 X-15
M67 E0 Q0
G1 X-2.214 F1200
M67 E0 Q0.5
G1 X-1.482 F300
M67 E0 Q0
G1 X-3.259 F1200
M67 E0 Q0.5
G1 X-1.477 F300
M67 E0 Q0
G1 X-0.125
G1 X0.055Y-0.079
G1 X0.125
M67 E0 Q0.5
G1 X1.956
M67 E0 Q0
G1 X2.189 F1200
M67 E0 Q0.5
G1 X1.963 F300
M67 E0 Q0
G1 X2.269 F1200
M67 E0 Q0.5
G1 X15 F300
M67 E0 Q0
G1 X0.125
G1 Y-0.079
G1 X-0.125
M67 E0 Q0.5
G1 X-15
M67 E0 Q0
G1 X-2.335 F1200
M67 E0 Q0.5
G1 X-5.975 F300
M67 E0 Q0
G1 X-0.125
G1 X0.071Y-0.079
G1 X0.125
M67 E0 Q0.5
G1 X5.834
M67 E0 Q0
G1 X2.405 F1200
M67 E0 Q0.5
G1 X15 F300
M67 E0 Q0
G1 X0.125
G1 Y-0.079
G1 X-0.125
M67 E0 Q0.5
G1 X-15
M67 E0 Q0
G1 X-2.491 F1200
M67 E0 Q0.5
G1 X-5.659 F300
M67 E0 Q0
G1 X-0.125
G1 X0.094Y-0.079
G1 X0.125
M67 E0 Q0.5
G1 X5.471
M67 E0 Q0
G1 X2.585 F1200
M67 E0 Q0.5
G1 X15 F300
M67 E0 Q0
G1 X0.125
G1 Y-0.079
G1 X-0.125
M67 E0 Q0.5
G1 X-15
M67 E0 Q0
G1 X-2.696 F1200
M67 E0 Q0.5
G1 X-5.244 F300
M67 E0 Q0
G1 X-0.125
G1 X0.133Y-0.078
G1 X0.125
M67 E0 Q0.5
G1 X4.98
M67 E0 Q0
G1 X2.827 F1200
M67 E0 Q0.5
G1 X15 F300
M67 E0 Q0
G1 X0.125
G1 Y-0.079
G1 X-0.125
M67 E0 Q0.5
G1 X-15
M67 E0 Q0
G1 X-2.975 F1200
M67 E0 Q0.5
G1 X-4.682 F300
M67 E0 Q0
G1 X-0.125
G1 X0.194Y-0.079
G1 X0.125
M67 E0 Q0.5
G1 X4.298
M67 E0 Q0
G1 X3.165 F1200
M67 E0 Q0.5
G1 X15 F300
M67 E0 Q0
G1 X0.125
G1 Y-0.079
G1 X-0.125
M67 E0 Q0.5
G1 X-15
M67 E0 Q0
G1 X-3.4 F1200
M67 E0 Q0.5
G1 X-3.828 F300
M67 E0 Q0
G1 X-0.125
G1 X0.305Y-0.079
G1 X0.125
M67 E0 Q0.5
G1 X3.218
M67 E0 Q0
G1 X3.705 F1200
M67 E0 Q0.5
G1 X15 F300
M67 E0 Q0
G1 X0.125
G1 Y-0.079
G1 X-0.125
M67 E0 Q0.5
G1 X-15
M67 E0 Q0
G1 X-4.144 F1200
M67 E0 Q0.5
G1 X-2.345 F300
M67 E0 Q0
G1 X-0.125
G1 X6.489Y-0.079 F1200
G1 X0.125 F300
M67 E0 Q0.5
G1 X15
M67 E0 Q0
G1 X0.125
G1 Y-0.079
G1 X-0.125
M67 E0 Q0.5
G1 X-15
M67 E0 Q0
G1 X-0.125
G1 Y-0.079
G1 X0.125
M67 E0 Q0.5
G1 X15
M67 E0 Q0
G1 X0.125
G1 Y-0.078
G1 X-0.125
M67 E0 Q0.5
G1 X-15
M67 E0 Q0
G1 X-0.125
G1 Y-0.079
G1 X0.125
M67 E0 Q0.5
G1 X15
M67 E0 Q0
G1 X0.125
G1 Y-0.079
G1 X-0.125
M67 E0 Q0.5
G1 X-15
M67 E0 Q0
G1 X-0.125
G1 Y-0.079
G1 X0.125
M67 E0 Q0.5
G1 X15
M67 E0 Q0
G1 X0.125
G1 Y-0.079
G1 X-0.125
M67 E0 Q0.5
G1 X-15
M67 E0 Q0
G1 X-0.125
G1 Y-0.079
G1 X0.125
M67 E0 Q0.5
G1 X15
M67 E0 Q0
G1 X0.125
G1 Y-0.079
G1 X-0.125
M67 E0 Q0.5
G1 X-15
M67 E0 Q0
G1 X-0.125
G1 Y-0.079
G1 X0.125
M67 E0 Q0.5
G1 X15
M67 E0 Q0
G1 X0.125
G1 Y-0.079
G1 X-0.125
M67 E0 Q0.5
G1 X-15
M67 E0 Q0
G1 X-0.125
G1 Y-0.078
G1 X0.125
M67 E0 Q0.5
G1 X15
M67 E0 Q0
G1 X0.125
G1 Y-0.079
G1 X-0.125
M67 E0 Q0.5
G1 X-15
M67 E0 Q0
G1 X-0.125
G1 Y-0.079
G1 X0.125
M67 E0 Q0.5
G1 X15
M67 E0 Q0
G1 X0.125
G1 Y-0.079
G1 X-0.125
M67 E0 Q0.5
G1 X-15
M67 E0 Q0
G1 X-0.125
G1 X-3.307Y-0.079 F1200
G1 X0.125 F300
M67 E0 Q0.5
G1 X1.252
M67 E0 Q0
G1 X2.055 F1200
M67 E0 Q0.5
G1 X15 F300
M67 E0 Q0
G1 X0.125
G1 Y-0.079
G1 X-0.125
M67 E0 Q0.5
G1 X-15
M67 E0 Q0
G1 X-2.055 F1200
M67 E0 Q0.5
G1 X-1.252 F300
M67 E0 Q0
G1 X-0.125
G1 Y-0.079
G1 X0.125
M67 E0 Q0.5
G1 X1.252
M67 E0 Q0
G1 X2.055 F1200
M67 E0 Q0.5
G1 X15 F300
M67 E0 Q0
G1 X0.125
G1 Y-0.079
G1 X-0.125
M67 E0 Q0.5
G1 X-15
M67 E0 Q0
G1 X-2.055 F1200
M67 E0 Q0.5
G1 X-1.252 F300
M67 E0 Q0
G1 X-0.125
G1 Y-0.079
G1 X0.125
M67 E0 Q0.5
G1 X1.252
M67 E0 Q0
G1 X2.055 F1200
M67 E0 Q0.5
G1 X15 F300
M67 E0 Q0
G1 X0.125
G1 Y-0.078
G1 X-0.125
M67 E0 Q0.5
G1 X-15
M67 E0 Q0
G1 X-2.055 F1200
M67 E0 Q0.5
G1 X-1.252 F300
M67 E0 Q0
G1 X-0.125
G1 Y-0.079
G1 X0.125
M67 E0 Q0.5
G1 X1.252
M67 E0 Q0
G1 X2.055 F1200
M67 E0 Q0.5
G1 X15 F300
M67 E0 Q0
G1 X0.125
G1 Y-0.079
G1 X-0.125
M67 E0 Q0.5
G1 X-15
M67 E0 Q0
G1 X-2.055 F1200
M67 E0 Q0.5
G1 X-1.252 F300
M67 E0 Q0
G1 X-0.125
G1 Y-0.079
G1 X0.125
M67 E0 Q0.5
G1 X1.252
M67 E0 Q0
G1 X2.055 F1200
M67 E0 Q0.5
G1 X15 F300
M67 E0 Q0
G1 X0.125
G1 Y-0.079
G1 X-0.125
M67 E0 Q0.5
G1 X-15
M67 E0 Q0
G1 X-2.055 F1200
M67 E0 Q0.5
G1 X-1.252 F300
M67 E0 Q0
G1 X-0.125
G1 Y-0.079
G1 X0.125
M67 E0 Q0.5
G1 X1.252
M67 E0 Q0
G1 X2.055 F1200
M67 E0 Q0.5
G1 X15 F300
M67 E0 Q0
G1 X0.125
G1 Y-0.079
G1 X-0.125
M67 E0 Q0.5
G1 X-15
M67 E0 Q0
G1 X-2.055 F1200
M67 E0 Q0.5
G1 X-1.252 F300
M67 E0 Q0
G1 X-0.125
G1 Y-0.079
G1 X0.125
M67 E0 Q0.5
G1 X1.252
M67 E0 Q0
G1 X2.055 F1200
M67 E0 Q0.5
G1 X15 F300
M67 E0 Q0
G1 X0.125
G1 Y-0.079
G1 X-0.125
M67 E0 Q0.5
G1 X-15
M67 E0 Q0
G1 X-0.125
G1 Y-0.078
G1 X0.125
M67 E0 Q0.5
G1 X15
M67 E0 Q0
G1 X0.125
G1 Y-0.079
G1 X-0.125
M67 E0 Q0.5
G1 X-15
M67 E0 Q0
G1 X-0.125
G1 Y-0.079
G1 X0.125
M67 E0 Q0.5
G1 X15
M67 E0 Q0
G1 X0.125
G1 Y-0.079
G1 X-0.125
M67 E0 Q0.5
G1 X-15
M67 E0 Q0
G1 X-0.125
G1 Y-0.079
G1 X0.125
M67 E0 Q0.5
G1 X15
M67 E0 Q0
G1 X0.125
G1 Y-0.079
G1 X-0.125
M67 E0 Q0.5
G1 X-15
M67 E0 Q0
G1 X-0.125
G1 Y-0.079
G1 X0.125
M67 E0 Q0.5
G1 X15
M67 E0 Q0
G1 X0.125
G1 Y-0.079
G1 X-0.125
M67 E0 Q0.5
G1 X-15
M67 E0 Q0
G1 X-0.125
G1 Y-0.079
G1 X0.125
M67 E0 Q0.5
G1 X15
M67 E0 Q0
G1 X0.125
G1 Y-0.078
G1 X-0.125
M67 E0 Q0.5
G1 X-15
M67 E0 Q0
G1 X-0.125
G1 Y-0.079
G1 X0.125
M67 E0 Q0.5
G1 X15
M67 E0 Q0
G1 X0.125
G1 Y-0.079
G1 X-0.125
M67 E0 Q0.5
G1 X-15
M67 E0 Q0
G1 X-0.125
G1 Y-0.079
G1 X0.125
M67 E0 Q0.5
G1 X15
M67 E0 Q0
G1 X0.125
G1 Y-0.079
G1 X-0.125
M67 E0 Q0.5
G1 X-15
M67 E0 Q0
G1 X-0.125
G1 X-5.817Y-0.079 F1200
G1 X0.125 F300
M67 E0 Q0.5
G1 X0.983
M67 E0 Q0
G1 X4.834 F1200
M67 E0 Q0.5
G1 X15 F300
M67 E0 Q0
G1 X0.125
G1 Y-0.079
G1 X-0.125
M67 E0 Q0.5
G1 X-15
M67 E0 Q0
G1 X-4.032 F1200
M67 E0 Q0.5
G1 X-2.598 F300
M67 E0 Q0
G1 X-0.125
G1 X-0.403Y-0.079
G1 X0.125
M67 E0 Q0.5
G1 X3.403
M67 E0 Q0
G1 X3.63 F1200
M67 E0 Q0.5
G1 X15 F300
M67 E0 Q0
G1 X0.125
G1 Y-0.079
G1 X-0.125
M67 E0 Q0.5
G1 X-15
M67 E0 Q0
G1 X-3.347 F1200
M67 E0 Q0.5
G1 X-3.97 F300
M67 E0 Q0
G1 X-0.125
G1 X-0.22Y-0.078
G1 X0.125
M67 E0 Q0.5
G1 X4.41
M67 E0 Q0
G1 X3.127 F1200
M67 E0 Q0.5
G1 X15 F300
M67 E0 Q0
G1 X0.125
G1 Y-0.079
G1 X-0.125
M67 E0 Q0.5
G1 X-15
M67 E0 Q0
G1 X-2.945 F1200
M67 E0 Q0.5
G1 X-4.773 F300
M67 E0 Q0
G1 X-0.125
G1 X-0.144Y-0.079
G1 X0.125
M67 E0 Q0.5
G1 X5.066
M67 E0 Q0
G1 X2.796 F1200
M67 E0 Q0.5
G1 X15 F300
M67 E0 Q0
G1 X0.125
G1 Y-0.079
G1 X-0.125
M67 E0 Q0.5
G1 X-15
M67 E0 Q0
G1 X-2.672 F1200
M67 E0 Q0.5
G1 X-5.312 F300
M67 E0 Q0
G1 X-0.125
G1 X-0.111Y-0.079
G1 X0.125
M67 E0 Q0.5
G1 X5.536
M67 E0 Q0
G1 X2.559 F1200
M67 E0 Q0.5
G1 X15 F300
M67 E0 Q0
G1 X0.125
G1 Y-0.079
G1 X-0.125
M67 E0 Q0.5
G1 X-15
M67 E0 Q0
G1 X-2.471 F1200
M67 E0 Q0.5
G1 X-5.711 F300
M67 E0 Q0
G1 X-0.125
G1 X-0.085Y-0.079
G1 X0.125
M67 E0 Q0.5
G1 X5.882
M67 E0 Q0
G1 X2.385 F1200
M67 E0 Q0.5
G1 X15 F300
M67 E0 Q0
G1 X0.125
G1 Y-0.079
G1 X-0.125
M67 E0 Q0.5
G1 X-15
M67 E0 Q0
G1 X-2.319 F1200
M67 E0 Q0.5
G1 X-6.014 F300
M67 E0 Q0
G1 X-0.125
G1 X-0.065Y-0.079
G1 X0.125
M67 E0 Q0.5
G1 X1.803
M67 E0 Q0
G1 X2.586 F1200
M67 E0 Q0.5
G1 X1.757 F300
M67 E0 Q0
G1 X2.252 F1200
M67 E0 Q0.5
G1 X15 F300
M67 E0 Q0
G1 X0.125
G1 Y-0.078
G1 X-0.125
M67 E0 Q0.5
G1 X-15
M67 E0 Q0
G1 X-2.202 F1200
M67 E0 Q0.5
G1 X-1.409 F300
M67 E0 Q0
G1 X-3.422 F1200
M67 E0 Q0.5
G1 X-1.416 F300
M67 E0 Q0
G1 X-0.125
G1 X-0.048Y-0.079
G1 X0.125
M67 E0 Q0.5
G1 X1.195
M67 E0 Q0
G1 X3.956 F1200
M67 E0 Q0.5
G1 X1.194 F300
M67 E0 Q0
G1 X2.152 F1200
M67 E0 Q0.5
G1 X15 F300
M67 E0 Q0
G1 X0.125
G1 Y-0.079
G1 X-0.125
M67 E0 Q0.5
G1 X-15
M67 E0 Q0
G1 X-2.111 F1200
M67 E0 Q0.5
G1 X-1.062 F300
M67 E0 Q0
G1 X-4.304 F1200
M67 E0 Q0.5
G1 X-1.063 F300
M67 E0 Q0
G1 X-0.125
G1 X-0.034Y-0.079
G1 X0.125
M67 E0 Q0.5
G1 X0.97
M67 E0 Q0
G1 X4.561 F1200
M67 E0 Q0.5
G1 X0.967 F300
M67 E0 Q0
G1 X2.076 F1200
M67 E0 Q0.5
G1 X15 F300
M67 E0 Q0
G1 X0.125
G1 Y-0.079
G1 X-0.125
M67 E0 Q0.5
G1 X-15
M67 E0 Q0
G1 X-2.041 F1200
M67 E0 Q0.5
G1 X-0.904 F300
M67 E0 Q0
G1 X-4.757 F1200
M67 E0 Q0.5
G1 X-0.906 F300
M67 E0 Q0
G1 X-0.125
G1 X-0.025Y-0.079
G1 X0.125
M67 E0 Q0.5
G1 X0.854
M67 E0 Q0
G1 X4.91 F1200
M67 E0 Q0.5
G1 X0.853 F300
M67 E0 Q0
G1 X2.016 F1200
M67 E0 Q0.5
G1 X15 F300
M67 E0 Q0
G1 X0.125
G1 Y-0.079
G1 X-0.125
M67 E0 Q0.5
G1 X-15
M67 E0 Q0
G1 X-1.993 F1200
M67 E0 Q0.5
G1 X-0.813 F300
M67 E0 Q0
G1 X-5.037 F1200
M67 E0 Q0.5
G1 X-0.813 F300
M67 E0 Q0
G1 X-0.125
G1 X-0.022Y-0.079
G1 X0.125
M67 E0 Q0.5
G1 X0.787
M67 E0 Q0
G1 X5.135 F1200
M67 E0 Q0.5
G1 X0.785 F300
M67 E0 Q0
G1 X1.971 F1200
M67 E0 Q0.5
G1 X15 F300
M67 E0 Q0
G1 X0.125
G1 Y-0.079
G1 X-0.125
M67 E0 Q0.5
G1 X-15
M67 E0 Q0
G1 X-1.958 F1200
M67 E0 Q0.5
G1 X-0.763 F300
M67 E0 Q0
G1 X-5.206 F1200
M67 E0 Q0.5
G1 X-0.764 F300
M67 E0 Q0
G1 X-0.125
G1 X-0.013Y-0.078
G1 X0.125
M67 E0 Q0.5
G1 X0.747
M67 E0 Q0
G1 X5.267 F1200
M67 E0 Q0.5
G1 X0.745 F300
M67 E0 Q0
G1 X1.945 F1200
M67 E0 Q0.5
G1 X15 F300
M67 E0 Q0
G1 X0.125
G1 Y-0.079
G1 X-0.125
M67 E0 Q0.5
G1 X-15
M67 E0 Q0
G1 X-1.933 F1200
M67 E0 Q0.5
G1 X-0.74 F300
M67 E0 Q0
G1 X-5.303 F1200
M67 E0 Q0.5
G1 X-0.74 F300
M67 E0 Q0
G1 X-0.125
G1 X-0.005Y-0.079
G1 X0.125
M67 E0 Q0.5
G1 X0.729
M67 E0 Q0
G1 X5.335 F1200
M67 E0 Q0.5
G1 X0.729 F300
M67 E0 Q0
G1 X1.928 F1200
M67 E0 Q0.5
G1 X15 F300
M67 E0 Q0
G1 X0.125
G1 Y-0.079
G1 X-0.125
M67 E0 Q0.5
G1 X-15
M67 E0 Q0
G1 X-1.924 F1200
M67 E0 Q0.5
G1 X-0.727 F300
M67 E0 Q0
G1 X-5.348 F1200
M67 E0 Q0.5
G1 X-0.726 F300
M67 E0 Q0
G1 X-0.125
G1 Y-0.079
G1 X0.121
M67 E0 Q0.5
G1 X0.726
M67 E0 Q0
G1 X5.357 F1200
M67 E0 Q0.5
G1 X0.726 F300
M67 E0 Q0
G1 X1.92 F1200
M67 E0 Q0.5
G1 X15 F300
M67 E0 Q0
G1 X0.125
G1 Y-0.079
G1 X-0.125
M67 E0 Q0.5
G1 X-15
M67 E0 Q0
G1 X-1.921 F1200
M67 E0 Q0.5
G1 X-0.726 F300
M67 E0 Q0
G1 X-5.355 F1200
M67 E0 Q0.5
G1 X-0.726 F300
M67 E0 Q0
G1 X-0.125
G1 Y-0.079
G1 X0.129
M67 E0 Q0.5
G1 X0.727
M67 E0 Q0
G1 X5.345 F1200
M67 E0 Q0.5
G1 X0.727 F300
M67 E0 Q0
G1 X1.925 F1200
M67 E0 Q0.5
G1 X15 F300
M67 E0 Q0
G1 X0.125
G1 Y-0.079
G1 X-0.125
M67 E0 Q0.5
G1 X-15
M67 E0 Q0
G1 X-1.929 F1200
M67 E0 Q0.5
G1 X-0.733 F300
M67 E0 Q0
G1 X-5.326 F1200
M67 E0 Q0.5
G1 X-0.732 F300
M67 E0 Q0
G1 X-0.125
G1 X0.007Y-0.079
G1 X0.125
M67 E0 Q0.5
G1 X0.741
M67 E0 Q0
G1 X5.294 F1200
M67 E0 Q0.5
G1 X0.742 F300
M67 E0 Q0
G1 X1.936 F1200
M67 E0 Q0.5
G1 X15 F300
M67 E0 Q0
G1 X0.125
G1 Y-0.078
G1 X-0.125
M67 E0 Q0.5
G1 X-15
M67 E0 Q0
G1 X-1.949 F1200
M67 E0 Q0.5
G1 X-0.751 F300
M67 E0 Q0
G1 X-5.25 F1200
M67 E0 Q0.5
G1 X-0.75 F300
M67 E0 Q0
G1 X-0.125
G1 X0.013Y-0.079
G1 X0.125
M67 E0 Q0.5
G1 X0.767
M67 E0 Q0
G1 X5.19 F1200
M67 E0 Q0.5
G1 X0.768 F300
M67 E0 Q0
G1 X1.962 F1200
M67 E0 Q0.5
G1 X15 F300
M67 E0 Q0
G1 X0.125
G1 Y-0.079
G1 X-0.125
M67 E0 Q0.5
G1 X-15
M67 E0 Q0
G1 X-1.977 F1200
M67 E0 Q0.5
G1 X-0.794 F300
M67 E0 Q0
G1 X-5.107 F1200
M67 E0 Q0.5
G1 X-0.794 F300
M67 E0 Q0
G1 X-0.125
G1 X0.024Y-0.079
G1 X0.125
M67 E0 Q0.5
G1 X0.819
M67 E0 Q0
G1 X5.009 F1200
M67 E0 Q0.5
G1 X0.82 F300
M67 E0 Q0
G1 X2 F1200
M67 E0 Q0.5
G1 X15 F300
M67 E0 Q0
G1 X0.125
G1 Y-0.079
G1 X-0.125
M67 E0 Q0.5
G1 X-15
M67 E0 Q0
G1 X-2.023 F1200
M67 E0 Q0.5
G1 X-0.866 F300
M67 E0 Q0
G1 X-4.87 F1200
M67 E0 Q0.5
G1 X-0.866 F300
M67 E0 Q0
G1 X-0.125
G1 X0.028Y-0.079
G1 X0.125
M67 E0 Q0.5
G1 X0.924
M67 E0 Q0
G1 X4.699 F1200
M67 E0 Q0.5
G1 X0.923 F300
M67 E0 Q0
G1 X2.051 F1200
M67 E0 Q0.5
G1 X15 F300
M67 E0 Q0
G1 X0.125
G1 Y-0.079
G1 X-0.125
M67 E0 Q0.5
G1 X-15
M67 E0 Q0
G1 X-2.086 F1200
M67 E0 Q0.5
G1 X-0.997 F300
M67 E0 Q0
G1 X-4.481 F1200
M67 E0 Q0.5
G1 X-0.998 F300
M67 E0 Q0
G1 X-0.125
G1 X0.035Y-0.079
G1 X0.125
M67 E0 Q0.5
G1 X1.107
M67 E0 Q0
G1 X4.194 F1200
M67 E0 Q0.5
G1 X1.106 F300
M67 E0 Q0
G1 X2.12 F1200
M67 E0 Q0.5
G1 X15 F300
M67 E0 Q0
G1 X0.125
G1 Y-0.079
G1 X-0.125
M67 E0 Q0.5
G1 X-15
M67 E0 Q0
G1 X-2.167 F1200
M67 E0 Q0.5
G1 X-1.269 F300
M67 E0 Q0
G1 X-3.773 F1200
M67 E0 Q0.5
G1 X-1.272 F300
M67 E0 Q0
G1 X-0.125
G1 X0.05Y-0.078
G1 X0.125
M67 E0 Q0.5
G1 X1.487
M67 E0 Q0
G1 X3.24 F1200
M67 E0 Q0.5
G1 X1.489 F300
M67 E0 Q0
G1 X2.215 F1200
M67 E0 Q0.5
G1 X15 F300
M67 E0 Q0
G1 X0.125
G1 Y-0.079
G1 X-0.125
M67 E0 Q0.5
G1 X-15
M67 E0 Q0
G1 X-2.271 F1200
M67 E0 Q0.5
G1 X-1.991 F300
M67 E0 Q0
G1 X-2.129 F1200
M67 E0 Q0.5
G1 X-1.984 F300
M67 E0 Q0
G1 X-0.125
G1 X0.067Y-0.079
G1 X0.125
M67 E0 Q0.5
G1 X5.972
M67 E0 Q0
G1 X2.336 F1200
M67 E0 Q0.5
G1 X15 F300
M67 E0 Q0
G1 X0.125
G1 Y-0.079
G1 X-0.125
M67 E0 Q0.5
G1 X-15
M67 E0 Q0
G1 X-2.408 F1200
M67 E0 Q0.5
G1 X-5.829 F300
M67 E0 Q0
G1 X-0.125
G1 X0.089Y-0.079
G1 X0.125
M67 E0 Q0.5
G1 X5.655
M67 E0 Q0
G1 X2.493 F1200
M67 E0 Q0.5
G1 X15 F300
M67 E0 Q0
G1 X0.125
G1 Y-0.079
G1 X-0.125
M67 E0 Q0.5
G1 X-15
M67 E0 Q0
G1 X-2.588 F1200
M67 E0 Q0.5
G1 X-5.465 F300
M67 E0 Q0
G1 X-0.125
G1 X0.116Y-0.079
G1 X0.125
M67 E0 Q0.5
G1 X5.238
M67 E0 Q0
G1 X2.699 F1200
M67 E0 Q0.5
G1 X15 F300
M67 E0 Q0
G1 X0.125
G1 Y-0.079
G1 X-0.125
M67 E0 Q0.5
G1 X-15
M67 E0 Q0
G1 X-2.832 F1200
M67 E0 Q0.5
G1 X-4.971 F300
M67 E0 Q0
G1 X-0.125
G1 X0.151Y-0.079
G1 X0.125
M67 E0 Q0.5
G1 X4.671
M67 E0 Q0
G1 X2.981 F1200
M67 E0 Q0.5
G1 X15 F300
M67 E0 Q0
G1 X0.125
G1 Y-0.078
G1 X-0.125
M67 E0 Q0.5
G1 X-15
M67 E0 Q0
G1 X-3.17 F1200
M67 E0 Q0.5
G1 X-4.288 F300
M67 E0 Q0
G1 X-0.125
G1 X0.237Y-0.079
G1 X0.125
M67 E0 Q0.5
G1 X3.814
M67 E0 Q0
G1 X3.407 F1200
M67 E0 Q0.5
G1 X15 F300
M67 E0 Q0
G1 X0.125
G1 Y-0.079
G1 X-0.125
M67 E0 Q0.5
G1 X-15
M67 E0 Q0
G1 X-3.715 F1200
M67 E0 Q0.5
G1 X-3.198 F300
M67 E0 Q0
G1 X-0.125
G1 X0.442Y-0.079
G1 X0.125
M67 E0 Q0.5
G1 X2.306
M67 E0 Q0
G1 X4.165 F1200
M67 E0 Q0.5
G1 X15 F300
M67 E0 Q0
G1 X0.125
G1 Y-0.079
G1 X-0.125
M67 E0 Q0.5
G1 X-15
M67 E0 Q0
G1 X-0.125
G1 Y-0.079
G1 X0.125
M67 E0 Q0.5
G1 X15
M67 E0 Q0
G1 X0.125
G1 Y-0.079
G1 X-0.125
M67 E0 Q0.5
G1 X-15
M67 E0 Q0
G1 X-0.125
G1 Y-0.079
G1 X0.125
M67 E0 Q0.5
G1 X15
M67 E0 Q0
G1 X0.125
G1 Y-0.079
G1 X-0.125
M67 E0 Q0.5
G1 X-15
M67 E0 Q0
G1 X-0.125
G1 Y-0.078
G1 X0.125
M67 E0 Q0.5
G1 X15
M67 E0 Q0
G1 X0.125
G1 Y-0.079
G1 X-0.125
M67 E0 Q0.5
G1 X-15
M67 E0 Q0
G1 X-0.125
G1 Y-0.079
G1 X0.125
M67 E0 Q0.5
G1 X15
M67 E0 Q0
G1 X0.125
G1 Y-0.079
G1 X-0.125
M67 E0 Q0.5
G1 X-15
M67 E0 Q0
G1 X-0.125
G1 Y-0.079
G1 X0.125
M67 E0 Q0.5
G1 X15
M67 E0 Q0
G1 X0.125
G1 Y-0.079
G1 X-0.125
M67 E0 Q0.5
G1 X-15
M67 E0 Q0
G1 X-3.342 F1200
M67 E0 Q0.5
G1 X-1.032 F300
M67 E0 Q0
G1 X-0.125
G1 X-0.213Y-0.079
G1 X0.125
M67 E0 Q0.5
G1 X1.51
M67 E0 Q0
G1 X3.077 F1200
M67 E0 Q0.5
G1 X15 F300
M67 E0 Q0
G1 X0.125
G1 Y-0.079
G1 X-0.125
M67 E0 Q0.5
G1 X-15
M67 E0 Q0
G1 X-2.908 F1200
M67 E0 Q0.5
G1 X-1.832 F300
M67 E0 Q0
G1 X-1.79 F1200
M67 E0 Q0.5
G1 X-0.961 F300
M67 E0 Q0
G1 X-0.125
G1 X-0.229Y-0.079
G1 X0.125
M67 E0 Q0.5
G1 X1.386
M67 E0 Q0
G1 X1.462 F1200
M67 E0 Q0.5
G1 X2.097 F300
M67 E0 Q0
G1 X2.775 F1200
M67 E0 Q0.5
G1 X15 F300
M67 E0 Q0
G1 X0.125
G1 Y-0.078
G1 X-0.125
M67 E0 Q0.5
G1 X-15
M67 E0 Q0
G1 X-2.666 F1200
M67 E0 Q0.5
G1 X-2.312 F300
M67 E0 Q0
G1 X-1.219 F1200
M67 E0 Q0.5
G1 X-1.655 F300
M67 E0 Q0
G1 X-0.125
G1 X-0.132Y-0.079
G1 X0.125
M67 E0 Q0.5
G1 X1.887
M67 E0 Q0
G1 X1.022 F1200
M67 E0 Q0.5
G1 X2.505 F300
M67 E0 Q0
G1 X2.57 F1200
M67 E0 Q0.5
G1 X15 F300
M67 E0 Q0
G1 X0.125
G1 Y-0.079
G1 X-0.125
M67 E0 Q0.5
G1 X-15
M67 E0 Q0
G1 X-2.487 F1200
M67 E0 Q0.5
G1 X-2.667 F300
M67 E0 Q0
G1 X-0.852
M67 E0 Q0.5
G1 X-2.066
M67 E0 Q0
G1 X-0.125
G1 X-0.085Y-0.079
G1 X0.125
M67 E0 Q0.5
G1 X2.227
M67 E0 Q0
G1 X0.698
M67 E0 Q0.5
G1 X2.817
M67 E0 Q0
G1 X2.415 F1200
M67 E0 Q0.5
G1 X15 F300
M67 E0 Q0
G1 X0.125
G1 Y-0.079
G1 X-0.125
M67 E0 Q0.5
G1 X-15
M67 E0 Q0
G1 X-2.347 F1200
M67 E0 Q0.5
G1 X-2.946 F300
M67 E0 Q0
G1 X-0.564
M67 E0 Q0.5
G1 X-2.384
M67 E0 Q0
G1 X-0.125
G1 X-0.062Y-0.079
G1 X0.125
M67 E0 Q0.5
G1 X2.507
M67 E0 Q0
G1 X0.444
M67 E0 Q0.5
G1 X3.061
M67 E0 Q0
G1 X2.291 F1200
M67 E0 Q0.5
G1 X15 F300
M67 E0 Q0
G1 X0.125
G1 Y-0.079
G1 X-0.125
M67 E0 Q0.5
G1 X-15
M67 E0 Q0
G1 X-2.236 F1200
M67 E0 Q0.5
G1 X-3.174 F300
M67 E0 Q0
G1 X-0.325
M67 E0 Q0.5
G1 X-2.625
M67 E0 Q0
G1 X-0.125
G1 X-0.057Y-0.079
G1 X0.125
M67 E0 Q0.5
G1 X2.735
M67 E0 Q0
G1 X0.228
M67 E0 Q0.5
G1 X1.074
M67 E0 Q0
G1 X0.866
M67 E0 Q0.5
G1 X1.322
M67 E0 Q0
G1 X2.192 F1200
M67 E0 Q0.5
G1 X15 F300
M67 E0 Q0
G1 X0.125
G1 Y-0.079
G1 X-0.125
M67 E0 Q0.5
G1 X-15
M67 E0 Q0
G1 X-2.149 F1200
M67 E0 Q0.5
G1 X-1.142 F300
M67 E0 Q0
G1 X-1.316 F1200
M67 E0 Q0.5
G1 X-0.891 F300
M67 E0 Q0
G1 X-0.134
M67 E0 Q0.5
G1 X-2.841
M67 E0 Q0
G1 X-0.125
G1 X-0.036Y-0.078
G1 X0.125
M67 E0 Q0.5
G1 X1.034
M67 E0 Q0
G1 X0.705
M67 E0 Q0.5
G1 X1.189
M67 E0 Q0
G1 X0.038
M67 E0 Q0.5
G1 X0.777
M67 E0 Q0
G1 X1.629 F1200
M67 E0 Q0.5
G1 X1.025 F300
M67 E0 Q0
G1 X2.112 F1200
M67 E0 Q0.5
G1 X15 F300
M67 E0 Q0
G1 X0.125
G1 Y-0.079
G1 X-0.125
M67 E0 Q0.5
G1 X-15
M67 E0 Q0
G1 X-2.079 F1200
M67 E0 Q0.5
G1 X-0.954 F300
M67 E0 Q0
G1 X-1.858 F1200
M67 E0 Q0.5
G1 X-1.715 F300
M67 E0 Q0
G1 X-1.032 F1200
M67 E0 Q0.5
G1 X-0.907 F300
M67 E0 Q0
G1 X-0.125
G1 X-0.037Y-0.079
G1 X0.125
M67 E0 Q0.5
G1 X0.838
M67 E0 Q0
G1 X1.235 F1200
M67 E0 Q0.5
G1 X1.52 F300
M67 E0 Q0
G1 X2.054 F1200
M67 E0 Q0.5
G1 X0.888 F300
M67 E0 Q0
G1 X2.047 F1200
M67 E0 Q0.5
G1 X15 F300
M67 E0 Q0
G1 X0.125
G1 Y-0.079
G1 X-0.125
M67 E0 Q0.5
G1 X-15
M67 E0 Q0
G1 X-2.023 F1200
M67 E0 Q0.5
G1 X-0.842 F300
M67 E0 Q0
G1 X-2.214 F1200
M67 E0 Q0.5
G1 X-1.344 F300
M67 E0 Q0
G1 X-1.406 F1200
M67 E0 Q0.5
G1 X-0.789 F300
M67 E0 Q0
G1 X-0.125
G1 X-0.023Y-0.079
G1 X0.125
M67 E0 Q0.5
G1 X0.753
M67 E0 Q0
G1 X1.541 F1200
M67 E0 Q0.5
G1 X1.193 F300
M67 E0 Q0
G1 X2.359 F1200
M67 E0 Q0.5
G1 X0.797 F300
M67 E0 Q0
G1 X1.998 F1200
M67 E0 Q0.5
G1 X15 F300
M67 E0 Q0
G1 X0.125
G1 Y-0.079
G1 X-0.125
M67 E0 Q0.5
G1 X-15
M67 E0 Q0
G1 X-1.978 F1200
M67 E0 Q0.5
G1 X-0.766 F300
M67 E0 Q0
G1 X-2.478 F1200
M67 E0 Q0.5
G1 X-1.069 F300
M67 E0 Q0
G1 X-1.652 F1200
M67 E0 Q0.5
G1 X-0.717 F300
M67 E0 Q0
G1 X-0.125
G1 X-0.02Y-0.079
G1 X0.125
M67 E0 Q0.5
G1 X0.698
M67 E0 Q0
G1 X1.746 F1200
M67 E0 Q0.5
G1 X0.955 F300
M67 E0 Q0
G1 X2.582 F1200
M67 E0 Q0.5
G1 X0.737 F300
M67 E0 Q0
G1 X1.962 F1200
M67 E0 Q0.5
G1 X15 F300
M67 E0 Q0
G1 X0.125
G1 Y-0.079
G1 X-0.125
M67 E0 Q0.5
G1 X-15
M67 E0 Q0
G1 X-1.945 F1200
M67 E0 Q0.5
G1 X-0.711 F300
M67 E0 Q0
G1 X-2.667 F1200
M67 E0 Q0.5
G1 X-0.858 F300
M67 E0 Q0
G1 X-1.836 F1200
M67 E0 Q0.5
G1 X-0.682 F300
M67 E0 Q0
G1 X-0.125
G1 X-0.019Y-0.079
G1 X0.125
M67 E0 Q0.5
G1 X0.673
M67 E0 Q0
G1 X1.907 F1200
M67 E0 Q0.5
G1 X0.848 F300
M67 E0 Q0
G1 X2.658 F1200
M67 E0 Q0.5
G1 X0.698 F300
M67 E0 Q0
G1 X1.934 F1200
M67 E0 Q0.5
G1 X15 F300
M67 E0 Q0
G1 X0.125
G1 Y-0.078
G1 X-0.125
M67 E0 Q0.5
G1 X-15
M67 E0 Q0
G1 X-1.925 F1200
M67 E0 Q0.5
G1 X-0.682 F300
M67 E0 Q0
G1 X-2.65 F1200
M67 E0 Q0.5
G1 X-0.84 F300
M67 E0 Q0
G1 X-1.967 F1200
M67 E0 Q0.5
G1 X-0.66 F300
M67 E0 Q0
G1 X-0.125
G1 X-0.005Y-0.079
G1 X0.125
M67 E0 Q0.5
G1 X0.647
M67 E0 Q0
G1 X2.024 F1200
M67 E0 Q0.5
G1 X0.834 F300
M67 E0 Q0
G1 X2.64 F1200
M67 E0 Q0.5
G1 X0.669 F300
M67 E0 Q0
G1 X1.915 F1200
M67 E0 Q0.5
G1 X15 F300
M67 E0 Q0
G1 X0.125
G1 Y-0.079
G1 X-0.125
M67 E0 Q0.5
G1 X-15
M67 E0 Q0
G1 X-1.912 F1200
M67 E0 Q0.5
G1 X-0.665 F300
M67 E0 Q0
G1 X-2.615 F1200
M67 E0 Q0.5
G1 X-0.828 F300
M67 E0 Q0
G1 X-2.07 F1200
M67 E0 Q0.5
G1 X-0.645 F300
M67 E0 Q0
G1 X-0.125
G1 X-0.006Y-0.079
G1 X0.125
M67 E0 Q0.5
G1 X0.645
M67 E0 Q0
G1 X2.114 F1200
M67 E0 Q0.5
G1 X0.821 F300
M67 E0 Q0
G1 X2.592 F1200
M67 E0 Q0.5
G1 X0.66 F300
M67 E0 Q0
G1 X1.909 F1200
M67 E0 Q0.5
G1 X15 F300
M67 E0 Q0
G1 X0.125
G1 Y-0.079
G1 X-0.125
M67 E0 Q0.5
G1 X-15
M67 E0 Q0
G1 X-1.906 F1200
M67 E0 Q0.5
G1 X-0.656 F300
M67 E0 Q0
G1 X-2.567 F1200
M67 E0 Q0.5
G1 X-0.817 F300
M67 E0 Q0
G1 X-2.156 F1200
M67 E0 Q0.5
G1 X-0.645 F300
M67 E0 Q0
G1 X-0.125
G1 Y-0.079
G1 X0.129
M67 E0 Q0.5
G1 X0.647
M67 E0 Q0
G1 X2.185 F1200
M67 E0 Q0.5
G1 X0.813 F300
M67 E0 Q0
G1 X2.533 F1200
M67 E0 Q0.5
G1 X0.654 F300
M67 E0 Q0
G1 X1.911 F1200
M67 E0 Q0.5
G1 X15 F300
M67 E0 Q0
G1 X0.125
G1 Y-0.079
G1 X-0.125
M67 E0 Q0.5
G1 X-15
M67 E0 Q0
G1 X-1.918 F1200
M67 E0 Q0.5
G1 X-0.653 F300
M67 E0 Q0
G1 X-2.494 F1200
M67 E0 Q0.5
G1 X-0.811 F300
M67 E0 Q0
G1 X-2.214 F1200
M67 E0 Q0.5
G1 X-0.648 F300
M67 E0 Q0
G1 X-0.125
G1 X0.006Y-0.079
G1 X0.125
M67 E0 Q0.5
G1 X0.647
M67 E0 Q0
G1 X2.243 F1200
M67 E0 Q0.5
G1 X0.81 F300
M67 E0 Q0
G1 X2.454 F1200
M67 E0 Q0.5
G1 X0.654 F300
M67 E0 Q0
G1 X1.924 F1200
M67 E0 Q0.5
G1 X15 F300
M67 E0 Q0
G1 X0.125
G1 Y-0.079
G1 X-0.125
M67 E0 Q0.5
G1 X-15
M67 E0 Q0
G1 X-1.93 F1200
M67 E0 Q0.5
G1 X-0.66 F300
M67 E0 Q0
G1 X-2.407 F1200
M67 E0 Q0.5
G1 X-0.816 F300
M67 E0 Q0
G1 X-2.254 F1200
M67 E0 Q0.5
G1 X-0.66 F300
M67 E0 Q0
G1 X-0.125
G1 X0.006Y-0.078
G1 X0.125
M67 E0 Q0.5
G1 X0.674
M67 E0 Q0
G1 X2.263 F1200
M67 E0 Q0.5
G1 X0.826 F300
M67 E0 Q0
G1 X2.347 F1200
M67 E0 Q0.5
G1 X0.674 F300
M67 E0 Q0
G1 X1.937 F1200
M67 E0 Q0.5
G1 X15 F300
M67 E0 Q0
G1 X0.125
G1 Y-0.079
G1 X-0.125
M67 E0 Q0.5
G1 X-15
M67 E0 Q0
G1 X-1.948 F1200
M67 E0 Q0.5
G1 X-0.684 F300
M67 E0 Q0
G1 X-2.286 F1200
M67 E0 Q0.5
G1 X-0.852 F300
M67 E0 Q0
G1 X-2.257 F1200
M67 E0 Q0.5
G1 X-0.682 F300
M67 E0 Q0
G1 X-0.125
G1 X0.018Y-0.079
G1 X0.125
M67 E0 Q0.5
G1 X0.703
M67 E0 Q0
G1 X2.152 F1200
M67 E0 Q0.5
G1 X0.964 F300
M67 E0 Q0
G1 X2.211 F1200
M67 E0 Q0.5
G1 X0.692 F300
M67 E0 Q0
G1 X1.969 F1200
M67 E0 Q0.5
G1 X15 F300
M67 E0 Q0
G1 X0.125
G1 Y-0.079
G1 X-0.125
M67 E0 Q0.5
G1 X-15
M67 E0 Q0
G1 X-1.99 F1200
M67 E0 Q0.5
G1 X-0.711 F300
M67 E0 Q0
G1 X-2.124 F1200
M67 E0 Q0.5
G1 X-1.078 F300
M67 E0 Q0
G1 X-2.047 F1200
M67 E0 Q0.5
G1 X-0.723 F300
M67 E0 Q0
G1 X-0.125
G1 X0.019Y-0.079
G1 X0.125
M67 E0 Q0.5
G1 X0.758
M67 E0 Q0
G1 X1.913 F1200
M67 E0 Q0.5
G1 X1.208 F300
M67 E0 Q0
G1 X2.035 F1200
M67 E0 Q0.5
G1 X0.729 F300
M67 E0 Q0
G1 X2.011 F1200
M67 E0 Q0.5
G1 X15 F300
M67 E0 Q0
G1 X0.125
G1 Y-0.079
G1 X-0.125
M67 E0 Q0.5
G1 X-15
M67 E0 Q0
G1 X-2.032 F1200
M67 E0 Q0.5
G1 X-0.767 F300
M67 E0 Q0
G1 X-1.92 F1200
M67 E0 Q0.5
G1 X-1.348 F300
M67 E0 Q0
G1 X-1.766 F1200
M67 E0 Q0.5
G1 X-0.803 F300
M67 E0 Q0
G1 X-0.125
G1 X0.029Y-0.079
G1 X0.125
M67 E0 Q0.5
G1 X0.856
M67 E0 Q0
G1 X1.579 F1200
M67 E0 Q0.5
G1 X1.512 F300
M67 E0 Q0
G1 X1.798 F1200
M67 E0 Q0.5
G1 X0.804 F300
M67 E0 Q0
G1 X0.125
G1 X-0.039Y-0.079
G1 X-0.125
M67 E0 Q0.5
G1 X-0.847
M67 E0 Q0
G1 X-1.645 F1200
M67 E0 Q0.5
G1 X-1.714 F300
M67 E0 Q0
G1 X-1.353 F1200
M67 E0 Q0.5
G1 X-0.916 F300
M67 E0 Q0
G1 X-0.125
G1 X0.034Y-0.079
G1 X0.125
M67 E0 Q0.5
G1 X1.029
M67 E0 Q0
G1 X1.022 F1200
M67 E0 Q0.5
G1 X0.92 F300
M67 E0 Q0
G1 X0.078
M67 E0 Q0.5
G1 X0.985
M67 E0 Q0
G1 X1.463 F1200
M67 E0 Q0.5
G1 X0.906 F300
M67 E0 Q0
G1 X0.125
G1 X-0.039Y-0.078
G1 X-0.125
M67 E0 Q0.5
G1 X-1.007
M67 E0 Q0
G1 X-1.212 F1200
M67 E0 Q0.5
G1 X-1.055 F300
M67 E0 Q0
G1 X-0.165
M67 E0 Q0.5
G1 X-1.245
M67 E0 Q0
G1 X-0.347
M67 E0 Q0.5
G1 X-1.298
M67 E0 Q0
G1 X-0.125
G1 X0.043Y-0.079
G1 X0.125
M67 E0 Q0.5
G1 X2.801
M67 E0 Q0
G1 X0.253
M67 E0 Q0.5
G1 X1.199
M67 E0 Q0
G1 X0.816
M67 E0 Q0.5
G1 X1.179
M67 E0 Q0
G1 X0.125
G1 X-0.054Y-0.079
G1 X-0.125
M67 E0 Q0.5
G1 X-3.097
M67 E0 Q0
G1 X-0.353
M67 E0 Q0.5
G1 X-2.688
M67 E0 Q0
G1 X-0.125
G1 X0.055Y-0.079
G1 X0.125
M67 E0 Q0.5
G1 X2.572
M67 E0 Q0
G1 X0.467
M67 E0 Q0.5
G1 X2.983
M67 E0 Q0
G1 X0.125
G1 X-0.06Y-0.079
G1 X-0.125
M67 E0 Q0.5
G1 X-2.871
M67 E0 Q0
G1 X-0.585
M67 E0 Q0.5
G1 X-2.45
M67 E0 Q0
G1 X-0.125
G1 X0.077Y-0.079
G1 X0.125
M67 E0 Q0.5
G1 X2.29
M67 E0 Q0
G1 X0.724
M67 E0 Q0.5
G1 X2.754
M67 E0 Q0
G1 X0.125
G1 X-0.077Y-0.079
G1 X-0.125
M67 E0 Q0.5
G1 X-2.61
M67 E0 Q0
G1 X-0.874
M67 E0 Q0.5
G1 X-2.123
M67 E0 Q0
G1 X-0.125
G1 X0.084Y-0.079
G1 X0.125
M67 E0 Q0.5
G1 X1.926
M67 E0 Q0
G1 X1.054 F1200
M67 E0 Q0.5
G1 X2.454 F300
M67 E0 Q0
G1 X0.125
G1 X-0.089Y-0.079
G1 X-0.125
M67 E0 Q0.5
G1 X-2.283
M67 E0 Q0
G1 X-1.256 F1200
M67 E0 Q0.5
G1 X-1.685 F300
M67 E0 Q0
G1 X-0.125
G1 X0.133Y-0.078
G1 X0.125
M67 E0 Q0.5
G1 X1.401
M67 E0 Q0
G1 X1.495 F1200
M67 E0 Q0.5
G1 X2.095 F300
M67 E0 Q0
G1 X0.125
G1 X-0.138Y-0.079
G1 X-0.125
M67 E0 Q0.5
G1 X-1.846
M67 E0 Q0
G1 X-1.805 F1200
M67 E0 Q0.5
G1 X-0.996 F300
M67 E0 Q0
G1 X-0.125
G1 X0.453Y-0.079
G1 X0.125
M67 E0 Q0.5
G1 X0.122
M67 E0 Q0
G1 X2.352 F1200
M67 E0 Q0.5
G1 X1.581 F300
M67 E0 Q0
G1 X0.125
G1 X-0.232Y-0.079
G1 X-0.125
M67 E0 Q0.5
G1 X-1.152
M67 E0 Q0
G1 X-0.125
G1 X0.431Y-0.079
G1 X0.125
M67 E0 Q0.5
G1 X0.259
M67 E0 Q0
G1 X0.125
G90
; Scan @ 300 mm/min, 50% power
M8
M67 E0 Q0
G0 X326.549 Y317.001 F1200
; Layer 
G91
G1 X-0.125 F300
M67 E0 Q0.5
G1 X-0.49
M67 E0 Q0
G1 X-0.125
G1 X-1.072Y-0.088 F1200
G1 X0.125 F300
M67 E0 Q0.5
G1 X2.615
M67 E0 Q0
G1 X0.125
G1 X0.437Y-0.088
G1 X-0.125
M67 E0 Q0.5
G1 X-3.491
M67 E0 Q0
G1 X-0.125
G1 X-0.301Y-0.088
G1 X0.125
M67 E0 Q0.5
G1 X4.093
M67 E0 Q0
G1 X0.125
G1 X0.227Y-0.087
G1 X-0.125
M67 E0 Q0.5
G1 X-4.546
M67 E0 Q0
G1 X-0.125
G1 X-0.181Y-0.088
G1 X0.125
M67 E0 Q0.5
G1 X4.91
M67 E0 Q0
G1 X0.125
G1 X17.875Y-0.088 F1200
G1 X-0.125 F300
M67 E0 Q0.5
G1 X-15
M67 E0 Q0
G1 X-2.72 F1200
M67 E0 Q0.5
G1 X-5.218 F300
M67 E0 Q0
G1 X-0.125
G1 X-0.123Y-0.088
G1 X0.125
M67 E0 Q0.5
G1 X5.468
M67 E0 Q0
G1 X2.593 F1200
M67 E0 Q0.5
G1 X15 F300
M67 E0 Q0
G1 X0.125
G1 Y-0.088
G1 X-0.125
M67 E0 Q0.5
G1 X-15
M67 E0 Q0
G1 X-2.488 F1200
M67 E0 Q0.5
G1 X-5.678 F300
M67 E0 Q0
G1 X-0.125
G1 X-0.095Y-0.087
G1 X0.125
M67 E0 Q0.5
G1 X5.871
M67 E0 Q0
G1 X2.39 F1200
M67 E0 Q0.5
G1 X15 F300
M67 E0 Q0
G1 X0.125
G1 Y-0.088
G1 X-0.125
M67 E0 Q0.5
G1 X-15
M67 E0 Q0
G1 X-2.317 F1200
M67 E0 Q0.5
G1 X-6.018 F300
M67 E0 Q0
G1 X-0.125
G1 X-0.072Y-0.088
G1 X0.125
M67 E0 Q0.5
G1 X1.735
M67 E0 Q0
G1 X2.738 F1200
M67 E0 Q0.5
G1 X1.69 F300
M67 E0 Q0
G1 X2.244 F1200
M67 E0 Q0.5
G1 X15 F300
M67 E0 Q0
G1 X0.125
G1 Y-0.088
G1 X-0.125
M67 E0 Q0.5
G1 X-15
M67 E0 Q0
G1 X-2.189 F1200
M67 E0 Q0.5
G1 X-1.353 F300
M67 E0 Q0
G1 X-3.56 F1200
M67 E0 Q0.5
G1 X-1.359 F300
M67 E0 Q0
G1 X-0.125
G1 X-0.054Y-0.087
G1 X0.125
M67 E0 Q0.5
G1 X1.145
M67 E0 Q0
G1 X4.09 F1200
M67 E0 Q0.5
G1 X1.146 F300
M67 E0 Q0
G1 X2.134 F1200
M67 E0 Q0.5
G1 X15 F300
M67 E0 Q0
G1 X0.125
G1 Y-0.088
G1 X-0.125
M67 E0 Q0.5
G1 X-15
M67 E0 Q0
G1 X-2.094 F1200
M67 E0 Q0.5
G1 X-1.015 F300
M67 E0 Q0
G1 X-4.429 F1200
M67 E0 Q0.5
G1 X-1.018 F300
M67 E0 Q0
G1 X-0.125
G1 X-0.038Y-0.088
G1 X0.125
M67 E0 Q0.5
G1 X0.931
M67 E0 Q0
G1 X4.678 F1200
M67 E0 Q0.5
G1 X0.93 F300
M67 E0 Q0
G1 X2.055 F1200
M67 E0 Q0.5
G1 X15 F300
M67 E0 Q0
G1 X0.125
G1 Y-0.088
G1 X-0.125
M67 E0 Q0.5
G1 X-15
M67 E0 Q0
G1 X-2.023 F1200
M67 E0 Q0.5
G1 X-0.867 F300
M67 E0 Q0
G1 X-4.869 F1200
M67 E0 Q0.5
G1 X-0.867 F300
M67 E0 Q0
G1 X-0.125
G1 X-0.026Y-0.088
G1 X0.125
M67 E0 Q0.5
G1 X0.817
M67 E0 Q0
G1 X5.02 F1200
M67 E0 Q0.5
G1 X0.817 F300
M67 E0 Q0
G1 X1.998 F1200
M67 E0 Q0.5
G1 X15 F300
M67 E0 Q0
G1 X0.125
G1 Y-0.087
G1 X-0.125
M67 E0 Q0.5
G1 X-15
M67 E0 Q0
G1 X-1.972 F1200
M67 E0 Q0.5
G1 X-0.787 F300
M67 E0 Q0
G1 X-5.129 F1200
M67 E0 Q0.5
G1 X-0.789 F300
M67 E0 Q0
G1 X-0.125
G1 X-0.015Y-0.088
G1 X0.125
M67 E0 Q0.5
G1 X0.763
M67 E0 Q0
G1 X5.209 F1200
M67 E0 Q0.5
G1 X0.763 F300
M67 E0 Q0
G1 X1.957 F1200
M67 E0 Q0.5
G1 X15 F300
M67 E0 Q0
G1 X0.125
G1 Y-0.088
G1 X-0.125
M67 E0 Q0.5
G1 X-15
M67 E0 Q0
G1 X-1.943 F1200
M67 E0 Q0.5
G1 X-0.744 F300
M67 E0 Q0
G1 X-5.275 F1200
M67 E0 Q0.5
G1 X-0.744 F300
M67 E0 Q0
G1 X-0.125
G1 X-0.012Y-0.088
G1 X0.125
M67 E0 Q0.5
G1 X0.738
M67 E0 Q0
G1 X5.311 F1200
M67 E0 Q0.5
G1 X0.738 F300
M67 E0 Q0
G1 X1.931 F1200
M67 E0 Q0.5
G1 X15 F300
M67 E0 Q0
G1 X0.125
G1 Y-0.087
G1 X-0.125
M67 E0 Q0.5
G1 X-15
M67 E0 Q0
G1 X-1.927 F1200
M67 E0 Q0.5
G1 X-0.727 F300
M67 E0 Q0
G1 X-5.341 F1200
M67 E0 Q0.5
G1 X-0.728 F300
M67 E0 Q0
G1 X-0.125
G1 Y-0.088
G1 X0.121
M67 E0 Q0.5
G1 X0.726
M67 E0 Q0
G1 X5.353 F1200
M67 E0 Q0.5
G1 X0.726 F300
M67 E0 Q0
G1 X1.922 F1200
M67 E0 Q0.5
G1 X15 F300
M67 E0 Q0
G1 X0.125
G1 Y-0.088
G1 X-0.125
M67 E0 Q0.5
G1 X-15
M67 E0 Q0
G1 X-1.92 F1200
M67 E0 Q0.5
G1 X-0.725 F300
M67 E0 Q0
G1 X-5.359 F1200
M67 E0 Q0.5
G1 X-0.725 F300
M67 E0 Q0
G1 X-0.125
G1 Y-0.088
G1 X0.129
M67 E0 Q0.5
G1 X0.726
M67 E0 Q0
G1 X5.348 F1200
M67 E0 Q0.5
G1 X0.727 F300
M67 E0 Q0
G1 X1.924 F1200
M67 E0 Q0.5
G1 X15 F300
M67 E0 Q0
G1 X0.125
G1 Y-0.088
G1 X-0.125
M67 E0 Q0.5
G1 X-15
M67 E0 Q0
G1 X-1.928 F1200
M67 E0 Q0.5
G1 X-0.731 F300
M67 E0 Q0
G1 X-5.331 F1200
M67 E0 Q0.5
G1 X-0.73 F300
M67 E0 Q0
G1 X-0.125
G1 X0.006Y-0.087
G1 X0.125
M67 E0 Q0.5
G1 X0.742
M67 E0 Q0
G1 X5.295 F1200
M67 E0 Q0.5
G1 X0.741 F300
M67 E0 Q0
G1 X1.936 F1200
M67 E0 Q0.5
G1 X15 F300
M67 E0 Q0
G1 X0.125
G1 Y-0.088
G1 X-0.125
M67 E0 Q0.5
G1 X-15
M67 E0 Q0
G1 X-1.95 F1200
M67 E0 Q0.5
G1 X-0.752 F300
M67 E0 Q0
G1 X-5.246 F1200
M67 E0 Q0.5
G1 X-0.751 F300
M67 E0 Q0
G1 X-0.125
G1 X0.014Y-0.088
G1 X0.125
M67 E0 Q0.5
G1 X0.771
M67 E0 Q0
G1 X5.179 F1200
M67 E0 Q0.5
G1 X0.771 F300
M67 E0 Q0
G1 X1.964 F1200
M67 E0 Q0.5
G1 X15 F300
M67 E0 Q0
G1 X0.125
G1 Y-0.088
G1 X-0.125
M67 E0 Q0.5
G1 X-15
M67 E0 Q0
G1 X-1.984 F1200
M67 E0 Q0.5
G1 X-0.801 F300
M67 E0 Q0
G1 X-5.08 F1200
M67 E0 Q0.5
G1 X-0.8 F300
M67 E0 Q0
G1 X-0.125
G1 X0.026Y-0.087
G1 X0.125
M67 E0 Q0.5
G1 X0.838
M67 E0 Q0
G1 X4.954 F1200
M67 E0 Q0.5
G1 X0.838 F300
M67 E0 Q0
G1 X2.009 F1200
M67 E0 Q0.5
G1 X15 F300
M67 E0 Q0
G1 X0.125
G1 Y-0.088
G1 X-0.125
M67 E0 Q0.5
G1 X-15
M67 E0 Q0
G1 X-2.034 F1200
M67 E0 Q0.5
G1 X-0.894 F300
M67 E0 Q0
G1 X-4.791 F1200
M67 E0 Q0.5
G1 X-0.894 F300
M67 E0 Q0
G1 X-0.125
G1 X0.038Y-0.088
G1 X0.125
M67 E0 Q0.5
G1 X0.963
M67 E0 Q0
G1 X4.578 F1200
M67 E0 Q0.5
G1 X0.961 F300
M67 E0 Q0
G1 X2.073 F1200
M67 E0 Q0.5
G1 X15 F300
M67 E0 Q0
G1 X0.125
G1 Y-0.088
G1 X-0.125
M67 E0 Q0.5
G1 X-15
M67 E0 Q0
G1 X-2.111 F1200
M67 E0 Q0.5
G1 X-1.068 F300
M67 E0 Q0
G1 X-4.287 F1200
M67 E0 Q0.5
G1 X-1.07 F300
M67 E0 Q0
G1 X-0.125
G1 X0.048Y-0.088
G1 X0.125
M67 E0 Q0.5
G1 X1.239
M67 E0 Q0
G1 X3.853 F1200
M67 E0 Q0.5
G1 X1.237 F300
M67 E0 Q0
G1 X2.159 F1200
M67 E0 Q0.5
G1 X15 F300
M67 E0 Q0
G1 X0.125
G1 Y-0.087
G1 X-0.125
M67 E0 Q0.5
G1 X-15
M67 E0 Q0
G1 X-2.213 F1200
M67 E0 Q0.5
G1 X-1.48 F300
M67 E0 Q0
G1 X-3.265 F1200
M67 E0 Q0.5
G1 X-1.475 F300
M67 E0 Q0
G1 X-0.125
G1 X0.063Y-0.088
G1 X0.125
M67 E0 Q0.5
G1 X2.058
M67 E0 Q0
G1 X1.97 F1200
M67 E0 Q0.5
G1 X2.066 F300
M67 E0 Q0
G1 X2.276 F1200
M67 E0 Q0.5
G1 X15 F300
M67 E0 Q0
G1 X0.125
G1 Y-0.088
G1 X-0.125
M67 E0 Q0.5
G1 X-15
M67 E0 Q0
G1 X-2.349 F1200
M67 E0 Q0.5
G1 X-5.946 F300
M67 E0 Q0
G1 X-0.125
G1 X0.085Y-0.088
G1 X0.125
M67 E0 Q0.5
G1 X5.777
M67 E0 Q0
G1 X2.433 F1200
M67 E0 Q0.5
G1 X15 F300
M67 E0 Q0
G1 X0.125
G1 Y-0.087
G1 X-0.125
M67 E0 Q0.5
G1 X-15
M67 E0 Q0
G1 X-2.529 F1200
M67 E0 Q0.5
G1 X-5.582 F300
M67 E0 Q0
G1 X-0.125
G1 X0.119Y-0.088
G1 X0.125
M67 E0 Q0.5
G1 X5.346
M67 E0 Q0
G1 X2.646 F1200
M67 E0 Q0.5
G1 X15 F300
M67 E0 Q0
G1 X0.125
G1 Y-0.088
G1 X-0.125
M67 E0 Q0.5
G1 X-15
M67 E0 Q0
G1 X-2.779 F1200
M67 E0 Q0.5
G1 X-5.078 F300
M67 E0 Q0
G1 X-0.125
G1 X0.167Y-0.088
G1 X0.125
M67 E0 Q0.5
G1 X4.75
M67 E0 Q0
G1 X2.94 F1200
M67 E0 Q0.5
G1 X15 F300
M67 E0 Q0
G1 X0.125
G1 Y-0.088
G1 X-0.125
M67 E0 Q0.5
G1 X-15
M67 E0 Q0
G1 X-3.144 F1200
M67 E0 Q0.5
G1 X-4.34 F300
M67 E0 Q0
G1 X-0.125
G1 X0.257Y-0.087
G1 X0.125
M67 E0 Q0.5
G1 X3.826
M67 E0 Q0
G1 X3.401 F1200
M67 E0 Q0.5
G1 X15 F300
M67 E0 Q0
G1 X0.125
G1 Y-0.088
G1 X-0.125
M67 E0 Q0.5
G1 X-15
M67 E0 Q0
G1 X-3.745 F1200
M67 E0 Q0.5
G1 X-3.139 F300
M67 E0 Q0
G1 X-0.125
G1 X0.557Y-0.088
G1 X0.125
M67 E0 Q0.5
G1 X2.017
M67 E0 Q0
G1 X4.31 F1200
M67 E0 Q0.5
G1 X15 F300
M67 E0 Q0
G1 X0.125
G1 Y-0.088
G1 X-0.125
M67 E0 Q0.5
G1 X-15
M67 E0 Q0
G1 X-0.125
G1 Y-0.087
G1 X0.125
M67 E0 Q0.5
G1 X15
M67 E0 Q0
G1 X0.125
G1 Y-0.088
G1 X-0.125
M67 E0 Q0.5
G1 X-15
M67 E0 Q0
G1 X-0.125
G1 Y-0.088
G1 X0.125
M67 E0 Q0.5
G1 X15
M67 E0 Q0
G1 X0.125
G1 Y-0.088
G1 X-0.125
M67 E0 Q0.5
G1 X-15
M67 E0 Q0
G1 X-0.125
G1 Y-0.088
G1 X0.125
M67 E0 Q0.5
G1 X15
M67 E0 Q0
G1 X0.125
G1 Y-0.087
G1 X-0.125
M67 E0 Q0.5
G1 X-15
M67 E0 Q0
G1 X-0.125
G1 Y-0.088
G1 X0.125
M67 E0 Q0.5
G1 X15
M67 E0 Q0
G1 X0.125
G1 Y-0.088
G1 X-0.125
M67 E0 Q0.5
G1 X-15
M67 E0 Q0
G1 X-0.125
G1 Y-0.088
G1 X0.125
M67 E0 Q0.5
G1 X15
M67 E0 Q0
G1 X0.125
G1 Y-0.087
G1 X-0.125
M67 E0 Q0.5
G1 X-15
M67 E0 Q0
G1 X-0.125
G1 Y-0.088
G1 X0.125
M67 E0 Q0.5
G1 X15
M67 E0 Q0
G1 X0.125
G1 Y-0.088
G1 X-0.125
M67 E0 Q0.5
G1 X-15
M67 E0 Q0
G1 X-0.125
G1 Y-0.088
G1 X0.125
M67 E0 Q0.5
G1 X15
M67 E0 Q0
G1 X0.125
G1 Y-0.088
G1 X-0.125
M67 E0 Q0.5
G1 X-15
M67 E0 Q0
G1 X-2.055 F1200
M67 E0 Q0.5
G1 X-1.252 F300
M67 E0 Q0
G1 X-0.125
G1 Y-0.087
G1 X0.125
M67 E0 Q0.5
G1 X1.252
M67 E0 Q0
G1 X2.055 F1200
M67 E0 Q0.5
G1 X15 F300
M67 E0 Q0
G1 X0.125
G1 Y-0.088
G1 X-0.125
M67 E0 Q0.5
G1 X-15
M67 E0 Q0
G1 X-2.055 F1200
M67 E0 Q0.5
G1 X-1.252 F300
M67 E0 Q0
G1 X-0.125
G1 Y-0.088
G1 X0.125
M67 E0 Q0.5
G1 X1.252
M67 E0 Q0
G1 X2.055 F1200
M67 E0 Q0.5
G1 X15 F300
M67 E0 Q0
G1 X0.125
G1 Y-0.088
G1 X-0.125
M67 E0 Q0.5
G1 X-15
M67 E0 Q0
G1 X-2.055 F1200
M67 E0 Q0.5
G1 X-1.252 F300
M67 E0 Q0
G1 X-0.125
G1 Y-0.087
G1 X0.125
M67 E0 Q0.5
G1 X1.252
M67 E0 Q0
G1 X2.055 F1200
M67 E0 Q0.5
G1 X15 F300
M67 E0 Q0
G1 X0.125
G1 Y-0.088
G1 X-0.125
M67 E0 Q0.5
G1 X-15
M67 E0 Q0
G1 X-2.055 F1200
M67 E0 Q0.5
G1 X-1.252 F300
M67 E0 Q0
G1 X-0.125
G1 Y-0.088
G1 X0.125
M67 E0 Q0.5
G1 X1.252
M67 E0 Q0
G1 X2.055 F1200
M67 E0 Q0.5
G1 X15 F300
M67 E0 Q0
G1 X0.125
G1 Y-0.088
G1 X-0.125
M67 E0 Q0.5
G1 X-15
M67 E0 Q0
G1 X-2.055 F1200
M67 E0 Q0.5
G1 X-1.252 F300
M67 E0 Q0
G1 X-0.125
G1 Y-0.088
G1 X0.125
M67 E0 Q0.5
G1 X1.252
M67 E0 Q0
G1 X2.055 F1200
M67 E0 Q0.5
G1 X15 F300
M67 E0 Q0
G1 X0.125
G1 Y-0.087
G1 X-0.125
M67 E0 Q0.5
G1 X-15
M67 E0 Q0
G1 X-2.055 F1200
M67 E0 Q0.5
G1 X-1.252 F300
M67 E0 Q0
G1 X-0.125
G1 Y-0.088
G1 X0.125
M67 E0 Q0.5
G1 X1.252
M67 E0 Q0
G1 X2.055 F1200
M67 E0 Q0.5
G1 X15 F300
M67 E0 Q0
G1 X0.125
G1 Y-0.088
G1 X-0.125
M67 E0 Q0.5
G1 X-15
M67 E0 Q0
G1 X-0.125
G1 Y-0.088
G1 X0.125
M67 E0 Q0.5
G1 X15
M67 E0 Q0
G1 X0.125
G1 Y-0.087
G1 X-0.125
M67 E0 Q0.5
G1 X-15
M67 E0 Q0
G1 X-0.125
G1 Y-0.088
G1 X0.125
M67 E0 Q0.5
G1 X15
M67 E0 Q0
G1 X0.125
G1 Y-0.088
G1 X-0.125
M67 E0 Q0.5
G1 X-15
M67 E0 Q0
G1 X-0.125
G1 Y-0.088
G1 X0.125
M67 E0 Q0.5
G1 X15
M67 E0 Q0
G1 X0.125
G1 Y-0.088
G1 X-0.125
M67 E0 Q0.5
G1 X-15
M67 E0 Q0
G1 X-0.125
G1 Y-0.087
G1 X0.125
M67 E0 Q0.5
G1 X15
M67 E0 Q0
G1 X0.125
G1 Y-0.088
G1 X-0.125
M67 E0 Q0.5
G1 X-15
M67 E0 Q0
G1 X-0.125
G1 Y-0.088
G1 X0.125
M67 E0 Q0.5
G1 X15
M67 E0 Q0
G1 X0.125
G1 Y-0.088
G1 X-0.125
M67 E0 Q0.5
G1 X-15
M67 E0 Q0
G1 X-0.125
G1 Y-0.087
G1 X0.125
M67 E0 Q0.5
G1 X15
M67 E0 Q0
G1 X0.125
G1 Y-0.088
G1 X-0.125
M67 E0 Q0.5
G1 X-15
M67 E0 Q0
G1 X-0.125
G1 Y-0.088
G1 X0.125
M67 E0 Q0.5
G1 X15
M67 E0 Q0
G1 X0.125
G1 Y-0.088
G1 X-0.125
M67 E0 Q0.5
G1 X-15
M67 E0 Q0
G1 X-4.104 F1200
M67 E0 Q0.5
G1 X-2.453 F300
M67 E0 Q0
G1 X-0.125
G1 X-0.463Y-0.088
G1 X0.125
M67 E0 Q0.5
G1 X3.376
M67 E0 Q0
G1 X3.644 F1200
M67 E0 Q0.5
G1 X15 F300
M67 E0 Q0
G1 X0.125
G1 Y-0.087
G1 X-0.125
M67 E0 Q0.5
G1 X-15
M67 E0 Q0
G1 X-3.328 F1200
M67 E0 Q0.5
G1 X-4.008 F300
M67 E0 Q0
G1 X-0.125
G1 X-0.236Y-0.088
G1 X0.125
M67 E0 Q0.5
G1 X4.481
M67 E0 Q0
G1 X3.091 F1200
M67 E0 Q0.5
G1 X15 F300
M67 E0 Q0
G1 X0.125
G1 Y-0.088
G1 X-0.125
M67 E0 Q0.5
G1 X-15
M67 E0 Q0
G1 X-2.9 F1200
M67 E0 Q0.5
G1 X-4.861 F300
M67 E0 Q0
G1 X-0.125
G1 X-0.158Y-0.088
G1 X0.125
M67 E0 Q0.5
G1 X5.179
M67 E0 Q0
G1 X2.74 F1200
M67 E0 Q0.5
G1 X15 F300
M67 E0 Q0
G1 X0.125
G1 Y-0.087
G1 X-0.125
M67 E0 Q0.5
G1 X-15
M67 E0 Q0
G1 X-2.612 F1200
M67 E0 Q0.5
G1 X-5.43 F300
M67 E0 Q0
G1 X-0.125
G1 X-0.109Y-0.088
G1 X0.125
M67 E0 Q0.5
G1 X5.648
M67 E0 Q0
G1 X2.503 F1200
M67 E0 Q0.5
G1 X15 F300
M67 E0 Q0
G1 X0.125
G1 Y-0.088
G1 X-0.125
M67 E0 Q0.5
G1 X-15
M67 E0 Q0
G1 X-2.405 F1200
M67 E0 Q0.5
G1 X-5.841 F300
M67 E0 Q0
G1 X-0.125
G1 X-0.078Y-0.088
G1 X0.125
M67 E0 Q0.5
G1 X5.996
M67 E0 Q0
G1 X2.328 F1200
M67 E0 Q0.5
G1 X15 F300
M67 E0 Q0
G1 X0.125
G1 Y-0.088
G1 X-0.125
M67 E0 Q0.5
G1 X-15
M67 E0 Q0
G1 X-2.254 F1200
M67 E0 Q0.5
G1 X-1.768 F300
M67 E0 Q0
G1 X-2.56 F1200
M67 E0 Q0.5
G1 X-1.814 F300
M67 E0 Q0
G1 X-0.125
G1 X-0.057Y-0.087
G1 X0.125
M67 E0 Q0.5
G1 X1.397
M67 E0 Q0
G1 X3.469 F1200
M67 E0 Q0.5
G1 X1.39 F300
M67 E0 Q0
G1 X2.197 F1200
M67 E0 Q0.5
G1 X15 F300
M67 E0 Q0
G1 X0.125
G1 Y-0.088
G1 X-0.125
M67 E0 Q0.5
G1 X-15
M67 E0 Q0
G1 X-2.142 F1200
M67 E0 Q0.5
G1 X-1.168 F300
M67 E0 Q0
G1 X-4.031 F1200
M67 E0 Q0.5
G1 X-1.166 F300
M67 E0 Q0
G1 X-0.125
G1 X-0.043Y-0.088
G1 X0.125
M67 E0 Q0.5
G1 X1.033
M67 E0 Q0
G1 X4.385 F1200
M67 E0 Q0.5
G1 X1.032 F300
M67 E0 Q0
G1 X2.1 F1200
M67 E0 Q0.5
G1 X15 F300
M67 E0 Q0
G1 X0.125
G1 Y-0.088
G1 X-0.125
M67 E0 Q0.5
G1 X-15
M67 E0 Q0
G1 X-2.061 F1200
M67 E0 Q0.5
G1 X-0.94 F300
M67 E0 Q0
G1 X-4.646 F1200
M67 E0 Q0.5
G1 X-0.941 F300
M67 E0 Q0
G1 X-0.125
G1 X-0.035Y-0.087
G1 X0.125
M67 E0 Q0.5
G1 X0.875
M67 E0 Q0
G1 X4.846 F1200
M67 E0 Q0.5
G1 X0.875 F300
M67 E0 Q0
G1 X2.027 F1200
M67 E0 Q0.5
G1 X15 F300
M67 E0 Q0
G1 X0.125
G1 Y-0.088
G1 X-0.125
M67 E0 Q0.5
G1 X-15
M67 E0 Q0
G1 X-2.001 F1200
M67 E0 Q0.5
G1 X-0.822 F300
M67 E0 Q0
G1 X-5.001 F1200
M67 E0 Q0.5
G1 X-0.824 F300
M67 E0 Q0
G1 X-0.125
G1 X-0.025Y-0.088
G1 X0.125
M67 E0 Q0.5
G1 X0.793
M67 E0 Q0
G1 X5.112 F1200
M67 E0 Q0.5
G1 X0.792 F300
M67 E0 Q0
G1 X1.976 F1200
M67 E0 Q0.5
G1 X15 F300
M67 E0 Q0
G1 X0.125
G1 Y-0.088
G1 X-0.125
M67 E0 Q0.5
G1 X-15
M67 E0 Q0
G1 X-1.96 F1200
M67 E0 Q0.5
G1 X-0.765 F300
M67 E0 Q0
G1 X-5.198 F1200
M67 E0 Q0.5
G1 X-0.767 F300
M67 E0 Q0
G1 X-0.125
G1 X-0.014Y-0.088
G1 X0.125
M67 E0 Q0.5
G1 X0.747
M67 E0 Q0
G1 X5.266 F1200
M67 E0 Q0.5
G1 X0.746 F300
M67 E0 Q0
G1 X1.945 F1200
M67 E0 Q0.5
G1 X15 F300
M67 E0 Q0
G1 X0.125
G1 Y-0.087
G1 X-0.125
M67 E0 Q0.5
G1 X-15
M67 E0 Q0
G1 X-1.932 F1200
M67 E0 Q0.5
G1 X-0.74 F300
M67 E0 Q0
G1 X-5.305 F1200
M67 E0 Q0.5
G1 X-0.741 F300
M67 E0 Q0
G1 X-0.125
G1 Y-0.088
G1 X0.121
M67 E0 Q0.5
G1 X0.727
M67 E0 Q0
G1 X5.34 F1200
M67 E0 Q0.5
G1 X0.728 F300
M67 E0 Q0
G1 X1.927 F1200
M67 E0 Q0.5
G1 X15 F300
M67 E0 Q0
G1 X0.125
G1 Y-0.088
G1 X-0.125
M67 E0 Q0.5
G1 X-15
M67 E0 Q0
G1 X-1.923 F1200
M67 E0 Q0.5
G1 X-0.726 F300
M67 E0 Q0
G1 X-5.351 F1200
M67 E0 Q0.5
G1 X-0.726 F300
M67 E0 Q0
G1 X-0.125
G1 Y-0.088
G1 X0.121
M67 E0 Q0.5
G1 X0.725
M67 E0 Q0
G1 X5.361 F1200
M67 E0 Q0.5
G1 X0.725 F300
M67 E0 Q0
G1 X1.919 F1200
M67 E0 Q0.5
G1 X15 F300
M67 E0 Q0
G1 X0.125
G1 Y-0.087
G1 X-0.125
M67 E0 Q0.5
G1 X-15
M67 E0 Q0
G1 X-1.923 F1200
M67 E0 Q0.5
G1 X-0.727 F300
M67 E0 Q0
G1 X-5.349 F1200
M67 E0 Q0.5
G1 X-0.727 F300
M67 E0 Q0
G1 X-0.125
G1 Y-0.088
G1 X0.13
M67 E0 Q0.5
G1 X0.728
M67 E0 Q0
G1 X5.337 F1200
M67 E0 Q0.5
G1 X0.728 F300
M67 E0 Q0
G1 X1.928 F1200
M67 E0 Q0.5
G1 X15 F300
M67 E0 Q0
G1 X0.125
G1 Y-0.088
G1 X-0.125
M67 E0 Q0.5
G1 X-15
M67 E0 Q0
G1 X-1.933 F1200
M67 E0 Q0.5
G1 X-0.741 F300
M67 E0 Q0
G1 X-5.301 F1200
M67 E0 Q0.5
G1 X-0.741 F300
M67 E0 Q0
G1 X-0.125
G1 X0.015Y-0.088
G1 X0.125
M67 E0 Q0.5
G1 X0.748
M67 E0 Q0
G1 X5.256 F1200
M67 E0 Q0.5
G1 X0.75 F300
M67 E0 Q0
G1 X1.947 F1200
M67 E0 Q0.5
G1 X15 F300
M67 E0 Q0
G1 X0.125
G1 Y-0.088
G1 X-0.125
M67 E0 Q0.5
G1 X-15
M67 E0 Q0
G1 X-1.962 F1200
M67 E0 Q0.5
G1 X-0.768 F300
M67 E0 Q0
G1 X-5.189 F1200
M67 E0 Q0.5
G1 X-0.768 F300
M67 E0 Q0
G1 X-0.125
G1 X0.018Y-0.087
G1 X0.125
M67 E0 Q0.5
G1 X0.796
M67 E0 Q0
G1 X5.096 F1200
M67 E0 Q0.5
G1 X0.797 F300
M67 E0 Q0
G1 X1.98 F1200
M67 E0 Q0.5
G1 X15 F300
M67 E0 Q0
G1 X0.125
G1 Y-0.088
G1 X-0.125
M67 E0 Q0.5
G1 X-15
M67 E0 Q0
G1 X-2.005 F1200
M67 E0 Q0.5
G1 X-0.831 F300
M67 E0 Q0
G1 X-4.977 F1200
M67 E0 Q0.5
G1 X-0.83 F300
M67 E0 Q0
G1 X-0.125
G1 X0.026Y-0.088
G1 X0.125
M67 E0 Q0.5
G1 X0.882
M67 E0 Q0
G1 X4.822 F1200
M67 E0 Q0.5
G1 X0.883 F300
M67 E0 Q0
G1 X2.03 F1200
M67 E0 Q0.5
G1 X15 F300
M67 E0 Q0
G1 X0.125
G1 Y-0.088
G1 X-0.125
M67 E0 Q0.5
G1 X-15
M67 E0 Q0
G1 X-2.067 F1200
M67 E0 Q0.5
G1 X-0.951 F300
M67 E0 Q0
G1 X-4.612 F1200
M67 E0 Q0.5
G1 X-0.951 F300
M67 E0 Q0
G1 X-0.125
G1 X0.039Y-0.087
G1 X0.125
M67 E0 Q0.5
G1 X1.051
M67 E0 Q0
G1 X4.335 F1200
M67 E0 Q0.5
G1 X1.051 F300
M67 E0 Q0
G1 X2.105 F1200
M67 E0 Q0.5
G1 X15 F300
M67 E0 Q0
G1 X0.125
G1 Y-0.088
G1 X-0.125
M67 E0 Q0.5
G1 X-15
M67 E0 Q0
G1 X-2.151 F1200
M67 E0 Q0.5
G1 X-1.199 F300
M67 E0 Q0
G1 X-3.943 F1200
M67 E0 Q0.5
G1 X-1.203 F300
M67 E0 Q0
G1 X-0.125
G1 X0.055Y-0.088
G1 X0.125
M67 E0 Q0.5
G1 X1.439
M67 E0 Q0
G1 X3.355 F1200
M67 E0 Q0.5
G1 X1.442 F300
M67 E0 Q0
G1 X2.205 F1200
M67 E0 Q0.5
G1 X15 F300
M67 E0 Q0
G1 X0.125
G1 Y-0.088
G1 X-0.125
M67 E0 Q0.5
G1 X-15
M67 E0 Q0
G1 X-2.265 F1200
M67 E0 Q0.5
G1 X-1.895 F300
M67 E0 Q0
G1 X-2.334 F1200
M67 E0 Q0.5
G1 X-1.887 F300
M67 E0 Q0
G1 X-0.125
G1 X0.074Y-0.088
G1 X0.125
M67 E0 Q0.5
G1 X5.969
M67 E0 Q0
G1 X2.338 F1200
M67 E0 Q0.5
G1 X15 F300
M67 E0 Q0
G1 X0.125
G1 Y-0.087
G1 X-0.125
M67 E0 Q0.5
G1 X-15
M67 E0 Q0
G1 X-2.419 F1200
M67 E0 Q0.5
G1 X-5.806 F300
M67 E0 Q0
G1 X-0.125
G1 X0.099Y-0.088
G1 X0.125
M67 E0 Q0.5
G1 X5.612
M67 E0 Q0
G1 X2.514 F1200
M67 E0 Q0.5
G1 X15 F300
M67 E0 Q0
G1 X0.125
G1 Y-0.088
G1 X-0.125
M67 E0 Q0.5
G1 X-15
M67 E0 Q0
G1 X-2.628 F1200
M67 E0 Q0.5
G1 X-5.383 F300
M67 E0 Q0
G1 X-0.125
G1 X0.128Y-0.088
G1 X0.125
M67 E0 Q0.5
G1 X5.129
M67 E0 Q0
G1 X2.754 F1200
M67 E0 Q0.5
G1 X15 F300
M67 E0 Q0
G1 X0.125
G1 Y-0.087
G1 X-0.125
M67 E0 Q0.5
G1 X-15
M67 E0 Q0
G1 X-2.916 F1200
M67 E0 Q0.5
G1 X-4.8 F300
M67 E0 Q0
G1 X-0.125
G1 X0.199Y-0.088
G1 X0.125
M67 E0 Q0.5
G1 X4.405
M67 E0 Q0
G1 X3.112 F1200
M67 E0 Q0.5
G1 X15 F300
M67 E0 Q0
G1 X0.125
G1 Y-0.088
G1 X-0.125
M67 E0 Q0.5
G1 X-15
M67 E0 Q0
G1 X-3.358 F1200
M67 E0 Q0.5
G1 X-3.912 F300
M67 E0 Q0
G1 X-0.125
G1 X0.329Y-0.088
G1 X0.125
M67 E0 Q0.5
G1 X3.253
M67 E0 Q0
G1 X3.688 F1200
M67 E0 Q0.5
G1 X15 F300
M67 E0 Q0
G1 X0.125
G1 Y-0.088
G1 X-0.125
M67 E0 Q0.5
G1 X-15
M67 E0 Q0
G1 X-4.187 F1200
M67 E0 Q0.5
G1 X-2.261 F300
M67 E0 Q0
G1 X-0.125
G1 X6.448Y-0.087 F1200
G1 X0.125 F300
M67 E0 Q0.5
G1 X15
M67 E0 Q0
G1 X0.125
G1 Y-0.088
G1 X-0.125
M67 E0 Q0.5
G1 X-15
M67 E0 Q0
G1 X-0.125
G1 Y-0.088
G1 X0.125
M67 E0 Q0.5
G1 X15
M67 E0 Q0
G1 X0.125
G1 Y-0.088
G1 X-0.125
M67 E0 Q0.5
G1 X-15
M67 E0 Q0
G1 X-0.125
G1 Y-0.087
G1 X0.125
M67 E0 Q0.5
G1 X15
M67 E0 Q0
G1 X0.125
G1 Y-0.088
G1 X-0.125
M67 E0 Q0.5
G1 X-15
M67 E0 Q0
G1 X-0.125
G1 Y-0.088
G1 X0.125
M67 E0 Q0.5
G1 X15
M67 E0 Q0
G1 X0.125
G1 Y-0.088
G1 X-0.125
M67 E0 Q0.5
G1 X-15
M67 E0 Q0
G1 X-0.125
G1 X-6.847Y-0.088 F1200
G1 X0.125 F300
M67 E0 Q0.5
G1 X0.776
M67 E0 Q0
G1 X6.071 F1200
M67 E0 Q0.5
G1 X15 F300
M67 E0 Q0
G1 X0.125
G1 Y-0.087
G1 X-0.125
M67 E0 Q0.5
G1 X-15
M67 E0 Q0
G1 X-5.659 F1200
M67 E0 Q0.5
G1 X-1.587 F300
M67 E0 Q0
G1 X-0.125
G1 X-0.233Y-0.088
G1 X0.125
M67 E0 Q0.5
G1 X2.042
M67 E0 Q0
G1 X5.437 F1200
M67 E0 Q0.5
G1 X15 F300
M67 E0 Q0
G1 X0.125
G1 Y-0.088
G1 X-0.125
M67 E0 Q0.5
G1 X-15
M67 E0 Q0
G1 X-5.27 F1200
M67 E0 Q0.5
G1 X-2.39 F300
M67 E0 Q0
G1 X-0.125
G1 X-0.15Y-0.088
G1 X0.125
M67 E0 Q0.5
G1 X2.668
M67 E0 Q0
G1 X5.142 F1200
M67 E0 Q0.5
G1 X15 F300
M67 E0 Q0
G1 X0.125
G1 Y-0.087
G1 X-0.125
M67 E0 Q0.5
G1 X-15
M67 E0 Q0
G1 X-5.035 F1200
M67 E0 Q0.5
G1 X-2.901 F300
M67 E0 Q0
G1 X-0.125
G1 X-0.107Y-0.088
G1 X0.125
M67 E0 Q0.5
G1 X3.104
M67 E0 Q0
G1 X4.939 F1200
M67 E0 Q0.5
G1 X15 F300
M67 E0 Q0
G1 X0.125
G1 Y-0.088
G1 X-0.125
M67 E0 Q0.5
G1 X-15
M67 E0 Q0
G1 X-2.001 F1200
M67 E0 Q0.5
G1 X-0.845 F300
M67 E0 Q0
G1 X-2.016 F1200
M67 E0 Q0.5
G1 X-3.278 F300
M67 E0 Q0
G1 X-0.125
G1 X-0.084Y-0.088
G1 X0.125
M67 E0 Q0.5
G1 X3.433
M67 E0 Q0
G1 X1.983 F1200
M67 E0 Q0.5
G1 X0.829 F300
M67 E0 Q0
G1 X1.979 F1200
M67 E0 Q0.5
G1 X15 F300
M67 E0 Q0
G1 X0.125
G1 Y-0.088
G1 X-0.125
M67 E0 Q0.5
G1 X-15
M67 E0 Q0
G1 X-1.965 F1200
M67 E0 Q0.5
G1 X-0.815 F300
M67 E0 Q0
G1 X-1.955 F1200
M67 E0 Q0.5
G1 X-3.561 F300
M67 E0 Q0
G1 X-0.125
G1 X-0.067Y-0.087
G1 X0.125
M67 E0 Q0.5
G1 X1.635
M67 E0 Q0
G1 X0.405
M67 E0 Q0.5
G1 X1.644
M67 E0 Q0
G1 X1.924 F1200
M67 E0 Q0.5
G1 X0.803 F300
M67 E0 Q0
G1 X1.952 F1200
M67 E0 Q0.5
G1 X15 F300
M67 E0 Q0
G1 X0.125
G1 Y-0.088
G1 X-0.125
M67 E0 Q0.5
G1 X-15
M67 E0 Q0
G1 X-1.943 F1200
M67 E0 Q0.5
G1 X-0.79 F300
M67 E0 Q0
G1 X-1.891 F1200
M67 E0 Q0.5
G1 X-1.22 F300
M67 E0 Q0
G1 X-1.362 F1200
M67 E0 Q0.5
G1 X-1.212 F300
M67 E0 Q0
G1 X-0.125
G1 X-0.054Y-0.088
G1 X0.125
M67 E0 Q0.5
G1 X1.048
M67 E0 Q0
G1 X1.762 F1200
M67 E0 Q0.5
G1 X1.077 F300
M67 E0 Q0
G1 X1.868 F1200
M67 E0 Q0.5
G1 X0.781 F300
M67 E0 Q0
G1 X1.936 F1200
M67 E0 Q0.5
G1 X15 F300
M67 E0 Q0
G1 X0.125
G1 Y-0.088
G1 X-0.125
M67 E0 Q0.5
G1 X-15
M67 E0 Q0
G1 X-1.931 F1200
M67 E0 Q0.5
G1 X-0.77 F300
M67 E0 Q0
G1 X-1.85 F1200
M67 E0 Q0.5
G1 X-0.987 F300
M67 E0 Q0
G1 X-2.021 F1200
M67 E0 Q0.5
G1 X-0.955 F300
M67 E0 Q0
G1 X-0.125
G1 X-0.042Y-0.087
G1 X0.125
M67 E0 Q0.5
G1 X0.887
M67 E0 Q0
G1 X2.228 F1200
M67 E0 Q0.5
G1 X0.925 F300
M67 E0 Q0
G1 X1.822 F1200
M67 E0 Q0.5
G1 X0.765 F300
M67 E0 Q0
G1 X1.929 F1200
M67 E0 Q0.5
G1 X15 F300
M67 E0 Q0
G1 X0.125
G1 Y-0.088
G1 X-0.125
M67 E0 Q0.5
G1 X-15
M67 E0 Q0
G1 X-1.929 F1200
M67 E0 Q0.5
G1 X-0.759 F300
M67 E0 Q0
G1 X-1.8 F1200
M67 E0 Q0.5
G1 X-0.874 F300
M67 E0 Q0
G1 X-2.392 F1200
M67 E0 Q0.5
G1 X-0.836 F300
M67 E0 Q0
G1 X-0.125
G1 X-0.032Y-0.088
G1 X0.125
M67 E0 Q0.5
G1 X0.799
M67 E0 Q0
G1 X2.517 F1200
M67 E0 Q0.5
G1 X0.834 F300
M67 E0 Q0
G1 X1.788 F1200
M67 E0 Q0.5
G1 X0.751 F300
M67 E0 Q0
G1 X1.933 F1200
M67 E0 Q0.5
G1 X15 F300
M67 E0 Q0
G1 X0.125
G1 Y-0.088
G1 X-0.125
M67 E0 Q0.5
G1 X-15
M67 E0 Q0
G1 X-1.937 F1200
M67 E0 Q0.5
G1 X-0.754 F300
M67 E0 Q0
G1 X-1.764 F1200
M67 E0 Q0.5
G1 X-0.795 F300
M67 E0 Q0
G1 X-2.626 F1200
M67 E0 Q0.5
G1 X-0.773 F300
M67 E0 Q0
G1 X-0.125
G1 X-0.023Y-0.088
G1 X0.125
M67 E0 Q0.5
G1 X0.749
M67 E0 Q0
G1 X2.703 F1200
M67 E0 Q0.5
G1 X0.781 F300
M67 E0 Q0
G1 X1.74 F1200
M67 E0 Q0.5
G1 X0.758 F300
M67 E0 Q0
G1 X1.941 F1200
M67 E0 Q0.5
G1 X15 F300
M67 E0 Q0
G1 X0.125
G1 Y-0.087
G1 X-0.125
M67 E0 Q0.5
G1 X-15
M67 E0 Q0
G1 X-1.946 F1200
M67 E0 Q0.5
G1 X-0.761 F300
M67 E0 Q0
G1 X-1.724 F1200
M67 E0 Q0.5
G1 X-0.759 F300
M67 E0 Q0
G1 X-2.761 F1200
M67 E0 Q0.5
G1 X-0.741 F300
M67 E0 Q0
G1 X-0.125
G1 X-0.014Y-0.088
G1 X0.125
M67 E0 Q0.5
G1 X0.727
M67 E0 Q0
G1 X2.807 F1200
M67 E0 Q0.5
G1 X0.746 F300
M67 E0 Q0
G1 X1.712 F1200
M67 E0 Q0.5
G1 X0.755 F300
M67 E0 Q0
G1 X1.959 F1200
M67 E0 Q0.5
G1 X15 F300
M67 E0 Q0
G1 X0.125
G1 Y-0.088
G1 X-0.125
M67 E0 Q0.5
G1 X-15
M67 E0 Q0
G1 X-1.972 F1200
M67 E0 Q0.5
G1 X-0.757 F300
M67 E0 Q0
G1 X-1.692 F1200
M67 E0 Q0.5
G1 X-0.737 F300
M67 E0 Q0
G1 X-2.837 F1200
M67 E0 Q0.5
G1 X-0.724 F300
M67 E0 Q0
G1 X-0.125
G1 X-0.005Y-0.088
G1 X0.125
M67 E0 Q0.5
G1 X0.721
M67 E0 Q0
G1 X2.857 F1200
M67 E0 Q0.5
G1 X0.73 F300
M67 E0 Q0
G1 X1.661 F1200
M67 E0 Q0.5
G1 X0.77 F300
M67 E0 Q0
G1 X1.985 F1200
M67 E0 Q0.5
G1 X15 F300
M67 E0 Q0
G1 X0.125
G1 Y-0.087
G1 X-0.125
M67 E0 Q0.5
G1 X-15
M67 E0 Q0
G1 X-2 F1200
M67 E0 Q0.5
G1 X-0.781 F300
M67 E0 Q0
G1 X-1.639 F1200
M67 E0 Q0.5
G1 X-0.722 F300
M67 E0 Q0
G1 X-2.869 F1200
M67 E0 Q0.5
G1 X-0.718 F300
M67 E0 Q0
G1 X-0.125
G1 Y-0.088
G1 X0.126
M67 E0 Q0.5
G1 X0.719
M67 E0 Q0
G1 X2.872 F1200
M67 E0 Q0.5
G1 X0.71 F300
M67 E0 Q0
G1 X1.621 F1200
M67 E0 Q0.5
G1 X0.782 F300
M67 E0 Q0
G1 X2.024 F1200
M67 E0 Q0.5
G1 X15 F300
M67 E0 Q0
G1 X0.125
G1 Y-0.088
G1 X-0.125
M67 E0 Q0.5
G1 X-15
M67 E0 Q0
G1 X-2.047 F1200
M67 E0 Q0.5
G1 X-0.792 F300
M67 E0 Q0
G1 X-1.594 F1200
M67 E0 Q0.5
G1 X-0.707 F300
M67 E0 Q0
G1 X-2.861 F1200
M67 E0 Q0.5
G1 X-0.723 F300
M67 E0 Q0
G1 X-0.125
G1 Y-0.088
G1 X0.13
M67 E0 Q0.5
G1 X0.727
M67 E0 Q0
G1 X2.845 F1200
M67 E0 Q0.5
G1 X0.707 F300
M67 E0 Q0
G1 X1.552 F1200
M67 E0 Q0.5
G1 X0.817 F300
M67 E0 Q0
G1 X2.071 F1200
M67 E0 Q0.5
G1 X15 F300
M67 E0 Q0
G1 X0.125
G1 Y-0.088
G1 X-0.125
M67 E0 Q0.5
G1 X-15
M67 E0 Q0
G1 X-2.104 F1200
M67 E0 Q0.5
G1 X-0.833 F300
M67 E0 Q0
G1 X-1.52 F1200
M67 E0 Q0.5
G1 X-0.698 F300
M67 E0 Q0
G1 X-2.812 F1200
M67 E0 Q0.5
G1 X-0.741 F300
M67 E0 Q0
G1 X-0.125
G1 X0.012Y-0.087
G1 X0.125
M67 E0 Q0.5
G1 X0.754
M67 E0 Q0
G1 X2.777 F1200
M67 E0 Q0.5
G1 X0.686 F300
M67 E0 Q0
G1 X1.492 F1200
M67 E0 Q0.5
G1 X0.847 F300
M67 E0 Q0
G1 X2.14 F1200
M67 E0 Q0.5
G1 X15 F300
M67 E0 Q0
G1 X0.125
G1 Y-0.088
G1 X-0.125
M67 E0 Q0.5
G1 X-15
M67 E0 Q0
G1 X-2.177 F1200
M67 E0 Q0.5
G1 X-0.881 F300
M67 E0 Q0
G1 X-1.443 F1200
M67 E0 Q0.5
G1 X-0.685 F300
M67 E0 Q0
G1 X-2.713 F1200
M67 E0 Q0.5
G1 X-0.778 F300
M67 E0 Q0
G1 X-0.125
G1 X0.02Y-0.088
G1 X0.125
M67 E0 Q0.5
G1 X0.808
M67 E0 Q0
G1 X2.642 F1200
M67 E0 Q0.5
G1 X0.685 F300
M67 E0 Q0
G1 X1.383 F1200
M67 E0 Q0.5
G1 X0.918 F300
M67 E0 Q0
G1 X2.221 F1200
M67 E0 Q0.5
G1 X15 F300
M67 E0 Q0
G1 X0.125
G1 Y-0.088
G1 X-0.125
M67 E0 Q0.5
G1 X-15
M67 E0 Q0
G1 X-2.272 F1200
M67 E0 Q0.5
G1 X-0.947 F300
M67 E0 Q0
G1 X-1.34 F1200
M67 E0 Q0.5
G1 X-0.669 F300
M67 E0 Q0
G1 X-2.556 F1200
M67 E0 Q0.5
G1 X-0.847 F300
M67 E0 Q0
G1 X-0.125
G1 X0.03Y-0.087
G1 X0.125
M67 E0 Q0.5
G1 X0.897
M67 E0 Q0
G1 X2.447 F1200
M67 E0 Q0.5
G1 X0.66 F300
M67 E0 Q0
G1 X1.269 F1200
M67 E0 Q0.5
G1 X1.004 F300
M67 E0 Q0
G1 X2.324 F1200
M67 E0 Q0.5
G1 X15 F300
M67 E0 Q0
G1 X0.125
G1 Y-0.088
G1 X-0.125
M67 E0 Q0.5
G1 X-15
M67 E0 Q0
G1 X-2.384 F1200
M67 E0 Q0.5
G1 X-1.07 F300
M67 E0 Q0
G1 X-1.181 F1200
M67 E0 Q0.5
G1 X-0.655 F300
M67 E0 Q0
G1 X-2.326 F1200
M67 E0 Q0.5
G1 X-0.951 F300
M67 E0 Q0
G1 X-0.125
G1 X0.042Y-0.088
G1 X0.125
M67 E0 Q0.5
G1 X1.022
M67 E0 Q0
G1 X2.18 F1200
M67 E0 Q0.5
G1 X0.648 F300
M67 E0 Q0
G1 X1.087 F1200
M67 E0 Q0.5
G1 X1.137 F300
M67 E0 Q0
G1 X0.125
G1 X-0.066Y-0.088
G1 X-0.125
M67 E0 Q0.5
G1 X-1.269
M67 E0 Q0
G1 X-0.942
M67 E0 Q0.5
G1 X-0.631
M67 E0 Q0
G1 X-1.995 F1200
M67 E0 Q0.5
G1 X-1.126 F300
M67 E0 Q0
G1 X-0.125
G1 X0.054Y-0.088
G1 X0.125
M67 E0 Q0.5
G1 X1.278
M67 E0 Q0
G1 X1.74 F1200
M67 E0 Q0.5
G1 X0.627 F300
M67 E0 Q0
G1 X0.765
M67 E0 Q0.5
G1 X1.416
M67 E0 Q0
G1 X0.125
G1 X-0.084Y-0.087
G1 X-0.125
M67 E0 Q0.5
G1 X-1.67
M67 E0 Q0
G1 X-0.479
M67 E0 Q0.5
G1 X-0.624
M67 E0 Q0
G1 X-1.388 F1200
M67 E0 Q0.5
G1 X-1.522 F300
M67 E0 Q0
G1 X-0.125
G1 X0.068Y-0.088
G1 X0.125
M67 E0 Q0.5
G1 X5.521
M67 E0 Q0
G1 X0.125
G1 X-0.106Y-0.088
G1 X-0.125
M67 E0 Q0.5
G1 X-5.337
M67 E0 Q0
G1 X-0.125
G1 X0.086Y-0.088
G1 X0.125
M67 E0 Q0.5
G1 X5.14
M67 E0 Q0
G1 X0.125
G1 X-0.134Y-0.087
G1 X-0.125
M67 E0 Q0.5
G1 X-4.9
M67 E0 Q0
G1 X-0.125
G1 X0.115Y-0.088
G1 X0.125
M67 E0 Q0.5
G1 X4.642
M67 E0 Q0
G1 X0.125
G1 X-0.173Y-0.088
G1 X-0.125
M67 E0 Q0.5
G1 X-4.331
M67 E0 Q0
G1 X-0.125
G1 X0.165Y-0.088
G1 X0.125
M67 E0 Q0.5
G1 X3.962
M67 E0 Q0
G1 X0.125
G1 X-0.239Y-0.088
G1 X-0.125
M67 E0 Q0.5
G1 X-3.528
M67 E0 Q0
G1 X-0.125
G1 X0.244Y-0.087
G1 X0.125
M67 E0 Q0.5
G1 X2.982
M67 E0 Q0
G1 X0.125
G1 X-0.427Y-0.088
G1 X-0.125
M67 E0 Q0.5
G1 X-2.192
M67 E0 Q0
G1 X-0.125
G1 X0.919Y-0.088
G1 X0.125
M67 E0 Q0.5
G1 X0.333
M67 E0 Q0
G1 X0.125
G90
; Scan @ 300 mm/min, 50% power
M8
M67 E0 Q0
G0 X357.087 Y316.975 F1200
; Layer 
G91
G1 X-0.125 F300
M67 E0 Q0.5
G1 X-1.577
M67 E0 Q0
G1 X-0.125
G1 X-0.731Y-0.097
G1 X0.125
M67 E0 Q0.5
G1 X3.03
M67 E0 Q0
G1 X0.125
G1 X0.388Y-0.096
G1 X-0.125
M67 E0 Q0.5
G1 X-3.809
M67 E0 Q0
G1 X-0.125
G1 X-0.281Y-0.097
G1 X0.125
M67 E0 Q0.5
G1 X4.373
M67 E0 Q0
G1 X0.125
G1 X0.22Y-0.097
G1 X-0.125
M67 E0 Q0.5
G1 X-4.811
M67 E0 Q0
G1 X-0.125
G1 X-0.177Y-0.096
G1 X0.125
M67 E0 Q0.5
G1 X5.167
M67 E0 Q0
G1 X2.746 F1200
M67 E0 Q0.5
G1 X15 F300
M67 E0 Q0
G1 X0.125
G1 Y-0.097
G1 X-0.125
M67 E0 Q0.5
G1 X-15
M67 E0 Q0
G1 X-2.606 F1200
M67 E0 Q0.5
G1 X-5.443 F300
M67 E0 Q0
G1 X-0.125
G1 X-0.117Y-0.097
G1 X0.125
M67 E0 Q0.5
G1 X5.678
M67 E0 Q0
G1 X2.488 F1200
M67 E0 Q0.5
G1 X15 F300
M67 E0 Q0
G1 X0.125
G1 Y-0.096
G1 X-0.125
M67 E0 Q0.5
G1 X-15
M67 E0 Q0
G1 X-2.383 F1200
M67 E0 Q0.5
G1 X-5.887 F300
M67 E0 Q0
G1 X-0.125
G1 X-0.079Y-0.097
G1 X0.125
M67 E0 Q0.5
G1 X2.625
M67 E0 Q0
G1 X0.941
M67 E0 Q0.5
G1 X2.481
M67 E0 Q0
G1 X2.302 F1200
M67 E0 Q0.5
G1 X15 F300
M67 E0 Q0
G1 X0.125
G1 Y-0.097
G1 X-0.125
M67 E0 Q0.5
G1 X-15
M67 E0 Q0
G1 X-2.227 F1200
M67 E0 Q0.5
G1 X-1.532 F300
M67 E0 Q0
G1 X-3.092 F1200
M67 E0 Q0.5
G1 X-1.573 F300
M67 E0 Q0
G1 X-0.125
G1 X-0.059Y-0.096
G1 X0.125
M67 E0 Q0.5
G1 X1.26
M67 E0 Q0
G1 X3.8 F1200
M67 E0 Q0.5
G1 X1.256 F300
M67 E0 Q0
G1 X2.167 F1200
M67 E0 Q0.5
G1 X15 F300
M67 E0 Q0
G1 X0.125
G1 Y-0.097
G1 X-0.125
M67 E0 Q0.5
G1 X-15
M67 E0 Q0
G1 X-2.113 F1200
M67 E0 Q0.5
G1 X-1.069 F300
M67 E0 Q0
G1 X-4.284 F1200
M67 E0 Q0.5
G1 X-1.071 F300
M67 E0 Q0
G1 X-0.125
G1 X-0.042Y-0.097
G1 X0.125
M67 E0 Q0.5
G1 X0.957
M67 E0 Q0
G1 X4.594 F1200
M67 E0 Q0.5
G1 X0.958 F300
M67 E0 Q0
G1 X2.07 F1200
M67 E0 Q0.5
G1 X15 F300
M67 E0 Q0
G1 X0.125
G1 Y-0.096
G1 X-0.125
M67 E0 Q0.5
G1 X-15
M67 E0 Q0
G1 X-2.031 F1200
M67 E0 Q0.5
G1 X-0.882 F300
M67 E0 Q0
G1 X-4.824 F1200
M67 E0 Q0.5
G1 X-0.882 F300
M67 E0 Q0
G1 X-0.125
G1 X-0.028Y-0.097
G1 X0.125
M67 E0 Q0.5
G1 X0.826
M67 E0 Q0
G1 X4.996 F1200
M67 E0 Q0.5
G1 X0.823 F300
M67 E0 Q0
G1 X2.002 F1200
M67 E0 Q0.5
G1 X15 F300
M67 E0 Q0
G1 X0.125
G1 Y-0.097
G1 X-0.125
M67 E0 Q0.5
G1 X-15
M67 E0 Q0
G1 X-1.974 F1200
M67 E0 Q0.5
G1 X-0.79 F300
M67 E0 Q0
G1 X-5.119 F1200
M67 E0 Q0.5
G1 X-0.792 F300
M67 E0 Q0
G1 X-0.125
G1 X-0.017Y-0.096
G1 X0.125
M67 E0 Q0.5
G1 X0.763
M67 E0 Q0
G1 X5.209 F1200
M67 E0 Q0.5
G1 X0.763 F300
M67 E0 Q0
G1 X1.957 F1200
M67 E0 Q0.5
G1 X15 F300
M67 E0 Q0
G1 X0.125
G1 Y-0.097
G1 X-0.125
M67 E0 Q0.5
G1 X-15
M67 E0 Q0
G1 X-1.942 F1200
M67 E0 Q0.5
G1 X-0.743 F300
M67 E0 Q0
G1 X-5.279 F1200
M67 E0 Q0.5
G1 X-0.743 F300
M67 E0 Q0
G1 X-0.125
G1 X-0.012Y-0.097
G1 X0.125
M67 E0 Q0.5
G1 X0.735
M67 E0 Q0
G1 X5.319 F1200
M67 E0 Q0.5
G1 X0.735 F300
M67 E0 Q0
G1 X1.93 F1200
M67 E0 Q0.5
G1 X15 F300
M67 E0 Q0
G1 X0.125
G1 Y-0.096
G1 X-0.125
M67 E0 Q0.5
G1 X-15
M67 E0 Q0
G1 X-1.925 F1200
M67 E0 Q0.5
G1 X-0.727 F300
M67 E0 Q0
G1 X-5.345 F1200
M67 E0 Q0.5
G1 X-0.727 F300
M67 E0 Q0
G1 X-0.125
G1 Y-0.097
G1 X0.12
M67 E0 Q0.5
G1 X0.726
M67 E0 Q0
G1 X5.357 F1200
M67 E0 Q0.5
G1 X0.726 F300
M67 E0 Q0
G1 X1.92 F1200
M67 E0 Q0.5
G1 X15 F300
M67 E0 Q0
G1 X0.125
G1 Y-0.097
G1 X-0.125
M67 E0 Q0.5
G1 X-15
M67 E0 Q0
G1 X-1.922 F1200
M67 E0 Q0.5
G1 X-0.726 F300
M67 E0 Q0
G1 X-5.353 F1200
M67 E0 Q0.5
G1 X-0.726 F300
M67 E0 Q0
G1 X-0.125
G1 Y-0.096
G1 X0.13
M67 E0 Q0.5
G1 X0.727
M67 E0 Q0
G1 X5.341 F1200
M67 E0 Q0.5
G1 X0.727 F300
M67 E0 Q0
G1 X1.927 F1200
M67 E0 Q0.5
G1 X15 F300
M67 E0 Q0
G1 X0.125
G1 Y-0.097
G1 X-0.125
M67 E0 Q0.5
G1 X-15
M67 E0 Q0
G1 X-1.932 F1200
M67 E0 Q0.5
G1 X-0.74 F300
M67 E0 Q0
G1 X-5.305 F1200
M67 E0 Q0.5
G1 X-0.74 F300
M67 E0 Q0
G1 X-0.125
G1 X0.015Y-0.097
G1 X0.125
M67 E0 Q0.5
G1 X0.748
M67 E0 Q0
G1 X5.258 F1200
M67 E0 Q0.5
G1 X0.749 F300
M67 E0 Q0
G1 X1.947 F1200
M67 E0 Q0.5
G1 X15 F300
M67 E0 Q0
G1 X0.125
G1 Y-0.096
G1 X-0.125
M67 E0 Q0.5
G1 X-15
M67 E0 Q0
G1 X-1.963 F1200
M67 E0 Q0.5
G1 X-0.77 F300
M67 E0 Q0
G1 X-5.184 F1200
M67 E0 Q0.5
G1 X-0.769 F300
M67 E0 Q0
G1 X-0.125
G1 X0.022Y-0.097
G1 X0.125
M67 E0 Q0.5
G1 X0.801
M67 E0 Q0
G1 X5.077 F1200
M67 E0 Q0.5
G1 X0.802 F300
M67 E0 Q0
G1 X1.984 F1200
M67 E0 Q0.5
G1 X15 F300
M67 E0 Q0
G1 X0.125
G1 Y-0.097
G1 X-0.125
M67 E0 Q0.5
G1 X-15
M67 E0 Q0
G1 X-2.012 F1200
M67 E0 Q0.5
G1 X-0.845 F300
M67 E0 Q0
G1 X-4.935 F1200
M67 E0 Q0.5
G1 X-0.844 F300
M67 E0 Q0
G1 X-0.125
G1 X0.03Y-0.096
G1 X0.125
M67 E0 Q0.5
G1 X0.911
M67 E0 Q0
G1 X4.743 F1200
M67 E0 Q0.5
G1 X0.909 F300
M67 E0 Q0
G1 X2.043 F1200
M67 E0 Q0.5
G1 X15 F300
M67 E0 Q0
G1 X0.125
G1 Y-0.097
G1 X-0.125
M67 E0 Q0.5
G1 X-15
M67 E0 Q0
G1 X-2.085 F1200
M67 E0 Q0.5
G1 X-0.996 F300
M67 E0 Q0
G1 X-4.484 F1200
M67 E0 Q0.5
G1 X-0.997 F300
M67 E0 Q0
G1 X-0.125
G1 X0.043Y-0.097
G1 X0.125
M67 E0 Q0.5
G1 X1.135
M67 E0 Q0
G1 X4.121 F1200
M67 E0 Q0.5
G1 X1.134 F300
M67 E0 Q0
G1 X2.129 F1200
M67 E0 Q0.5
G1 X15 F300
M67 E0 Q0
G1 X0.125
G1 Y-0.096
G1 X-0.125
M67 E0 Q0.5
G1 X-15
M67 E0 Q0
G1 X-2.188 F1200
M67 E0 Q0.5
G1 X-1.365 F300
M67 E0 Q0
G1 X-3.542 F1200
M67 E0 Q0.5
G1 X-1.364 F300
M67 E0 Q0
G1 X-0.125
G1 X0.062Y-0.097
G1 X0.125
M67 E0 Q0.5
G1 X1.782
M67 E0 Q0
G1 X2.578 F1200
M67 E0 Q0.5
G1 X1.788 F300
M67 E0 Q0
G1 X2.249 F1200
M67 E0 Q0.5
G1 X15 F300
M67 E0 Q0
G1 X0.125
G1 Y-0.097
G1 X-0.125
M67 E0 Q0.5
G1 X-15
M67 E0 Q0
G1 X-2.329 F1200
M67 E0 Q0.5
G1 X-5.986 F300
M67 E0 Q0
G1 X-0.125
G1 X0.089Y-0.096
G1 X0.125
M67 E0 Q0.5
G1 X5.808
M67 E0 Q0
G1 X2.418 F1200
M67 E0 Q0.5
G1 X15 F300
M67 E0 Q0
G1 X0.125
G1 Y-0.097
G1 X-0.125
M67 E0 Q0.5
G1 X-15
M67 E0 Q0
G1 X-2.523 F1200
M67 E0 Q0.5
G1 X-5.595 F300
M67 E0 Q0
G1 X-0.125
G1 X0.131Y-0.097
G1 X0.125
M67 E0 Q0.5
G1 X5.336
M67 E0 Q0
G1 X2.651 F1200
M67 E0 Q0.5
G1 X15 F300
M67 E0 Q0
G1 X0.125
G1 Y-0.096
G1 X-0.125
M67 E0 Q0.5
G1 X-15
M67 E0 Q0
G1 X-2.801 F1200
M67 E0 Q0.5
G1 X-5.033 F300
M67 E0 Q0
G1 X-0.125
G1 X0.186Y-0.097
G1 X0.125
M67 E0 Q0.5
G1 X4.664
M67 E0 Q0
G1 X2.984 F1200
M67 E0 Q0.5
G1 X15 F300
M67 E0 Q0
G1 X0.125
G1 Y-0.097
G1 X-0.125
M67 E0 Q0.5
G1 X-15
M67 E0 Q0
G1 X-3.217 F1200
M67 E0 Q0.5
G1 X-4.194 F300
M67 E0 Q0
G1 X-0.125
G1 X0.317Y-0.096
G1 X0.125
M67 E0 Q0.5
G1 X3.559
M67 E0 Q0
G1 X3.535 F1200
M67 E0 Q0.5
G1 X15 F300
M67 E0 Q0
G1 X0.125
G1 Y-0.097
G1 X-0.125
M67 E0 Q0.5
G1 X-15
M67 E0 Q0
G1 X-4.01 F1200
M67 E0 Q0.5
G1 X-2.612 F300
M67 E0 Q0
G1 X-0.125
G1 X6.622Y-0.097 F1200
G1 X0.125 F300
M67 E0 Q0.5
G1 X15
M67 E0 Q0
G1 X0.125
G1 Y-0.096
G1 X-0.125
M67 E0 Q0.5
G1 X-15
M67 E0 Q0
G1 X-0.125
G1 Y-0.097
G1 X0.125
M67 E0 Q0.5
G1 X15
M67 E0 Q0
G1 X0.125
G1 Y-0.097
G1 X-0.125
M67 E0 Q0.5
G1 X-15
M67 E0 Q0
G1 X-0.125
G1 Y-0.096
G1 X0.125
M67 E0 Q0.5
G1 X15
M67 E0 Q0
G1 X0.125
G1 Y-0.097
G1 X-0.125
M67 E0 Q0.5
G1 X-15
M67 E0 Q0
G1 X-0.125
G1 Y-0.097
G1 X0.125
M67 E0 Q0.5
G1 X15
M67 E0 Q0
G1 X0.125
G1 Y-0.096
G1 X-0.125
M67 E0 Q0.5
G1 X-15
M67 E0 Q0
G1 X-0.125
G1 Y-0.097
G1 X0.125
M67 E0 Q0.5
G1 X15
M67 E0 Q0
G1 X0.125
G1 Y-0.097
G1 X-0.125
M67 E0 Q0.5
G1 X-15
M67 E0 Q0
G1 X-0.125
G1 Y-0.096
G1 X0.125
M67 E0 Q0.5
G1 X15
M67 E0 Q0
G1 X0.125
G1 Y-0.097
G1 X-0.125
M67 E0 Q0.5
G1 X-15
M67 E0 Q0
G1 X-0.125
G1 Y-0.097
G1 X0.125
M67 E0 Q0.5
G1 X15
M67 E0 Q0
G1 X0.125
G1 Y-0.096
G1 X-0.125
M67 E0 Q0.5
G1 X-15
M67 E0 Q0
G1 X-2.055 F1200
M67 E0 Q0.5
G1 X-1.252 F300
M67 E0 Q0
G1 X-0.125
G1 Y-0.097
G1 X0.125
M67 E0 Q0.5
G1 X1.252
M67 E0 Q0
G1 X2.055 F1200
M67 E0 Q0.5
G1 X15 F300
M67 E0 Q0
G1 X0.125
G1 Y-0.097
G1 X-0.125
M67 E0 Q0.5
G1 X-15
M67 E0 Q0
G1 X-2.055 F1200
M67 E0 Q0.5
G1 X-1.252 F300
M67 E0 Q0
G1 X-0.125
G1 Y-0.096
G1 X0.125
M67 E0 Q0.5
G1 X1.252
M67 E0 Q0
G1 X2.055 F1200
M67 E0 Q0.5
G1 X15 F300
M67 E0 Q0
G1 X0.125
G1 Y-0.097
G1 X-0.125
M67 E0 Q0.5
G1 X-15
M67 E0 Q0
G1 X-2.055 F1200
M67 E0 Q0.5
G1 X-1.252 F300
M67 E0 Q0
G1 X-0.125
G1 Y-0.097
G1 X0.125
M67 E0 Q0.5
G1 X1.252
M67 E0 Q0
G1 X2.055 F1200
M67 E0 Q0.5
G1 X15 F300
M67 E0 Q0
G1 X0.125
G1 Y-0.096
G1 X-0.125
M67 E0 Q0.5
G1 X-15
M67 E0 Q0
G1 X-2.055 F1200
M67 E0 Q0.5
G1 X-1.252 F300
M67 E0 Q0
G1 X-0.125
G1 Y-0.097
G1 X0.125
M67 E0 Q0.5
G1 X1.252
M67 E0 Q0
G1 X2.055 F1200
M67 E0 Q0.5
G1 X15 F300
M67 E0 Q0
G1 X0.125
G1 Y-0.097
G1 X-0.125
M67 E0 Q0.5
G1 X-15
M67 E0 Q0
G1 X-2.055 F1200
M67 E0 Q0.5
G1 X-1.252 F300
M67 E0 Q0
G1 X-0.125
G1 Y-0.096
G1 X0.125
M67 E0 Q0.5
G1 X1.252
M67 E0 Q0
G1 X2.055 F1200
M67 E0 Q0.5
G1 X15 F300
M67 E0 Q0
G1 X0.125
G1 Y-0.097
G1 X-0.125
M67 E0 Q0.5
G1 X-15
M67 E0 Q0
G1 X-2.055 F1200
M67 E0 Q0.5
G1 X-1.252 F300
M67 E0 Q0
G1 X-0.125
G1 X3.307Y-0.097 F1200
G1 X0.125 F300
M67 E0 Q0.5
G1 X15
M67 E0 Q0
G1 X0.125
G1 Y-0.096
G1 X-0.125
M67 E0 Q0.5
G1 X-15
M67 E0 Q0
G1 X-0.125
G1 Y-0.097
G1 X0.125
M67 E0 Q0.5
G1 X15
M67 E0 Q0
G1 X0.125
G1 Y-0.097
G1 X-0.125
M67 E0 Q0.5
G1 X-15
M67 E0 Q0
G1 X-0.125
G1 Y-0.096
G1 X0.125
M67 E0 Q0.5
G1 X15
M67 E0 Q0
G1 X0.125
G1 Y-0.097
G1 X-0.125
M67 E0 Q0.5
G1 X-15
M67 E0 Q0
G1 X-0.125
G1 Y-0.097
G1 X0.125
M67 E0 Q0.5
G1 X15
M67 E0 Q0
G1 X0.125
G1 Y-0.096
G1 X-0.125
M67 E0 Q0.5
G1 X-15
M67 E0 Q0
G1 X-0.125
G1 Y-0.097
G1 X0.125
M67 E0 Q0.5
G1 X15
M67 E0 Q0
G1 X0.125
G1 Y-0.097
G1 X-0.125
M67 E0 Q0.5
G1 X-15
M67 E0 Q0
G1 X-0.125
G1 Y-0.096
G1 X0.125
M67 E0 Q0.5
G1 X15
M67 E0 Q0
G1 X0.125
G1 Y-0.097
G1 X-0.125
M67 E0 Q0.5
G1 X-15
M67 E0 Q0
G1 X-0.125
G1 Y-0.097
G1 X0.125
M67 E0 Q0.5
G1 X15
M67 E0 Q0
G1 X0.125
G1 Y-0.096
G1 X-0.125
M67 E0 Q0.5
G1 X-15
M67 E0 Q0
G1 X-0.125
G1 Y-0.097
G1 X0.125
M67 E0 Q0.5
G1 X15
M67 E0 Q0
G1 X0.125
G1 Y-0.097
G1 X-0.125
M67 E0 Q0.5
G1 X-15
M67 E0 Q0
G1 X-0.125
G1 Y-0.096
G1 X0.125
M67 E0 Q0.5
G1 X15
M67 E0 Q0
G1 X0.125
G1 Y-0.097
G1 X-0.125
M67 E0 Q0.5
G1 X-15
M67 E0 Q0
G1 X-0.125
G1 Y-0.097
G1 X0.125
M67 E0 Q0.5
G1 X15
M67 E0 Q0
G1 X0.125
G1 Y-0.096
G1 X-0.125
M67 E0 Q0.5
G1 X-15
M67 E0 Q0
G1 X-2.055 F1200
M67 E0 Q0.5
G1 X-0.668 F300
M67 E0 Q0
G1 X-4.386 F1200
M67 E0 Q0.5
G1 X-0.6 F300
M67 E0 Q0
G1 X-0.125
G1 Y-0.097
G1 X0.122
M67 E0 Q0.5
G1 X0.603
M67 E0 Q0
G1 X4.386 F1200
M67 E0 Q0.5
G1 X0.668 F300
M67 E0 Q0
G1 X2.055 F1200
M67 E0 Q0.5
G1 X15 F300
M67 E0 Q0
G1 X0.125
G1 Y-0.097
G1 X-0.125
M67 E0 Q0.5
G1 X-15
M67 E0 Q0
G1 X-2.055 F1200
M67 E0 Q0.5
G1 X-0.668 F300
M67 E0 Q0
G1 X-4.386 F1200
M67 E0 Q0.5
G1 X-0.607 F300
M67 E0 Q0
G1 X-0.125
G1 X-0.008Y-0.096
G1 X0.125
M67 E0 Q0.5
G1 X0.615
M67 E0 Q0
G1 X4.386 F1200
M67 E0 Q0.5
G1 X0.668 F300
M67 E0 Q0
G1 X2.055 F1200
M67 E0 Q0.5
G1 X15 F300
M67 E0 Q0
G1 X0.125
G1 Y-0.097
G1 X-0.125
M67 E0 Q0.5
G1 X-15
M67 E0 Q0
G1 X-2.055 F1200
M67 E0 Q0.5
G1 X-0.668 F300
M67 E0 Q0
G1 X-4.386 F1200
M67 E0 Q0.5
G1 X-0.628 F300
M67 E0 Q0
G1 X-0.125
G1 X-0.012Y-0.097
G1 X0.125
M67 E0 Q0.5
G1 X0.64
M67 E0 Q0
G1 X4.386 F1200
M67 E0 Q0.5
G1 X0.668 F300
M67 E0 Q0
G1 X2.055 F1200
M67 E0 Q0.5
G1 X15 F300
M67 E0 Q0
G1 X0.125
G1 Y-0.096
G1 X-0.125
M67 E0 Q0.5
G1 X-15
M67 E0 Q0
G1 X-2.055 F1200
M67 E0 Q0.5
G1 X-0.668 F300
M67 E0 Q0
G1 X-4.386 F1200
M67 E0 Q0.5
G1 X-0.661 F300
M67 E0 Q0
G1 X-0.125
G1 X-0.026Y-0.097
G1 X0.125
M67 E0 Q0.5
G1 X0.687
M67 E0 Q0
G1 X4.386 F1200
M67 E0 Q0.5
G1 X0.668 F300
M67 E0 Q0
G1 X2.055 F1200
M67 E0 Q0.5
G1 X15 F300
M67 E0 Q0
G1 X0.125
G1 Y-0.097
G1 X-0.125
M67 E0 Q0.5
G1 X-15
M67 E0 Q0
G1 X-2.055 F1200
M67 E0 Q0.5
G1 X-0.668 F300
M67 E0 Q0
G1 X-4.386 F1200
M67 E0 Q0.5
G1 X-0.718 F300
M67 E0 Q0
G1 X-0.125
G1 X-0.045Y-0.096
G1 X0.125
M67 E0 Q0.5
G1 X0.763
M67 E0 Q0
G1 X4.386 F1200
M67 E0 Q0.5
G1 X0.668 F300
M67 E0 Q0
G1 X2.055 F1200
M67 E0 Q0.5
G1 X15 F300
M67 E0 Q0
G1 X0.125
G1 Y-0.097
G1 X-0.125
M67 E0 Q0.5
G1 X-15
M67 E0 Q0
G1 X-2.055 F1200
M67 E0 Q0.5
G1 X-0.668 F300
M67 E0 Q0
G1 X-4.386 F1200
M67 E0 Q0.5
G1 X-0.822 F300
M67 E0 Q0
G1 X-0.125
G1 X-0.08Y-0.097
G1 X0.125
M67 E0 Q0.5
G1 X0.902
M67 E0 Q0
G1 X4.386 F1200
M67 E0 Q0.5
G1 X0.668 F300
M67 E0 Q0
G1 X2.055 F1200
M67 E0 Q0.5
G1 X15 F300
M67 E0 Q0
G1 X0.125
G1 Y-0.096
G1 X-0.125
M67 E0 Q0.5
G1 X-15
M67 E0 Q0
G1 X-2.055 F1200
M67 E0 Q0.5
G1 X-6.097 F300
M67 E0 Q0
G1 X-0.125
G1 X-0.288Y-0.097
G1 X0.125
M67 E0 Q0.5
G1 X6.385
M67 E0 Q0
G1 X2.055 F1200
M67 E0 Q0.5
G1 X15 F300
M67 E0 Q0
G1 X0.125
G1 Y-0.097
G1 X-0.125
M67 E0 Q0.5
G1 X-15
M67 E0 Q0
G1 X-2.055 F1200
M67 E0 Q0.5
G1 X-6.565 F300
M67 E0 Q0
G1 X-0.125
G1 Y-0.096
G1 X0.125
M67 E0 Q0.5
G1 X6.565
M67 E0 Q0
G1 X2.055 F1200
M67 E0 Q0.5
G1 X15 F300
M67 E0 Q0
G1 X0.125
G1 Y-0.097
G1 X-0.125
M67 E0 Q0.5
G1 X-15
M67 E0 Q0
G1 X-2.055 F1200
M67 E0 Q0.5
G1 X-6.565 F300
M67 E0 Q0
G1 X-0.125
G1 Y-0.097
G1 X0.125
M67 E0 Q0.5
G1 X6.565
M67 E0 Q0
G1 X2.055 F1200
M67 E0 Q0.5
G1 X15 F300
M67 E0 Q0
G1 X0.125
G1 Y-0.096
G1 X-0.125
M67 E0 Q0.5
G1 X-15
M67 E0 Q0
G1 X-2.055 F1200
M67 E0 Q0.5
G1 X-6.565 F300
M67 E0 Q0
G1 X-0.125
G1 Y-0.097
G1 X0.125
M67 E0 Q0.5
G1 X6.565
M67 E0 Q0
G1 X2.055 F1200
M67 E0 Q0.5
G1 X15 F300
M67 E0 Q0
G1 X0.125
G1 Y-0.097
G1 X-0.125
M67 E0 Q0.5
G1 X-15
M67 E0 Q0
G1 X-2.055 F1200
M67 E0 Q0.5
G1 X-6.565 F300
M67 E0 Q0
G1 X-0.125
G1 X5.897Y-0.096 F1200
G1 X0.125 F300
M67 E0 Q0.5
G1 X0.668
M67 E0 Q0
G1 X2.055 F1200
M67 E0 Q0.5
G1 X15 F300
M67 E0 Q0
G1 X0.125
G1 Y-0.097
G1 X-0.125
M67 E0 Q0.5
G1 X-15
M67 E0 Q0
G1 X-2.055 F1200
M67 E0 Q0.5
G1 X-0.668 F300
M67 E0 Q0
G1 X-0.125
G1 Y-0.097
G1 X0.125
M67 E0 Q0.5
G1 X0.668
M67 E0 Q0
G1 X2.055 F1200
M67 E0 Q0.5
G1 X15 F300
M67 E0 Q0
G1 X0.125
G1 Y-0.096
G1 X-0.125
M67 E0 Q0.5
G1 X-15
M67 E0 Q0
G1 X-2.055 F1200
M67 E0 Q0.5
G1 X-0.668 F300
M67 E0 Q0
G1 X-0.125
G1 Y-0.097
G1 X0.125
M67 E0 Q0.5
G1 X0.668
M67 E0 Q0
G1 X2.055 F1200
M67 E0 Q0.5
G1 X15 F300
M67 E0 Q0
G1 X0.125
G1 Y-0.097
G1 X-0.125
M67 E0 Q0.5
G1 X-15
M67 E0 Q0
G1 X-2.055 F1200
M67 E0 Q0.5
G1 X-0.668 F300
M67 E0 Q0
G1 X-0.125
G1 Y-0.096
G1 X0.125
M67 E0 Q0.5
G1 X0.668
M67 E0 Q0
G1 X2.055 F1200
M67 E0 Q0.5
G1 X15 F300
M67 E0 Q0
G1 X0.125
G1 Y-0.097
G1 X-0.125
M67 E0 Q0.5
G1 X-15
M67 E0 Q0
G1 X-2.055 F1200
M67 E0 Q0.5
G1 X-0.668 F300
M67 E0 Q0
G1 X-0.125
G1 Y-0.097
G1 X0.125
M67 E0 Q0.5
G1 X0.668
M67 E0 Q0
G1 X2.055 F1200
M67 E0 Q0.5
G1 X15 F300
M67 E0 Q0
G1 X0.125
G1 Y-0.096
G1 X-0.125
M67 E0 Q0.5
G1 X-15
M67 E0 Q0
G1 X-2.055 F1200
M67 E0 Q0.5
G1 X-0.668 F300
M67 E0 Q0
G1 X-0.125
G1 Y-0.097
G1 X0.125
M67 E0 Q0.5
G1 X0.668
M67 E0 Q0
G1 X2.055 F1200
M67 E0 Q0.5
G1 X15 F300
M67 E0 Q0
G1 X0.125
G1 Y-0.097
G1 X-0.125
M67 E0 Q0.5
G1 X-15
M67 E0 Q0
G1 X-2.055 F1200
M67 E0 Q0.5
G1 X-0.668 F300
M67 E0 Q0
G1 X-0.125
G1 X2.723Y-0.096 F1200
G1 X0.125 F300
M67 E0 Q0.5
G1 X15
M67 E0 Q0
G1 X0.125
G1 Y-0.097
G1 X-0.125
M67 E0 Q0.5
G1 X-15
M67 E0 Q0
G1 X-0.125
G1 Y-0.097
G1 X0.125
M67 E0 Q0.5
G1 X15
M67 E0 Q0
G1 X0.125
G1 Y-0.096
G1 X-0.125
M67 E0 Q0.5
G1 X-15
M67 E0 Q0
G1 X-0.125
G1 Y-0.097
G1 X0.125
M67 E0 Q0.5
G1 X15
M67 E0 Q0
G1 X0.125
G1 Y-0.097
G1 X-0.125
M67 E0 Q0.5
G1 X-15
M67 E0 Q0
G1 X-0.125
G1 Y-0.096
G1 X0.125
M67 E0 Q0.5
G1 X15
M67 E0 Q0
G1 X0.125
G1 Y-0.097
G1 X-0.125
M67 E0 Q0.5
G1 X-15
