; LightBurn 1.7.03
; LinuxCNC device profile, absolute coords
; Bounds: X297.95 Y658.31 to X380.05 Y757.69
G21
G90
; Cut @ 6000 mm/min, 20% power
M8
M67 E0 Q0
G0 X337.362 Y663.997 F1200
; Layer 
M67 E0 Q0.2
G1  Y661.312F6000
G1 X337.79
G1 X338.298 Y663.213
G1 X338.401 Y663.61
G1 X338.448 Y663.43
G1 X338.515 Y663.18
G1 X339.029 Y661.312
G1 X339.411
G1  Y663.997
G1 X339.137
G1  Y661.75
G1 X338.513 Y663.997
G1 X338.257
G1 X337.636 Y661.712
G1  Y663.997
G1 X337.362
M67 E0 Q0
G0 X340.842 Y663.757 F1200
M67 E0 Q0.2
G1 X340.699 Y663.89F6000
G1 X340.56 Y663.977
G1 X340.42 Y664.025
G1 X340.27 Y664.041
G1 X340.149 Y664.031
G1 X340.043 Y664.002
G1 X339.952 Y663.953
G1 X339.876 Y663.884
G1 X339.815 Y663.8
G1 X339.772 Y663.706
G1 X339.746 Y663.6
G1 X339.738 Y663.484
G1 X339.751 Y663.347
G1 X339.79 Y663.223
G1 X339.85 Y663.117
G1 X339.926 Y663.034
G1 X340.016 Y662.971
G1 X340.116 Y662.926
G1 X340.213 Y662.9
G1 X340.627 Y662.824
G1 X340.82 Y662.763
G1  Y662.677
G1 X340.803 Y662.505
G1 X340.747 Y662.393
G1 X340.621 Y662.309
G1 X340.447 Y662.281
G1 X340.285 Y662.301
G1 X340.172 Y662.363
G1 X340.095 Y662.475
G1 X340.041 Y662.651
G1 X339.783 Y662.607
G1 X339.83 Y662.42
G1 X339.899 Y662.273
G1 X339.997 Y662.16
G1 X340.132 Y662.077
G1 X340.296 Y662.025
G1 X340.485 Y662.008
G1 X340.665 Y662.023
G1 X340.809 Y662.067
G1 X340.917 Y662.133
G1 X340.992 Y662.214
G1 X341.042 Y662.315
G1 X341.074 Y662.439
G1 X341.084 Y662.557
G1 X341.087 Y662.742
G1  Y663.391
G1 X341.091 Y663.557
G1 X341.096 Y663.681
G1 X341.104 Y663.763
G1 X341.129 Y663.883
G1 X341.17 Y663.997
G1 X340.895
G1 X340.861 Y663.886
G1 X340.842 Y663.757
M67 E0 Q0
G0 X340.82 Y663.021 F1200
M67 E0 Q0.2
G1 X340.641 Y663.089F6000
G1 X340.251 Y663.176
G1 X340.16 Y663.211
G1 X340.1 Y663.256
G1 X340.056 Y663.318
G1 X340.028 Y663.393
G1 X340.019 Y663.475
G1 X340.039 Y663.596
G1 X340.099 Y663.695
G1 X340.197 Y663.761
G1 X340.333 Y663.783
G1 X340.476 Y663.762
G1 X340.604 Y663.699
G1 X340.706 Y663.601
G1 X340.778 Y663.471
G1 X340.81 Y663.333
G1 X340.82 Y663.142
G1  Y663.021
M67 E0 Q0
G0 X342.083 Y663.702 F1200
M67 E0 Q0.2
G1 X342.121 Y663.993F6000
G1 X342.016 Y664.015
G1 X341.922 Y664.022
G1 X341.794 Y664.008
G1 X341.699 Y663.966
G1 X341.632 Y663.9
G1 X341.588 Y663.816
G1 X341.574 Y663.757
G1 X341.564 Y663.673
G1 X341.558 Y663.563
G1  Y663.427
G1  Y662.309
G1 X341.362
G1  Y662.052
G1 X341.556
G1  Y661.571
G1 X341.818 Y661.373
G1  Y662.052
G1 X342.083
G1  Y662.309
G1 X341.818
G1  Y663.446
G1 X341.821 Y663.561
G1 X341.832 Y663.627
G1 X341.85 Y663.663
G1 X341.877 Y663.691
G1 X341.915 Y663.709
G1 X341.967 Y663.715
G1 X342.018 Y663.712
G1 X342.083 Y663.702
M67 E0 Q0
G0 X343.412 Y663.371 F1200
M67 E0 Q0.2
G1 X343.685 Y663.413F6000
G1 X343.646 Y663.553
G1 X343.593 Y663.678
G1 X343.526 Y663.785
G1 X343.446 Y663.876
G1 X343.353 Y663.948
G1 X343.247 Y664
G1 X343.13 Y664.03
G1 X343.001 Y664.041
G1 X342.839 Y664.024
G1 X342.695 Y663.975
G1 X342.568 Y663.893
G1 X342.459 Y663.778
G1 X342.372 Y663.633
G1 X342.309 Y663.462
G1 X342.272 Y663.265
G1 X342.259 Y663.041
G1 X342.272 Y662.809
G1 X342.31 Y662.605
G1 X342.373 Y662.428
G1 X342.461 Y662.279
G1 X342.57 Y662.161
G1 X342.694 Y662.076
G1 X342.832 Y662.025
G1 X342.986 Y662.008
G1 X343.135 Y662.025
G1 X343.269 Y662.075
G1 X343.39 Y662.158
G1 X343.496 Y662.274
G1 X343.582 Y662.42
G1 X343.644 Y662.593
G1 X343.681 Y662.794
G1 X343.693 Y663.021
G1  Y663.109
G1 X342.532
G1 X342.546 Y663.26
G1 X342.575 Y663.392
G1 X342.619 Y663.505
G1 X342.677 Y663.599
G1 X342.746 Y663.674
G1 X342.823 Y663.727
G1 X342.909 Y663.759
G1 X343.002 Y663.77
G1 X343.136 Y663.746
G1 X343.25 Y663.674
G1 X343.341 Y663.551
G1 X343.412 Y663.371
M67 E0 Q0
G0 X342.546 Y662.838 F1200
M67 E0 Q0.2
G1 X343.415F6000
G1 X343.381 Y662.623
G1 X343.315 Y662.47
G1 X343.248 Y662.386
G1 X343.171 Y662.327
G1 X343.084 Y662.291
G1 X342.989 Y662.279
G1 X342.902 Y662.289
G1 X342.822 Y662.317
G1 X342.749 Y662.365
G1 X342.683 Y662.431
G1 X342.587 Y662.609
G1 X342.546 Y662.838
M67 E0 Q0
G0 X344.024 Y663.997 F1200
M67 E0 Q0.2
G1  Y662.052F6000
G1 X344.262
G1  Y662.347
G1 X344.349 Y662.175
G1 X344.429 Y662.074
G1 X344.51 Y662.025
G1 X344.598 Y662.008
G1 X344.733 Y662.035
G1 X344.869 Y662.114
G1 X344.779 Y662.42
G1 X344.682 Y662.367
G1 X344.585 Y662.349
G1 X344.503 Y662.365
G1 X344.43 Y662.414
G1 X344.371 Y662.491
G1 X344.332 Y662.594
G1 X344.299 Y662.778
G1 X344.288 Y662.979
G1  Y663.997
G1 X344.024
M67 E0 Q0
G0 X345.019 Y661.691 F1200
M67 E0 Q0.2
G1  Y661.312F6000
G1 X345.282
G1  Y661.691
G1 X345.019
M67 E0 Q0
G0 X345.019 Y663.997 F1200
M67 E0 Q0.2
G1  Y662.052F6000
G1 X345.282
G1  Y663.997
G1 X345.019
M67 E0 Q0
G0 X346.692 Y663.757 F1200
M67 E0 Q0.2
G1 X346.549 Y663.89F6000
G1 X346.41 Y663.977
G1 X346.27 Y664.025
G1 X346.12 Y664.041
G1 X345.999 Y664.031
G1 X345.893 Y664.002
G1 X345.802 Y663.953
G1 X345.726 Y663.884
G1 X345.665 Y663.8
G1 X345.622 Y663.706
G1 X345.596 Y663.6
G1 X345.588 Y663.484
G1 X345.601 Y663.347
G1 X345.64 Y663.223
G1 X345.7 Y663.117
G1 X345.776 Y663.034
G1 X345.866 Y662.971
G1 X345.966 Y662.926
G1 X346.063 Y662.9
G1 X346.477 Y662.824
G1 X346.67 Y662.763
G1  Y662.677
G1 X346.653 Y662.505
G1 X346.597 Y662.393
G1 X346.471 Y662.309
G1 X346.297 Y662.281
G1 X346.135 Y662.301
G1 X346.022 Y662.363
G1 X345.945 Y662.475
G1 X345.891 Y662.651
G1 X345.633 Y662.607
G1 X345.68 Y662.42
G1 X345.749 Y662.273
G1 X345.847 Y662.16
G1 X345.982 Y662.077
G1 X346.146 Y662.025
G1 X346.335 Y662.008
G1 X346.515 Y662.023
G1 X346.659 Y662.067
G1 X346.767 Y662.133
G1 X346.842 Y662.214
G1 X346.892 Y662.315
G1 X346.924 Y662.439
G1 X346.934 Y662.557
G1 X346.937 Y662.742
G1  Y663.391
G1 X346.941 Y663.557
G1 X346.946 Y663.681
G1 X346.954 Y663.763
G1 X346.979 Y663.883
G1 X347.02 Y663.997
G1 X346.745
G1 X346.711 Y663.886
G1 X346.692 Y663.757
M67 E0 Q0
G0 X346.67 Y663.021 F1200
M67 E0 Q0.2
G1 X346.491 Y663.089F6000
G1 X346.101 Y663.176
G1 X346.01 Y663.211
G1 X345.95 Y663.256
G1 X345.906 Y663.318
G1 X345.878 Y663.393
G1 X345.869 Y663.475
G1 X345.889 Y663.596
G1 X345.949 Y663.695
G1 X346.047 Y663.761
G1 X346.183 Y663.783
G1 X346.326 Y663.762
G1 X346.454 Y663.699
G1 X346.556 Y663.601
G1 X346.628 Y663.471
G1 X346.66 Y663.333
G1 X346.67 Y663.142
G1  Y663.021
M67 E0 Q0
G0 X347.351 Y663.997 F1200
M67 E0 Q0.2
G1  Y661.312F6000
G1 X347.615
G1  Y663.997
G1 X347.351
M67 E0 Q0
G0 X348.597 Y663.997 F1200
M67 E0 Q0.2
G1  Y661.629F6000
G1 X347.89
G1  Y661.312
G1 X349.592
G1  Y661.629
G1 X348.881
G1  Y663.997
G1 X348.597
M67 E0 Q0
G0 X350.582 Y663.371 F1200
M67 E0 Q0.2
G1 X350.855 Y663.413F6000
G1 X350.815 Y663.553
G1 X350.763 Y663.678
G1 X350.696 Y663.785
G1 X350.616 Y663.876
G1 X350.523 Y663.948
G1 X350.417 Y664
G1 X350.3 Y664.03
G1 X350.171 Y664.041
G1 X350.009 Y664.024
G1 X349.865 Y663.975
G1 X349.738 Y663.893
G1 X349.629 Y663.778
G1 X349.542 Y663.633
G1 X349.479 Y663.462
G1 X349.442 Y663.265
G1 X349.429 Y663.041
G1 X349.442 Y662.809
G1 X349.48 Y662.605
G1 X349.543 Y662.428
G1 X349.631 Y662.279
G1 X349.74 Y662.161
G1 X349.864 Y662.076
G1 X350.002 Y662.025
G1 X350.156 Y662.008
G1 X350.305 Y662.025
G1 X350.439 Y662.075
G1 X350.56 Y662.158
G1 X350.666 Y662.274
G1 X350.752 Y662.42
G1 X350.814 Y662.593
G1 X350.851 Y662.794
G1 X350.863 Y663.021
G1  Y663.109
G1 X349.702
G1 X349.716 Y663.26
G1 X349.745 Y663.392
G1 X349.789 Y663.505
G1 X349.847 Y663.599
G1 X349.916 Y663.674
G1 X349.993 Y663.727
G1 X350.079 Y663.759
G1 X350.172 Y663.77
G1 X350.306 Y663.746
G1 X350.42 Y663.674
G1 X350.511 Y663.551
G1 X350.582 Y663.371
M67 E0 Q0
G0 X349.716 Y662.838 F1200
M67 E0 Q0.2
G1 X350.585F6000
G1 X350.551 Y662.623
G1 X350.485 Y662.47
G1 X350.418 Y662.386
G1 X350.341 Y662.327
G1 X350.254 Y662.291
G1 X350.159 Y662.279
G1 X350.072 Y662.289
G1 X349.992 Y662.317
G1 X349.919 Y662.365
G1 X349.853 Y662.431
G1 X349.757 Y662.609
G1 X349.716 Y662.838
M67 E0 Q0
G0 X351.092 Y663.416 F1200
M67 E0 Q0.2
G1 X351.352 Y663.365F6000
G1 X351.394 Y663.538
G1 X351.475 Y663.665
G1 X351.595 Y663.744
G1 X351.755 Y663.77
G1 X351.914 Y663.747
G1 X352.025 Y663.677
G1 X352.091 Y663.577
G1 X352.113 Y663.46
G1 X352.093 Y663.36
G1 X352.035 Y663.284
G1 X351.941 Y663.235
G1 X351.52 Y663.087
G1 X351.363 Y663.014
G1 X351.265 Y662.935
G1 X351.194 Y662.829
G1 X351.15 Y662.705
G1 X351.136 Y662.569
G1 X351.148 Y662.443
G1 X351.183 Y662.328
G1 X351.24 Y662.226
G1 X351.313 Y662.144
G1 X351.386 Y662.091
G1 X351.481 Y662.048
G1 X351.591 Y662.018
G1 X351.708 Y662.008
G1 X351.88 Y662.025
G1 X352.03 Y662.074
G1 X352.15 Y662.152
G1 X352.234 Y662.253
G1 X352.29 Y662.384
G1 X352.325 Y662.554
G1 X352.067 Y662.598
G1 X352.033 Y662.464
G1 X351.966 Y662.363
G1 X351.864 Y662.3
G1 X351.727 Y662.279
G1 X351.572 Y662.298
G1 X351.468 Y662.354
G1 X351.41 Y662.436
G1 X351.391 Y662.53
G1 X351.399 Y662.591
G1 X351.423 Y662.645
G1 X351.464 Y662.694
G1 X351.524 Y662.733
G1 X351.602 Y662.764
G1 X351.994 Y662.902
G1 X352.147 Y662.97
G1 X352.246 Y663.043
G1 X352.321 Y663.143
G1 X352.368 Y663.271
G1 X352.384 Y663.425
G1 X352.365 Y663.585
G1 X352.307 Y663.736
G1 X352.213 Y663.865
G1 X352.085 Y663.961
G1 X351.93 Y664.021
G1 X351.757 Y664.041
G1 X351.614 Y664.031
G1 X351.49 Y664.001
G1 X351.383 Y663.952
G1 X351.295 Y663.883
G1 X351.222 Y663.795
G1 X351.164 Y663.688
G1 X351.121 Y663.562
G1 X351.092 Y663.416
M67 E0 Q0
G0 X353.273 Y663.702 F1200
M67 E0 Q0.2
G1 X353.311 Y663.993F6000
G1 X353.206 Y664.015
G1 X353.112 Y664.022
G1 X352.984 Y664.008
G1 X352.889 Y663.966
G1 X352.822 Y663.9
G1 X352.778 Y663.816
G1 X352.764 Y663.757
G1 X352.754 Y663.673
G1 X352.748 Y663.563
G1  Y663.427
G1  Y662.309
G1 X352.552
G1  Y662.052
G1 X352.746
G1  Y661.571
G1 X353.008 Y661.373
G1  Y662.052
G1 X353.273
G1  Y662.309
G1 X353.008
G1  Y663.446
G1 X353.011 Y663.561
G1 X353.022 Y663.627
G1 X353.04 Y663.663
G1 X353.067 Y663.691
G1 X353.105 Y663.709
G1 X353.157 Y663.715
G1 X353.208 Y663.712
G1 X353.273 Y663.702
M67 E0 Q0
G0 X338.886 Y670.442 F1200
M67 E0 Q0.2
G1  Y667.758F6000
G1 X339.696
G1 X339.885 Y667.764
G1 X340.023 Y667.783
G1 X340.168 Y667.831
G1 X340.288 Y667.909
G1 X340.384 Y668.02
G1 X340.46 Y668.168
G1 X340.509 Y668.343
G1 X340.525 Y668.534
G1 X340.514 Y668.699
G1 X340.481 Y668.85
G1 X340.427 Y668.989
G1 X340.351 Y669.114
G1 X340.246 Y669.217
G1 X340.106 Y669.292
G1 X339.931 Y669.336
G1 X339.721 Y669.351
G1 X339.17
G1  Y670.442
G1 X338.886
M67 E0 Q0
G0 X339.17 Y669.034 F1200
M67 E0 Q0.2
G1 X339.725F6000
G1 X339.853 Y669.026
G1 X339.961 Y669.002
G1 X340.049 Y668.962
G1 X340.116 Y668.906
G1 X340.203 Y668.752
G1 X340.232 Y668.545
G1 X340.215 Y668.389
G1 X340.164 Y668.257
G1 X340.085 Y668.157
G1 X339.985 Y668.098
G1 X339.882 Y668.081
G1 X339.719 Y668.075
G1 X339.17
G1  Y669.034
M67 E0 Q0
G0 X341.877 Y670.202 F1200
M67 E0 Q0.2
G1 X341.734 Y670.335F6000
G1 X341.595 Y670.422
G1 X341.455 Y670.47
G1 X341.305 Y670.486
G1 X341.184 Y670.476
G1 X341.078 Y670.447
G1 X340.987 Y670.398
G1 X340.911 Y670.329
G1 X340.85 Y670.246
G1 X340.807 Y670.151
G1 X340.781 Y670.046
G1 X340.773 Y669.929
G1 X340.786 Y669.793
G1 X340.825 Y669.668
G1 X340.885 Y669.562
G1 X340.961 Y669.479
G1 X341.051 Y669.416
G1 X341.151 Y669.371
G1 X341.248 Y669.346
G1 X341.662 Y669.269
G1 X341.855 Y669.208
G1  Y669.122
G1 X341.838 Y668.95
G1 X341.782 Y668.838
G1 X341.656 Y668.754
G1 X341.482 Y668.726
G1 X341.32 Y668.747
G1 X341.207 Y668.808
G1 X341.13 Y668.921
G1 X341.076 Y669.096
G1 X340.818 Y669.052
G1 X340.865 Y668.865
G1 X340.934 Y668.718
G1 X341.032 Y668.606
G1 X341.167 Y668.522
G1 X341.331 Y668.471
G1 X341.52 Y668.454
G1 X341.7 Y668.468
G1 X341.844 Y668.512
G1 X341.952 Y668.578
G1 X342.027 Y668.66
G1 X342.077 Y668.76
G1 X342.109 Y668.884
G1 X342.119 Y669.002
G1 X342.122 Y669.188
G1  Y669.836
G1 X342.126 Y670.002
G1 X342.131 Y670.127
G1 X342.139 Y670.209
G1 X342.164 Y670.328
G1 X342.205 Y670.442
G1 X341.93
G1 X341.896 Y670.331
G1 X341.877 Y670.202
M67 E0 Q0
G0 X341.855 Y669.466 F1200
M67 E0 Q0.2
G1 X341.676 Y669.534F6000
G1 X341.286 Y669.622
G1 X341.195 Y669.657
G1 X341.135 Y669.702
G1 X341.091 Y669.764
G1 X341.063 Y669.838
G1 X341.054 Y669.92
G1 X341.074 Y670.041
G1 X341.134 Y670.14
G1 X341.232 Y670.206
G1 X341.368 Y670.228
G1 X341.511 Y670.207
G1 X341.639 Y670.145
G1 X341.741 Y670.046
G1 X341.813 Y669.917
G1 X341.845 Y669.778
G1 X341.855 Y669.587
G1  Y669.466
M67 E0 Q0
G0 X342.437 Y669.862 F1200
M67 E0 Q0.2
G1 X342.697 Y669.81F6000
G1 X342.739 Y669.983
G1 X342.82 Y670.111
G1 X342.94 Y670.189
G1 X343.1 Y670.215
G1 X343.259 Y670.192
G1 X343.37 Y670.123
G1 X343.436 Y670.022
G1 X343.458 Y669.906
G1 X343.438 Y669.806
G1 X343.38 Y669.73
G1 X343.286 Y669.68
G1 X342.865 Y669.533
G1 X342.708 Y669.46
G1 X342.61 Y669.38
G1 X342.539 Y669.275
G1 X342.495 Y669.151
G1 X342.481 Y669.014
G1 X342.493 Y668.889
G1 X342.528 Y668.773
G1 X342.585 Y668.672
G1 X342.658 Y668.589
G1 X342.731 Y668.537
G1 X342.826 Y668.493
G1 X342.936 Y668.463
G1 X343.053 Y668.454
G1 X343.225 Y668.47
G1 X343.375 Y668.519
G1 X343.495 Y668.597
G1 X343.579 Y668.698
G1 X343.635 Y668.83
G1 X343.67 Y668.999
G1 X343.412 Y669.043
G1 X343.378 Y668.909
G1 X343.311 Y668.809
G1 X343.209 Y668.746
G1 X343.072 Y668.725
G1 X342.917 Y668.743
G1 X342.813 Y668.8
G1 X342.755 Y668.881
G1 X342.736 Y668.975
G1 X342.744 Y669.036
G1 X342.768 Y669.091
G1 X342.809 Y669.139
G1 X342.869 Y669.179
G1 X342.947 Y669.209
G1 X343.339 Y669.348
G1 X343.492 Y669.416
G1 X343.591 Y669.489
G1 X343.666 Y669.589
G1 X343.713 Y669.716
G1 X343.729 Y669.871
G1 X343.71 Y670.031
G1 X343.652 Y670.181
G1 X343.558 Y670.31
G1 X343.43 Y670.406
G1 X343.275 Y670.466
G1 X343.102 Y670.486
G1 X342.959 Y670.476
G1 X342.835 Y670.447
G1 X342.728 Y670.397
G1 X342.64 Y670.329
G1 X342.567 Y670.24
G1 X342.509 Y670.133
G1 X342.466 Y670.007
G1 X342.437 Y669.862
M67 E0 Q0
G0 X343.937 Y669.862 F1200
M67 E0 Q0.2
G1 X344.197 Y669.81F6000
G1 X344.239 Y669.983
G1 X344.32 Y670.111
G1 X344.44 Y670.189
G1 X344.6 Y670.215
G1 X344.759 Y670.192
G1 X344.87 Y670.123
G1 X344.936 Y670.022
G1 X344.958 Y669.906
G1 X344.938 Y669.806
G1 X344.88 Y669.73
G1 X344.786 Y669.68
G1 X344.365 Y669.533
G1 X344.208 Y669.46
G1 X344.11 Y669.38
G1 X344.039 Y669.275
G1 X343.995 Y669.151
G1 X343.981 Y669.014
G1 X343.993 Y668.889
G1 X344.028 Y668.773
G1 X344.085 Y668.672
G1 X344.158 Y668.589
G1 X344.231 Y668.537
G1 X344.326 Y668.493
G1 X344.436 Y668.463
G1 X344.553 Y668.454
G1 X344.725 Y668.47
G1 X344.875 Y668.519
G1 X344.995 Y668.597
G1 X345.079 Y668.698
G1 X345.135 Y668.83
G1 X345.17 Y668.999
G1 X344.912 Y669.043
G1 X344.878 Y668.909
G1 X344.811 Y668.809
G1 X344.709 Y668.746
G1 X344.572 Y668.725
G1 X344.417 Y668.743
G1 X344.313 Y668.8
G1 X344.255 Y668.881
G1 X344.236 Y668.975
G1 X344.244 Y669.036
G1 X344.268 Y669.091
G1 X344.309 Y669.139
G1 X344.369 Y669.179
G1 X344.447 Y669.209
G1 X344.839 Y669.348
G1 X344.992 Y669.416
G1 X345.091 Y669.489
G1 X345.166 Y669.589
G1 X345.213 Y669.716
G1 X345.229 Y669.871
G1 X345.21 Y670.031
G1 X345.152 Y670.181
G1 X345.058 Y670.31
G1 X344.93 Y670.406
G1 X344.775 Y670.466
G1 X344.602 Y670.486
G1 X344.459 Y670.476
G1 X344.335 Y670.447
G1 X344.228 Y670.397
G1 X344.14 Y670.329
G1 X344.067 Y670.24
G1 X344.009 Y670.133
G1 X343.966 Y670.007
G1 X343.937 Y669.862
M67 E0 Q0
G0 X346.607 Y669.816 F1200
M67 E0 Q0.2
G1 X346.88 Y669.858F6000
G1 X346.841 Y669.999
G1 X346.788 Y670.123
G1 X346.721 Y670.23
G1 X346.641 Y670.321
G1 X346.548 Y670.393
G1 X346.442 Y670.445
G1 X346.325 Y670.476
G1 X346.196 Y670.486
G1 X346.034 Y670.47
G1 X345.89 Y670.42
G1 X345.763 Y670.338
G1 X345.654 Y670.223
G1 X345.567 Y670.079
G1 X345.504 Y669.908
G1 X345.467 Y669.71
G1 X345.454 Y669.486
G1 X345.467 Y669.255
G1 X345.505 Y669.05
G1 X345.568 Y668.874
G1 X345.656 Y668.725
G1 X345.765 Y668.606
G1 X345.889 Y668.521
G1 X346.027 Y668.471
G1 X346.181 Y668.454
G1 X346.33 Y668.47
G1 X346.464 Y668.52
G1 X346.585 Y668.603
G1 X346.691 Y668.719
G1 X346.777 Y668.865
G1 X346.839 Y669.039
G1 X346.876 Y669.239
G1 X346.888 Y669.466
G1  Y669.554
G1 X345.727
G1 X345.741 Y669.705
G1 X345.77 Y669.837
G1 X345.814 Y669.95
G1 X345.872 Y670.045
G1 X345.941 Y670.119
G1 X346.018 Y670.172
G1 X346.104 Y670.204
G1 X346.197 Y670.215
G1 X346.331 Y670.191
G1 X346.445 Y670.12
G1 X346.536 Y669.996
G1 X346.607 Y669.816
M67 E0 Q0
G0 X345.741 Y669.283 F1200
M67 E0 Q0.2
G1 X346.61F6000
G1 X346.576 Y669.068
G1 X346.51 Y668.915
G1 X346.443 Y668.832
G1 X346.366 Y668.772
G1 X346.279 Y668.736
G1 X346.184 Y668.725
G1 X346.097 Y668.734
G1 X346.017 Y668.763
G1 X345.944 Y668.81
G1 X345.878 Y668.877
G1 X345.782 Y669.054
G1 X345.741 Y669.283
M67 E0 Q0
G0 X347.117 Y669.862 F1200
M67 E0 Q0.2
G1 X347.377 Y669.81F6000
G1 X347.419 Y669.983
G1 X347.5 Y670.111
G1 X347.62 Y670.189
G1 X347.78 Y670.215
G1 X347.939 Y670.192
G1 X348.05 Y670.123
G1 X348.116 Y670.022
G1 X348.138 Y669.906
G1 X348.118 Y669.806
G1 X348.06 Y669.73
G1 X347.966 Y669.68
G1 X347.545 Y669.533
G1 X347.388 Y669.46
G1 X347.29 Y669.38
G1 X347.219 Y669.275
G1 X347.175 Y669.151
G1 X347.161 Y669.014
G1 X347.173 Y668.889
G1 X347.208 Y668.773
G1 X347.264 Y668.672
G1 X347.338 Y668.589
G1 X347.411 Y668.537
G1 X347.506 Y668.493
G1 X347.616 Y668.463
G1 X347.733 Y668.454
G1 X347.905 Y668.47
G1 X348.055 Y668.519
G1 X348.175 Y668.597
G1 X348.259 Y668.698
G1 X348.315 Y668.83
G1 X348.35 Y668.999
G1 X348.092 Y669.043
G1 X348.058 Y668.909
G1 X347.991 Y668.809
G1 X347.889 Y668.746
G1 X347.752 Y668.725
G1 X347.597 Y668.743
G1 X347.493 Y668.8
G1 X347.435 Y668.881
G1 X347.416 Y668.975
G1 X347.424 Y669.036
G1 X347.448 Y669.091
G1 X347.489 Y669.139
G1 X347.549 Y669.179
G1 X347.627 Y669.209
G1 X348.019 Y669.348
G1 X348.172 Y669.416
G1 X348.271 Y669.489
G1 X348.346 Y669.589
G1 X348.393 Y669.716
G1 X348.409 Y669.871
G1 X348.389 Y670.031
G1 X348.332 Y670.181
G1 X348.238 Y670.31
G1 X348.11 Y670.406
G1 X347.955 Y670.466
G1 X347.782 Y670.486
G1 X347.639 Y670.476
G1 X347.515 Y670.447
G1 X347.408 Y670.397
G1 X347.32 Y670.329
G1 X347.247 Y670.24
G1 X347.189 Y670.133
G1 X347.146 Y670.007
G1 X347.117 Y669.862
M67 E0 Q0
G0 X348.795 Y668.873 F1200
M67 E0 Q0.2
G1  Y668.497F6000
G1 X349.096
G1  Y668.873
G1 X348.795
M67 E0 Q0
G0 X348.795 Y670.442 F1200
M67 E0 Q0.2
G1  Y670.067F6000
G1 X349.096
G1  Y670.442
G1 X348.795
M67 E0 Q0
G0 X352.162 Y670.442 F1200
M67 E0 Q0.2
G1 X351.898F6000
G1  Y668.342
G1 X351.788 Y668.455
G1 X351.649 Y668.569
G1 X351.502 Y668.668
G1 X351.371 Y668.739
G1  Y668.421
G1 X351.578 Y668.277
G1 X351.758 Y668.106
G1 X351.899 Y667.923
G1 X351.992 Y667.747
G1 X352.162
G1  Y670.442
M67 E0 Q0
G0 X302.818 Y720.849 F1200
M67 E0 Q0.2
G1 X302.789 Y720.514F6000
G1 X302.972 Y720.474
G1 X303.119 Y720.403
G1 X303.236 Y720.292
G1 X303.328 Y720.133
G1 X303.388 Y719.938
G1 X303.408 Y719.721
G1 X303.393 Y719.529
G1 X303.347 Y719.362
G1 X303.276 Y719.226
G1 X303.182 Y719.13
G1 X303.072 Y719.073
G1 X302.952 Y719.054
G1 X302.834 Y719.073
G1 X302.731 Y719.127
G1 X302.645 Y719.224
G1 X302.573 Y719.369
G1 X302.549 Y719.44
G1 X302.519 Y719.543
G1 X302.483 Y719.679
G1 X302.398 Y720.018
G1 X302.356 Y720.162
G1 X302.314 Y720.277
G1 X302.274 Y720.365
G1 X302.162 Y720.533
G1 X302.025 Y720.652
G1 X301.866 Y720.723
G1 X301.69 Y720.746
G1 X301.494 Y720.717
G1 X301.31 Y720.631
G1 X301.155 Y720.489
G1 X301.042 Y720.294
G1 X300.973 Y720.06
G1 X300.951 Y719.801
G1 X300.975 Y719.52
G1 X301.047 Y719.275
G1 X301.165 Y719.073
G1 X301.33 Y718.924
G1 X301.529 Y718.83
G1 X301.753 Y718.792
G1 X301.778 Y719.133
G1 X301.659 Y719.155
G1 X301.555 Y719.193
G1 X301.466 Y719.248
G1 X301.394 Y719.319
G1 X301.337 Y719.407
G1 X301.296 Y719.515
G1 X301.272 Y719.641
G1 X301.264 Y719.787
G1 X301.271 Y719.937
G1 X301.293 Y720.065
G1 X301.33 Y720.172
G1 X301.382 Y720.256
G1 X301.444 Y720.321
G1 X301.512 Y720.367
G1 X301.586 Y720.395
G1 X301.667 Y720.404
G1 X301.798 Y720.378
G1 X301.905 Y720.299
G1 X301.952 Y720.227
G1 X301.999 Y720.114
G1 X302.047 Y719.96
G1 X302.096 Y719.764
G1 X302.143 Y719.564
G1 X302.188 Y719.399
G1 X302.229 Y719.267
G1 X302.267 Y719.17
G1 X302.39 Y718.966
G1 X302.541 Y718.823
G1 X302.719 Y718.74
G1 X302.923 Y718.712
G1 X303.131 Y718.742
G1 X303.326 Y718.834
G1 X303.495 Y718.984
G1 X303.621 Y719.187
G1 X303.7 Y719.431
G1 X303.726 Y719.704
G1 X303.7 Y720.039
G1 X303.62 Y720.315
G1 X303.56 Y720.431
G1 X303.487 Y720.535
G1 X303.401 Y720.625
G1 X303.301 Y720.701
G1 X303.073 Y720.808
G1 X302.818 Y720.849
M67 E0 Q0
G0 X304.426 Y718.257 F1200
M67 E0 Q0.2
G1 X301.736F6000
G1  Y717.957
G1 X301.989
G1 X301.859 Y717.844
G1 X301.766 Y717.717
G1 X301.711 Y717.569
G1 X301.692 Y717.393
G1 X301.724 Y717.159
G1 X301.82 Y716.954
G1 X301.975 Y716.787
G1 X302.182 Y716.666
G1 X302.427 Y716.593
G1 X302.694 Y716.569
G1 X302.977 Y716.596
G1 X303.231 Y716.676
G1 X303.442 Y716.808
G1 X303.597 Y716.988
G1 X303.693 Y717.197
G1 X303.725 Y717.417
G1 X303.707 Y717.573
G1 X303.655 Y717.713
G1 X303.576 Y717.832
G1 X303.479 Y717.928
G1 X304.426
G1  Y718.257
M67 E0 Q0
G0 X302.719 Y717.959 F1200
M67 E0 Q0.2
G1 X302.895 Y717.949F6000
G1 X303.046 Y717.921
G1 X303.172 Y717.873
G1 X303.274 Y717.807
G1 X303.353 Y717.727
G1 X303.409 Y717.639
G1 X303.442 Y717.543
G1 X303.454 Y717.439
G1 X303.442 Y717.333
G1 X303.407 Y717.235
G1 X303.349 Y717.145
G1 X303.268 Y717.063
G1 X303.162 Y716.994
G1 X303.031 Y716.945
G1 X302.874 Y716.916
G1 X302.692 Y716.906
G1 X302.518 Y716.916
G1 X302.367 Y716.944
G1 X302.239 Y716.992
G1 X302.135 Y717.059
G1 X302.054 Y717.139
G1 X301.997 Y717.227
G1 X301.962 Y717.322
G1 X301.95 Y717.424
G1 X301.963 Y717.526
G1 X302 Y717.623
G1 X302.061 Y717.713
G1 X302.147 Y717.797
G1 X302.257 Y717.868
G1 X302.389 Y717.918
G1 X302.543 Y717.949
G1 X302.719 Y717.959
M67 E0 Q0
G0 X303.054 Y714.826 F1200
M67 E0 Q0.2
G1 X303.097 Y714.486F6000
G1 X303.237 Y714.535
G1 X303.362 Y714.601
G1 X303.469 Y714.684
G1 X303.56 Y714.784
G1 X303.632 Y714.901
G1 X303.683 Y715.032
G1 X303.714 Y715.179
G1 X303.725 Y715.341
G1 X303.708 Y715.543
G1 X303.659 Y715.723
G1 X303.577 Y715.881
G1 X303.462 Y716.017
G1 X303.317 Y716.127
G1 X303.146 Y716.205
G1 X302.949 Y716.252
G1 X302.725 Y716.267
G1 X302.493 Y716.251
G1 X302.289 Y716.204
G1 X302.112 Y716.125
G1 X301.963 Y716.015
G1 X301.845 Y715.879
G1 X301.76 Y715.724
G1 X301.709 Y715.551
G1 X301.692 Y715.359
G1 X301.709 Y715.173
G1 X301.759 Y715.005
G1 X301.842 Y714.854
G1 X301.958 Y714.722
G1 X302.104 Y714.614
G1 X302.277 Y714.536
G1 X302.477 Y714.49
G1 X302.705 Y714.475
G1 X302.793
G1  Y715.927
G1 X302.943 Y715.909
G1 X303.076 Y715.872
G1 X303.189 Y715.818
G1 X303.283 Y715.745
G1 X303.358 Y715.659
G1 X303.411 Y715.562
G1 X303.443 Y715.456
G1 X303.454 Y715.339
G1 X303.43 Y715.171
G1 X303.358 Y715.029
G1 X303.235 Y714.915
G1 X303.054 Y714.826
M67 E0 Q0
G0 X302.522 Y715.908 F1200
M67 E0 Q0.2
G1  Y714.823F6000
G1 X302.307 Y714.865
G1 X302.154 Y714.947
G1 X302.07 Y715.032
G1 X302.011 Y715.128
G1 X301.975 Y715.236
G1 X301.963 Y715.355
G1 X301.973 Y715.464
G1 X302.001 Y715.564
G1 X302.049 Y715.655
G1 X302.115 Y715.737
G1 X302.198 Y715.806
G1 X302.293 Y715.857
G1 X302.401 Y715.891
G1 X302.522 Y715.908
M67 E0 Q0
G0 X303.054 Y712.726 F1200
M67 E0 Q0.2
G1 X303.097 Y712.386F6000
G1 X303.237 Y712.435
G1 X303.362 Y712.501
G1 X303.469 Y712.584
G1 X303.56 Y712.684
G1 X303.632 Y712.801
G1 X303.683 Y712.932
G1 X303.714 Y713.079
G1 X303.725 Y713.241
G1 X303.708 Y713.443
G1 X303.659 Y713.623
G1 X303.577 Y713.781
G1 X303.462 Y713.917
G1 X303.317 Y714.027
G1 X303.146 Y714.105
G1 X302.949 Y714.152
G1 X302.725 Y714.167
G1 X302.493 Y714.151
G1 X302.289 Y714.104
G1 X302.112 Y714.025
G1 X301.963 Y713.915
G1 X301.845 Y713.779
G1 X301.76 Y713.624
G1 X301.709 Y713.451
G1 X301.692 Y713.259
G1 X301.709 Y713.073
G1 X301.759 Y712.905
G1 X301.842 Y712.754
G1 X301.958 Y712.622
G1 X302.104 Y712.514
G1 X302.277 Y712.436
G1 X302.477 Y712.39
G1 X302.705 Y712.375
G1 X302.793
G1  Y713.827
G1 X302.943 Y713.808
G1 X303.076 Y713.772
G1 X303.189 Y713.718
G1 X303.283 Y713.645
G1 X303.358 Y713.559
G1 X303.411 Y713.462
G1 X303.443 Y713.356
G1 X303.454 Y713.239
G1 X303.43 Y713.071
G1 X303.358 Y712.929
G1 X303.235 Y712.815
G1 X303.054 Y712.726
M67 E0 Q0
G0 X302.522 Y713.808 F1200
M67 E0 Q0.2
G1  Y712.723F6000
G1 X302.307 Y712.765
G1 X302.154 Y712.847
G1 X302.07 Y712.932
G1 X302.011 Y713.028
G1 X301.975 Y713.136
G1 X301.963 Y713.255
G1 X301.973 Y713.364
G1 X302.001 Y713.464
G1 X302.049 Y713.555
G1 X302.115 Y713.637
G1 X302.198 Y713.706
G1 X302.293 Y713.757
G1 X302.401 Y713.791
G1 X302.522 Y713.808
M67 E0 Q0
G0 X303.681 Y710.696 F1200
M67 E0 Q0.2
G1 X303.435F6000
G1 X303.562 Y710.799
G1 X303.652 Y710.924
G1 X303.707 Y711.071
G1 X303.725 Y711.24
G1 X303.693 Y711.463
G1 X303.596 Y711.667
G1 X303.443 Y711.84
G1 X303.238 Y711.969
G1 X302.992 Y712.05
G1 X302.71 Y712.076
G1 X302.433 Y712.052
G1 X302.182 Y711.979
G1 X301.973 Y711.858
G1 X301.819 Y711.688
G1 X301.724 Y711.483
G1 X301.692 Y711.254
G1 X301.711 Y711.088
G1 X301.766 Y710.941
G1 X301.852 Y710.817
G1 X301.96 Y710.718
G1 X300.996
G1  Y710.39
G1 X303.681
G1  Y710.696
M67 E0 Q0
G0 X302.71 Y711.738 F1200
M67 E0 Q0.2
G1 X302.885 Y711.728F6000
G1 X303.037 Y711.698
G1 X303.164 Y711.649
G1 X303.269 Y711.58
G1 X303.35 Y711.498
G1 X303.407 Y711.409
G1 X303.442 Y711.312
G1 X303.454 Y711.208
G1 X303.443 Y711.104
G1 X303.409 Y711.009
G1 X303.354 Y710.921
G1 X303.277 Y710.841
G1 X303.177 Y710.775
G1 X303.054 Y710.728
G1 X302.907 Y710.7
G1 X302.738 Y710.69
G1 X302.551 Y710.7
G1 X302.392 Y710.729
G1 X302.258 Y710.777
G1 X302.152 Y710.844
G1 X302.07 Y710.925
G1 X302.012 Y711.016
G1 X301.977 Y711.115
G1 X301.965 Y711.223
G1 X301.976 Y711.328
G1 X302.01 Y711.425
G1 X302.066 Y711.512
G1 X302.144 Y711.59
G1 X302.247 Y711.655
G1 X302.376 Y711.701
G1 X302.53 Y711.729
G1 X302.71 Y711.738
M67 E0 Q0
G0 X304.47 Y708.177 F1200
M67 E0 Q0.2
G1 X304.096 Y708.429F6000
G1 X303.664 Y708.639
G1 X303.431 Y708.721
G1 X303.195 Y708.78
G1 X302.954 Y708.816
G1 X302.708 Y708.828
G1 X302.282 Y708.792
G1 X301.873 Y708.687
G1 X301.642 Y708.593
G1 X301.411 Y708.477
G1 X301.181 Y708.338
G1 X300.951 Y708.177
G1  Y707.941
G1 X301.127 Y708.043
G1 X301.277 Y708.125
G1 X301.399 Y708.189
G1 X301.494 Y708.234
G1 X301.753 Y708.334
G1 X302.022 Y708.41
G1 X302.365 Y708.469
G1 X302.71 Y708.489
G1 X303.15 Y708.455
G1 X303.591 Y708.352
G1 X304.03 Y708.181
G1 X304.47 Y707.941
G1  Y708.177
M67 E0 Q0
G0 X303.681 Y707.57 F1200
M67 E0 Q0.2
G1 X301.736F6000
G1  Y707.275
G1 X302.009
G1 X301.88 Y707.168
G1 X301.779 Y707.032
G1 X301.714 Y706.869
G1 X301.692 Y706.685
G1 X301.715 Y706.489
G1 X301.782 Y706.331
G1 X301.889 Y706.213
G1 X302.033 Y706.136
G1 X301.884 Y706.012
G1 X301.777 Y705.871
G1 X301.713 Y705.712
G1 X301.692 Y705.536
G1 X301.702 Y705.399
G1 X301.732 Y705.28
G1 X301.782 Y705.177
G1 X301.852 Y705.091
G1 X301.943 Y705.023
G1 X302.056 Y704.974
G1 X302.19 Y704.945
G1 X302.346 Y704.935
G1 X303.681
G1  Y705.263
G1 X302.456
G1 X302.286 Y705.271
G1 X302.171 Y705.295
G1 X302.092 Y705.34
G1 X302.031 Y705.411
G1 X301.991 Y705.503
G1 X301.978 Y705.609
G1 X301.986 Y705.707
G1 X302.012 Y705.797
G1 X302.055 Y705.877
G1 X302.114 Y705.949
G1 X302.193 Y706.009
G1 X302.292 Y706.051
G1 X302.411 Y706.076
G1 X302.551 Y706.085
G1 X303.681
G1  Y706.414
G1 X302.417
G1 X302.225 Y706.435
G1 X302.088 Y706.495
G1 X302.005 Y706.601
G1 X301.978 Y706.759
G1 X301.996 Y706.893
G1 X302.051 Y707.016
G1 X302.141 Y707.118
G1 X302.265 Y707.187
G1 X302.437 Y707.227
G1 X302.672 Y707.24
G1 X303.681
G1  Y707.57
M67 E0 Q0
G0 X303.681 Y704.457 F1200
M67 E0 Q0.2
G1 X301.736F6000
G1  Y704.163
G1 X302.009
G1 X301.88 Y704.056
G1 X301.779 Y703.919
G1 X301.714 Y703.757
G1 X301.692 Y703.573
G1 X301.715 Y703.376
G1 X301.782 Y703.219
G1 X301.889 Y703.101
G1 X302.033 Y703.024
G1 X301.884 Y702.9
G1 X301.777 Y702.758
G1 X301.713 Y702.599
G1 X301.692 Y702.423
G1 X301.702 Y702.287
G1 X301.732 Y702.167
G1 X301.782 Y702.064
G1 X301.852 Y701.978
G1 X301.943 Y701.91
G1 X302.056 Y701.861
G1 X302.19 Y701.832
G1 X302.346 Y701.823
G1 X303.681
G1  Y702.15
G1 X302.456
G1 X302.286 Y702.158
G1 X302.171 Y702.182
G1 X302.092 Y702.227
G1 X302.031 Y702.299
G1 X301.991 Y702.39
G1 X301.978 Y702.496
G1 X301.986 Y702.594
G1 X302.012 Y702.684
G1 X302.055 Y702.765
G1 X302.114 Y702.837
G1 X302.193 Y702.896
G1 X302.292 Y702.939
G1 X302.411 Y702.964
G1 X302.551 Y702.972
G1 X303.681
G1  Y703.302
G1 X302.417
G1 X302.225 Y703.322
G1 X302.088 Y703.383
G1 X302.005 Y703.489
G1 X301.978 Y703.646
G1 X301.996 Y703.78
G1 X302.051 Y703.904
G1 X302.141 Y704.005
G1 X302.265 Y704.075
G1 X302.437 Y704.115
G1 X302.672 Y704.128
G1 X303.681
G1  Y704.457
M67 E0 Q0
G0 X303.726 Y701.592 F1200
M67 E0 Q0.2
G1 X300.951 Y700.814F6000
G1  Y700.55
G1 X303.726 Y701.327
G1  Y701.592
M67 E0 Q0
G0 X303.681 Y700.295 F1200
M67 E0 Q0.2
G1 X301.736F6000
G1  Y700
G1 X302.009
G1 X301.88 Y699.893
G1 X301.779 Y699.757
G1 X301.714 Y699.594
G1 X301.692 Y699.41
G1 X301.715 Y699.214
G1 X301.782 Y699.056
G1 X301.889 Y698.938
G1 X302.033 Y698.861
G1 X301.884 Y698.737
G1 X301.777 Y698.596
G1 X301.713 Y698.437
G1 X301.692 Y698.261
G1 X301.702 Y698.124
G1 X301.732 Y698.005
G1 X301.782 Y697.902
G1 X301.852 Y697.816
G1 X301.943 Y697.748
G1 X302.056 Y697.699
G1 X302.19 Y697.67
G1 X302.346 Y697.66
G1 X303.681
G1  Y697.988
G1 X302.456
G1 X302.286 Y697.996
G1 X302.171 Y698.02
G1 X302.092 Y698.065
G1 X302.031 Y698.136
G1 X301.991 Y698.228
G1 X301.978 Y698.334
G1 X301.986 Y698.432
G1 X302.012 Y698.521
G1 X302.055 Y698.602
G1 X302.114 Y698.674
G1 X302.193 Y698.734
G1 X302.292 Y698.776
G1 X302.411 Y698.801
G1 X302.551 Y698.81
G1 X303.681
G1  Y699.139
G1 X302.417
G1 X302.225 Y699.16
G1 X302.088 Y699.22
G1 X302.005 Y699.326
G1 X301.978 Y699.484
G1 X301.996 Y699.618
G1 X302.051 Y699.741
G1 X302.141 Y699.843
G1 X302.265 Y699.912
G1 X302.437 Y699.952
G1 X302.672 Y699.965
G1 X303.681
G1  Y700.295
M67 E0 Q0
G0 X304.47 Y696.966 F1200
M67 E0 Q0.2
G1  Y697.203F6000
G1 X304.03 Y696.963
G1 X303.591 Y696.792
G1 X303.15 Y696.689
G1 X302.71 Y696.655
G1 X302.367 Y696.675
G1 X302.027 Y696.734
G1 X301.758 Y696.808
G1 X301.5 Y696.908
G1 X301.404 Y696.953
G1 X301.28 Y697.017
G1 X301.129 Y697.1
G1 X300.951 Y697.203
G1  Y696.966
G1 X301.181 Y696.805
G1 X301.411 Y696.667
G1 X301.642 Y696.551
G1 X301.873 Y696.457
G1 X302.282 Y696.352
G1 X302.708 Y696.316
G1 X302.954 Y696.328
G1 X303.195 Y696.364
G1 X303.431 Y696.423
G1 X303.664 Y696.506
G1 X304.096 Y696.716
G1 X304.47 Y696.966
M67 E0 Q0
G0 X337.114 Y753.898 F1200
M67 E0 Q0.2
G1  Y751.214F6000
G1 X338.126
G1 X338.362 Y751.22
G1 X338.535 Y751.24
G1 X338.716 Y751.287
G1 X338.866 Y751.365
G1 X338.987 Y751.476
G1 X339.081 Y751.624
G1 X339.142 Y751.799
G1 X339.163 Y751.99
G1 X339.149 Y752.155
G1 X339.108 Y752.306
G1 X339.04 Y752.445
G1 X338.945 Y752.57
G1 X338.814 Y752.674
G1 X338.639 Y752.748
G1 X338.42 Y752.792
G1 X338.157 Y752.807
G1 X337.469
G1  Y753.898
G1 X337.114
M67 E0 Q0
G0 X337.469 Y752.49 F1200
M67 E0 Q0.2
G1 X338.163F6000
G1 X338.323 Y752.482
G1 X338.457 Y752.458
G1 X338.567 Y752.418
G1 X338.652 Y752.362
G1 X338.715 Y752.291
G1 X338.76 Y752.208
G1 X338.787 Y752.111
G1 X338.796 Y752.001
G1 X338.775 Y751.845
G1 X338.711 Y751.713
G1 X338.613 Y751.613
G1 X338.487 Y751.555
G1 X338.359 Y751.537
G1 X338.156 Y751.531
G1 X337.469
G1  Y752.49
M67 E0 Q0
G0 X339.461 Y752.926 F1200
M67 E0 Q0.2
G1 X339.48 Y752.673F6000
G1 X339.537 Y752.456
G1 X339.63 Y752.273
G1 X339.762 Y752.126
G1 X339.894 Y752.031
G1 X340.04 Y751.964
G1 X340.2 Y751.923
G1 X340.373 Y751.91
G1 X340.565 Y751.926
G1 X340.738 Y751.975
G1 X340.892 Y752.058
G1 X341.029 Y752.173
G1 X341.14 Y752.316
G1 X341.22 Y752.485
G1 X341.267 Y752.679
G1 X341.283 Y752.899
G1 X341.255 Y753.234
G1 X341.171 Y753.489
G1 X341.033 Y753.68
G1 X340.843 Y753.823
G1 X340.618 Y753.913
G1 X340.373 Y753.942
G1 X340.179 Y753.926
G1 X340.004 Y753.877
G1 X339.849 Y753.795
G1 X339.713 Y753.68
G1 X339.603 Y753.535
G1 X339.524 Y753.361
G1 X339.477 Y753.158
G1 X339.461 Y752.926
M67 E0 Q0
G0 X339.8 Y752.926 F1200
M67 E0 Q0.2
G1 X339.81 Y753.101F6000
G1 X339.841 Y753.253
G1 X339.892 Y753.381
G1 X339.963 Y753.485
G1 X340.05 Y753.567
G1 X340.147 Y753.625
G1 X340.255 Y753.66
G1 X340.373 Y753.671
G1 X340.491 Y753.66
G1 X340.598 Y753.625
G1 X340.695 Y753.566
G1 X340.782 Y753.484
G1 X340.853 Y753.379
G1 X340.904 Y753.249
G1 X340.934 Y753.094
G1 X340.945 Y752.915
G1 X340.934 Y752.746
G1 X340.904 Y752.598
G1 X340.852 Y752.472
G1 X340.781 Y752.368
G1 X340.694 Y752.287
G1 X340.597 Y752.229
G1 X340.49 Y752.194
G1 X340.373 Y752.183
G1 X340.255 Y752.194
G1 X340.147 Y752.229
G1 X340.05 Y752.287
G1 X339.963 Y752.368
G1 X339.892 Y752.472
G1 X339.841 Y752.6
G1 X339.81 Y752.751
G1 X339.8 Y752.926
M67 E0 Q0
G0 X342.043 Y753.898 F1200
M67 E0 Q0.2
G1 X341.448 Y751.954F6000
G1 X341.789
G1 X342.213 Y753.494
G1 X342.314 Y753.093
G1 X342.623 Y751.954
G1 X342.962
G1 X343.35 Y753.453
G1 X343.795 Y751.954
G1 X344.116
G1 X343.508 Y753.898
G1 X343.165
G1 X342.856 Y752.734
G1 X342.781 Y752.402
G1 X342.387 Y753.898
G1 X342.043
M67 E0 Q0
G0 X345.715 Y753.272 F1200
M67 E0 Q0.2
G1 X346.056 Y753.314F6000
G1 X346.007 Y753.455
G1 X345.941 Y753.579
G1 X345.858 Y753.687
G1 X345.757 Y753.777
G1 X345.641 Y753.85
G1 X345.509 Y753.901
G1 X345.363 Y753.932
G1 X345.201 Y753.942
G1 X344.999 Y753.926
G1 X344.818 Y753.877
G1 X344.66 Y753.794
G1 X344.524 Y753.68
G1 X344.415 Y753.535
G1 X344.337 Y753.364
G1 X344.29 Y753.166
G1 X344.274 Y752.943
G1 X344.29 Y752.711
G1 X344.337 Y752.507
G1 X344.416 Y752.33
G1 X344.527 Y752.181
G1 X344.663 Y752.062
G1 X344.817 Y751.978
G1 X344.99 Y751.927
G1 X345.182 Y751.91
G1 X345.369 Y751.926
G1 X345.537 Y751.976
G1 X345.687 Y752.059
G1 X345.82 Y752.175
G1 X345.928 Y752.322
G1 X346.005 Y752.495
G1 X346.051 Y752.695
G1 X346.067 Y752.922
G1  Y753.01
G1 X344.615
G1 X344.633 Y753.161
G1 X344.669 Y753.293
G1 X344.724 Y753.406
G1 X344.796 Y753.501
G1 X344.883 Y753.576
G1 X344.979 Y753.629
G1 X345.086 Y753.661
G1 X345.203 Y753.671
G1 X345.371 Y753.647
G1 X345.512 Y753.576
G1 X345.627 Y753.452
G1 X345.715 Y753.272
M67 E0 Q0
G0 X344.633 Y752.739 F1200
M67 E0 Q0.2
G1 X345.719F6000
G1 X345.677 Y752.525
G1 X345.594 Y752.371
G1 X345.51 Y752.288
G1 X345.414 Y752.228
G1 X345.306 Y752.193
G1 X345.186 Y752.181
G1 X345.077 Y752.19
G1 X344.977 Y752.219
G1 X344.886 Y752.266
G1 X344.804 Y752.333
G1 X344.736 Y752.415
G1 X344.684 Y752.51
G1 X344.65 Y752.618
G1 X344.633 Y752.739
M67 E0 Q0
G0 X346.48 Y753.898 F1200
M67 E0 Q0.2
G1  Y751.954F6000
G1 X346.777
G1  Y752.249
G1 X346.886 Y752.077
G1 X346.987 Y751.976
G1 X347.088 Y751.926
G1 X347.198 Y751.91
G1 X347.366 Y751.936
G1 X347.537 Y752.016
G1 X347.423 Y752.322
G1 X347.303 Y752.268
G1 X347.182 Y752.25
G1 X347.079 Y752.267
G1 X346.988 Y752.315
G1 X346.914 Y752.393
G1 X346.865 Y752.496
G1 X346.824 Y752.68
G1 X346.81 Y752.88
G1  Y753.898
G1 X346.48
M67 E0 Q0
G0 X349.402 Y754.688 F1200
M67 E0 Q0.2
G1 X349.15 Y754.314F6000
G1 X348.94 Y753.882
G1 X348.858 Y753.649
G1 X348.799 Y753.412
G1 X348.763 Y753.171
G1 X348.751 Y752.926
G1 X348.787 Y752.499
G1 X348.892 Y752.091
G1 X348.986 Y751.86
G1 X349.102 Y751.629
G1 X349.241 Y751.398
G1 X349.402 Y751.168
G1 X349.638
G1 X349.536 Y751.345
G1 X349.454 Y751.495
G1 X349.39 Y751.617
G1 X349.345 Y751.712
G1 X349.245 Y751.97
G1 X349.169 Y752.239
G1 X349.11 Y752.583
G1 X349.09 Y752.928
G1 X349.124 Y753.368
G1 X349.227 Y753.808
G1 X349.398 Y754.248
G1 X349.638 Y754.688
G1 X349.402
M67 E0 Q0
G0 X349.98 Y751.859 F1200
M67 E0 Q0.2
G1 X349.989 Y751.72F6000
G1 X350.016 Y751.593
G1 X350.061 Y751.476
G1 X350.124 Y751.37
G1 X350.205 Y751.281
G1 X350.302 Y751.219
G1 X350.415 Y751.181
G1 X350.544 Y751.168
G1 X350.665 Y751.18
G1 X350.775 Y751.213
G1 X350.874 Y751.27
G1 X350.962 Y751.349
G1 X351.035 Y751.449
G1 X351.086 Y751.571
G1 X351.118 Y751.714
G1 X351.128 Y751.879
G1 X351.117 Y752.039
G1 X351.086 Y752.18
G1 X351.034 Y752.301
G1 X350.96 Y752.403
G1 X350.872 Y752.484
G1 X350.773 Y752.541
G1 X350.665 Y752.576
G1 X350.547 Y752.587
G1 X350.431 Y752.576
G1 X350.324 Y752.542
G1 X350.228 Y752.485
G1 X350.142 Y752.406
G1 X350.071 Y752.304
G1 X350.02 Y752.179
G1 X349.99 Y752.03
G1 X349.98 Y751.859
M67 E0 Q0
G0 X350.553 Y751.395 F1200
M67 E0 Q0.2
G1 X350.441 Y751.422F6000
G1 X350.349 Y751.501
G1 X350.288 Y751.652
G1 X350.267 Y751.891
G1 X350.288 Y752.111
G1 X350.35 Y752.255
G1 X350.442 Y752.334
G1 X350.553 Y752.36
G1 X350.667 Y752.334
G1 X350.759 Y752.254
G1 X350.82 Y752.104
G1 X350.84 Y751.866
G1 X350.82 Y751.645
G1 X350.758 Y751.501
G1 X350.666 Y751.422
G1 X350.553 Y751.395
M67 E0 Q0
G0 X350.555 Y753.997 F1200
M67 E0 Q0.2
G1 X352.023 Y751.168F6000
G1 X352.291
G1 X350.828 Y753.997
G1 X350.555
M67 E0 Q0
G0 X351.716 Y753.268 F1200
M67 E0 Q0.2
G1 X351.725 Y753.129F6000
G1 X351.752 Y753.001
G1 X351.797 Y752.884
G1 X351.86 Y752.779
G1 X351.941 Y752.691
G1 X352.038 Y752.628
G1 X352.151 Y752.591
G1 X352.281 Y752.578
G1 X352.402 Y752.589
G1 X352.512 Y752.623
G1 X352.612 Y752.68
G1 X352.7 Y752.758
G1 X352.772 Y752.859
G1 X352.824 Y752.981
G1 X352.855 Y753.124
G1 X352.866 Y753.289
G1 X352.855 Y753.449
G1 X352.824 Y753.59
G1 X352.771 Y753.711
G1 X352.698 Y753.813
G1 X352.609 Y753.894
G1 X352.511 Y753.951
G1 X352.402 Y753.986
G1 X352.283 Y753.997
G1 X352.167 Y753.986
G1 X352.06 Y753.952
G1 X351.964 Y753.895
G1 X351.878 Y753.815
G1 X351.807 Y753.713
G1 X351.756 Y753.587
G1 X351.726 Y753.439
G1 X351.716 Y753.268
M67 E0 Q0
G0 X352.291 Y752.805 F1200
M67 E0 Q0.2
G1 X352.177 Y752.832F6000
G1 X352.085 Y752.911
G1 X352.024 Y753.062
G1 X352.003 Y753.301
G1 X352.024 Y753.52
G1 X352.086 Y753.664
G1 X352.178 Y753.744
G1 X352.289 Y753.77
G1 X352.404 Y753.744
G1 X352.497 Y753.664
G1 X352.558 Y753.514
G1 X352.578 Y753.276
G1 X352.557 Y753.054
G1 X352.496 Y752.91
G1 X352.403 Y752.832
G1 X352.291 Y752.805
M67 E0 Q0
G0 X353.563 Y754.688 F1200
M67 E0 Q0.2
G1 X353.326F6000
G1 X353.566 Y754.248
G1 X353.737 Y753.808
G1 X353.84 Y753.368
G1 X353.874 Y752.928
G1 X353.854 Y752.585
G1 X353.795 Y752.245
G1 X353.721 Y751.976
G1 X353.621 Y751.718
G1 X353.576 Y751.621
G1 X353.512 Y751.498
G1 X353.429 Y751.347
G1 X353.326 Y751.168
G1 X353.563
G1 X353.724 Y751.398
G1 X353.862 Y751.629
G1 X353.978 Y751.86
G1 X354.072 Y752.091
G1 X354.177 Y752.499
G1 X354.213 Y752.926
G1 X354.201 Y753.171
G1 X354.165 Y753.412
G1 X354.106 Y753.649
G1 X354.023 Y753.882
G1 X353.813 Y754.314
G1 X353.563 Y754.688
M67 E0 Q0
G0 X305.922 Y681.661 F1200
M67 E0 Q0.2
G1 X305.675F6000
G1  Y679.561
G1 X305.572 Y679.674
G1 X305.441 Y679.788
G1 X305.303 Y679.887
G1 X305.181 Y679.958
G1  Y679.639
G1 X305.375 Y679.496
G1 X305.543 Y679.324
G1 X305.676 Y679.142
G1 X305.763 Y678.966
G1 X305.922
G1  Y681.661
M67 E0 Q0
G0 X306.947 Y680.205 F1200
M67 E0 Q0.2
G1 X306.813 Y680.114F6000
G1 X306.719 Y679.991
G1 X306.663 Y679.838
G1 X306.644 Y679.658
G1 X306.654 Y679.517
G1 X306.684 Y679.388
G1 X306.733 Y679.271
G1 X306.802 Y679.165
G1 X306.888 Y679.078
G1 X306.986 Y679.015
G1 X307.098 Y678.978
G1 X307.223 Y678.966
G1 X307.348 Y678.978
G1 X307.461 Y679.017
G1 X307.56 Y679.08
G1 X307.647 Y679.17
G1 X307.717 Y679.277
G1 X307.767 Y679.396
G1 X307.798 Y679.526
G1 X307.808 Y679.667
G1 X307.789 Y679.841
G1 X307.734 Y679.992
G1 X307.642 Y680.114
G1 X307.511 Y680.205
G1 X307.674 Y680.31
G1 X307.793 Y680.465
G1 X307.866 Y680.662
G1 X307.89 Y680.894
G1 X307.879 Y681.059
G1 X307.844 Y681.21
G1 X307.787 Y681.348
G1 X307.707 Y681.472
G1 X307.609 Y681.575
G1 X307.496 Y681.648
G1 X307.368 Y681.692
G1 X307.227 Y681.707
G1 X307.085 Y681.692
G1 X306.958 Y681.648
G1 X306.845 Y681.574
G1 X306.746 Y681.471
G1 X306.666 Y681.346
G1 X306.609 Y681.207
G1 X306.575 Y681.053
G1 X306.563 Y680.884
G1 X306.588 Y680.644
G1 X306.663 Y680.446
G1 X306.784 Y680.297
G1 X306.947 Y680.205
M67 E0 Q0
G0 X306.897 Y679.647 F1200
M67 E0 Q0.2
G1 X306.92 Y679.82F6000
G1 X306.989 Y679.958
G1 X307.095 Y680.049
G1 X307.228 Y680.079
G1 X307.358 Y680.049
G1 X307.462 Y679.959
G1 X307.531 Y679.825
G1 X307.554 Y679.665
G1 X307.53 Y679.498
G1 X307.46 Y679.36
G1 X307.354 Y679.267
G1 X307.225 Y679.237
G1 X307.096 Y679.267
G1 X306.991 Y679.357
G1 X306.92 Y679.49
G1 X306.897 Y679.647
M67 E0 Q0
G0 X306.817 Y680.886 F1200
M67 E0 Q0.2
G1 X306.83 Y681.025F6000
G1 X306.868 Y681.159
G1 X306.93 Y681.276
G1 X307.017 Y681.363
G1 X307.119 Y681.418
G1 X307.229 Y681.436
G1 X307.314 Y681.426
G1 X307.391 Y681.398
G1 X307.46 Y681.35
G1 X307.522 Y681.284
G1 X307.608 Y681.111
G1 X307.637 Y680.897
G1 X307.608 Y680.68
G1 X307.519 Y680.504
G1 X307.455 Y680.436
G1 X307.385 Y680.387
G1 X307.307 Y680.358
G1 X307.221 Y680.348
G1 X307.138 Y680.358
G1 X307.062 Y680.386
G1 X306.993 Y680.435
G1 X306.932 Y680.502
G1 X306.846 Y680.675
G1 X306.817 Y680.886
M67 E0 Q0
G0 X308.141 Y680.337 F1200
M67 E0 Q0.2
G1 X308.146 Y680.111F6000
G1 X308.16 Y679.907
G1 X308.182 Y679.727
G1 X308.215 Y679.571
G1 X308.306 Y679.314
G1 X308.433 Y679.123
G1 X308.51 Y679.054
G1 X308.597 Y679.005
G1 X308.692 Y678.975
G1 X308.798 Y678.966
G1 X308.95 Y678.987
G1 X309.082 Y679.052
G1 X309.193 Y679.159
G1 X309.284 Y679.303
G1 X309.355 Y679.485
G1 X309.409 Y679.703
G1 X309.443 Y679.979
G1 X309.454 Y680.337
G1 X309.436 Y680.764
G1 X309.381 Y681.1
G1 X309.29 Y681.357
G1 X309.164 Y681.548
G1 X309.086 Y681.618
G1 X309 Y681.667
G1 X308.903 Y681.697
G1 X308.798 Y681.707
G1 X308.66 Y681.689
G1 X308.538 Y681.637
G1 X308.431 Y681.55
G1 X308.34 Y681.428
G1 X308.253 Y681.234
G1 X308.191 Y680.988
G1 X308.154 Y680.689
G1 X308.141 Y680.337
M67 E0 Q0
G0 X308.395 Y680.337 F1200
M67 E0 Q0.2
G1 X308.402 Y680.64F6000
G1 X308.424 Y680.887
G1 X308.461 Y681.08
G1 X308.511 Y681.217
G1 X308.573 Y681.313
G1 X308.641 Y681.381
G1 X308.716 Y681.422
G1 X308.798 Y681.436
G1 X308.879 Y681.422
G1 X308.954 Y681.381
G1 X309.023 Y681.312
G1 X309.084 Y681.216
G1 X309.135 Y681.079
G1 X309.171 Y680.886
G1 X309.193 Y680.639
G1 X309.2 Y680.337
G1 X309.193 Y680.033
G1 X309.171 Y679.785
G1 X309.135 Y679.593
G1 X309.084 Y679.456
G1 X309.022 Y679.361
G1 X308.954 Y679.293
G1 X308.878 Y679.252
G1 X308.795 Y679.238
G1 X308.714 Y679.25
G1 X308.642 Y679.286
G1 X308.578 Y679.347
G1 X308.523 Y679.431
G1 X308.467 Y679.579
G1 X308.427 Y679.78
G1 X308.403 Y680.032
G1 X308.395 Y680.337
M67 E0 Q0
G0 X309.716 Y680.337 F1200
M67 E0 Q0.2
G1 X309.721 Y680.111F6000
G1 X309.735 Y679.907
G1 X309.757 Y679.727
G1 X309.79 Y679.571
G1 X309.881 Y679.314
G1 X310.008 Y679.123
G1 X310.085 Y679.054
G1 X310.172 Y679.005
G1 X310.267 Y678.975
G1 X310.373 Y678.966
G1 X310.525 Y678.987
G1 X310.657 Y679.052
G1 X310.768 Y679.159
G1 X310.859 Y679.303
G1 X310.93 Y679.485
G1 X310.984 Y679.703
G1 X311.018 Y679.979
G1 X311.029 Y680.337
G1 X311.011 Y680.764
G1 X310.956 Y681.1
G1 X310.865 Y681.357
G1 X310.739 Y681.548
G1 X310.661 Y681.618
G1 X310.575 Y681.667
G1 X310.478 Y681.697
G1 X310.373 Y681.707
G1 X310.235 Y681.689
G1 X310.113 Y681.637
G1 X310.006 Y681.55
G1 X309.915 Y681.428
G1 X309.828 Y681.234
G1 X309.766 Y680.988
G1 X309.729 Y680.689
G1 X309.716 Y680.337
M67 E0 Q0
G0 X309.97 Y680.337 F1200
M67 E0 Q0.2
G1 X309.977 Y680.64F6000
G1 X309.999 Y680.887
G1 X310.036 Y681.08
G1 X310.086 Y681.217
G1 X310.148 Y681.313
G1 X310.216 Y681.381
G1 X310.291 Y681.422
G1 X310.373 Y681.436
G1 X310.454 Y681.422
G1 X310.529 Y681.381
G1 X310.598 Y681.312
G1 X310.659 Y681.216
G1 X310.71 Y681.079
G1 X310.746 Y680.886
G1 X310.768 Y680.639
G1 X310.775 Y680.337
G1 X310.768 Y680.033
G1 X310.746 Y679.785
G1 X310.71 Y679.593
G1 X310.659 Y679.456
G1 X310.597 Y679.361
G1 X310.529 Y679.293
G1 X310.453 Y679.252
G1 X310.37 Y679.238
G1 X310.289 Y679.25
G1 X310.217 Y679.286
G1 X310.153 Y679.347
G1 X310.098 Y679.431
G1 X310.042 Y679.579
G1 X310.002 Y679.78
G1 X309.978 Y680.032
G1 X309.97 Y680.337
M67 E0 Q0
G0 X311.291 Y680.337 F1200
M67 E0 Q0.2
G1 X311.31 Y679.907F6000
G1 X311.365 Y679.571
G1 X311.456 Y679.314
G1 X311.583 Y679.123
G1 X311.66 Y679.054
G1 X311.747 Y679.005
G1 X311.842 Y678.975
G1 X311.948 Y678.966
G1 X312.1 Y678.987
G1 X312.232 Y679.052
G1 X312.343 Y679.159
G1 X312.434 Y679.303
G1 X312.505 Y679.485
G1 X312.559 Y679.703
G1 X312.593 Y679.979
G1 X312.604 Y680.337
G1 X312.586 Y680.764
G1 X312.531 Y681.1
G1 X312.44 Y681.357
G1 X312.314 Y681.548
G1 X312.236 Y681.618
G1 X312.15 Y681.667
G1 X312.053 Y681.697
G1 X311.948 Y681.707
G1 X311.81 Y681.689
G1 X311.688 Y681.637
G1 X311.581 Y681.55
G1 X311.49 Y681.428
G1 X311.403 Y681.234
G1 X311.341 Y680.988
G1 X311.304 Y680.689
G1 X311.291 Y680.337
M67 E0 Q0
G0 X311.545 Y680.337 F1200
M67 E0 Q0.2
G1 X311.552 Y680.64F6000
G1 X311.574 Y680.887
G1 X311.611 Y681.08
G1 X311.661 Y681.217
G1 X311.723 Y681.313
G1 X311.791 Y681.381
G1 X311.866 Y681.422
G1 X311.948 Y681.436
G1 X312.029 Y681.422
G1 X312.104 Y681.381
G1 X312.173 Y681.312
G1 X312.234 Y681.216
G1 X312.285 Y681.079
G1 X312.321 Y680.886
G1 X312.343 Y680.639
G1 X312.35 Y680.337
G1 X312.343 Y680.033
G1 X312.321 Y679.785
G1 X312.285 Y679.593
G1 X312.234 Y679.456
G1 X312.172 Y679.361
G1 X312.104 Y679.293
G1 X312.028 Y679.252
G1 X311.945 Y679.238
G1 X311.864 Y679.25
G1 X311.792 Y679.286
G1 X311.728 Y679.347
G1 X311.673 Y679.431
G1 X311.617 Y679.579
G1 X311.577 Y679.78
G1 X311.553 Y680.032
G1 X311.545 Y680.337
M67 E0 Q0
G0 X305.922 Y688.161 F1200
M67 E0 Q0.2
G1 X305.675F6000
G1  Y686.061
G1 X305.572 Y686.174
G1 X305.441 Y686.288
G1 X305.303 Y686.387
G1 X305.181 Y686.458
G1  Y686.139
G1 X305.375 Y685.996
G1 X305.543 Y685.824
G1 X305.676 Y685.642
G1 X305.763 Y685.466
G1 X305.922
G1  Y688.161
M67 E0 Q0
G0 X307.849 Y686.134 F1200
M67 E0 Q0.2
G1 X307.603 Y686.159F6000
G1 X307.563 Y685.992
G1 X307.51 Y685.878
G1 X307.398 Y685.772
G1 X307.262 Y685.737
G1 X307.152 Y685.758
G1 X307.055 Y685.824
G1 X306.951 Y685.964
G1 X306.871 Y686.156
G1 X306.82 Y686.42
G1 X306.801 Y686.777
G1 X306.9 Y686.619
G1 X307.019 Y686.507
G1 X307.152 Y686.441
G1 X307.29 Y686.419
G1 X307.409 Y686.435
G1 X307.519 Y686.48
G1 X307.619 Y686.556
G1 X307.711 Y686.662
G1 X307.787 Y686.792
G1 X307.841 Y686.94
G1 X307.874 Y687.106
G1 X307.885 Y687.289
G1 X307.864 Y687.533
G1 X307.803 Y687.759
G1 X307.706 Y687.951
G1 X307.578 Y688.091
G1 X307.426 Y688.178
G1 X307.254 Y688.207
G1 X307.107 Y688.188
G1 X306.974 Y688.131
G1 X306.855 Y688.036
G1 X306.75 Y687.904
G1 X306.665 Y687.728
G1 X306.604 Y687.502
G1 X306.567 Y687.228
G1 X306.555 Y686.905
G1 X306.569 Y686.542
G1 X306.609 Y686.233
G1 X306.676 Y685.976
G1 X306.771 Y685.773
G1 X306.873 Y685.639
G1 X306.992 Y685.542
G1 X307.126 Y685.485
G1 X307.278 Y685.466
G1 X307.391 Y685.477
G1 X307.494 Y685.51
G1 X307.586 Y685.565
G1 X307.667 Y685.643
G1 X307.735 Y685.74
G1 X307.788 Y685.855
G1 X307.826 Y685.986
G1 X307.849 Y686.134
M67 E0 Q0
G0 X306.839 Y687.291 F1200
M67 E0 Q0.2
G1 X306.853 Y687.458F6000
G1 X306.894 Y687.617
G1 X306.959 Y687.754
G1 X307.045 Y687.854
G1 X307.145 Y687.915
G1 X307.25 Y687.936
G1 X307.326 Y687.925
G1 X307.396 Y687.893
G1 X307.46 Y687.841
G1 X307.519 Y687.767
G1 X307.604 Y687.568
G1 X307.632 Y687.309
G1 X307.604 Y687.061
G1 X307.521 Y686.871
G1 X307.461 Y686.801
G1 X307.395 Y686.751
G1 X307.321 Y686.721
G1 X307.24 Y686.711
G1 X307.16 Y686.721
G1 X307.086 Y686.751
G1 X307.018 Y686.801
G1 X306.956 Y686.871
G1 X306.869 Y687.056
G1 X306.839 Y687.291
M67 E0 Q0
G0 X308.141 Y686.837 F1200
M67 E0 Q0.2
G1 X308.146 Y686.611F6000
G1 X308.16 Y686.407
G1 X308.182 Y686.227
G1 X308.215 Y686.071
G1 X308.306 Y685.814
G1 X308.433 Y685.623
G1 X308.51 Y685.554
G1 X308.597 Y685.505
G1 X308.692 Y685.475
G1 X308.798 Y685.466
G1 X308.95 Y685.487
G1 X309.082 Y685.552
G1 X309.193 Y685.659
G1 X309.284 Y685.803
G1 X309.355 Y685.985
G1 X309.409 Y686.203
G1 X309.443 Y686.479
G1 X309.454 Y686.837
G1 X309.436 Y687.264
G1 X309.381 Y687.6
G1 X309.29 Y687.857
G1 X309.164 Y688.048
G1 X309.086 Y688.118
G1 X309 Y688.167
G1 X308.903 Y688.197
G1 X308.798 Y688.207
G1 X308.66 Y688.189
G1 X308.538 Y688.137
G1 X308.431 Y688.05
G1 X308.34 Y687.928
G1 X308.253 Y687.734
G1 X308.191 Y687.488
G1 X308.154 Y687.189
G1 X308.141 Y686.837
M67 E0 Q0
G0 X308.395 Y686.837 F1200
M67 E0 Q0.2
G1 X308.402 Y687.14F6000
G1 X308.424 Y687.387
G1 X308.461 Y687.58
G1 X308.511 Y687.717
G1 X308.573 Y687.813
G1 X308.641 Y687.881
G1 X308.716 Y687.922
G1 X308.798 Y687.936
G1 X308.879 Y687.922
G1 X308.954 Y687.881
G1 X309.023 Y687.812
G1 X309.084 Y687.716
G1 X309.135 Y687.579
G1 X309.171 Y687.386
G1 X309.193 Y687.139
G1 X309.2 Y686.837
G1 X309.193 Y686.533
G1 X309.171 Y686.285
G1 X309.135 Y686.093
G1 X309.084 Y685.956
G1 X309.022 Y685.861
G1 X308.954 Y685.793
G1 X308.878 Y685.752
G1 X308.795 Y685.738
G1 X308.714 Y685.75
G1 X308.642 Y685.786
G1 X308.578 Y685.847
G1 X308.523 Y685.931
G1 X308.467 Y686.079
G1 X308.427 Y686.28
G1 X308.403 Y686.532
G1 X308.395 Y686.837
M67 E0 Q0
G0 X310.999 Y686.134 F1200
M67 E0 Q0.2
G1 X310.753 Y686.159F6000
G1 X310.713 Y685.992
G1 X310.66 Y685.878
G1 X310.548 Y685.772
G1 X310.412 Y685.737
G1 X310.302 Y685.758
G1 X310.205 Y685.824
G1 X310.101 Y685.964
G1 X310.021 Y686.156
G1 X309.97 Y686.42
G1 X309.951 Y686.777
G1 X310.05 Y686.619
G1 X310.169 Y686.507
G1 X310.302 Y686.441
G1 X310.44 Y686.419
G1 X310.559 Y686.435
G1 X310.669 Y686.48
G1 X310.769 Y686.556
G1 X310.861 Y686.662
G1 X310.937 Y686.792
G1 X310.991 Y686.94
G1 X311.024 Y687.106
G1 X311.035 Y687.289
G1 X311.014 Y687.533
G1 X310.953 Y687.759
G1 X310.856 Y687.951
G1 X310.728 Y688.091
G1 X310.576 Y688.178
G1 X310.404 Y688.207
G1 X310.257 Y688.188
G1 X310.124 Y688.131
G1 X310.005 Y688.036
G1 X309.9 Y687.904
G1 X309.815 Y687.728
G1 X309.754 Y687.502
G1 X309.717 Y687.228
G1 X309.705 Y686.905
G1 X309.719 Y686.542
G1 X309.759 Y686.233
G1 X309.826 Y685.976
G1 X309.921 Y685.773
G1 X310.023 Y685.639
G1 X310.142 Y685.542
G1 X310.276 Y685.485
G1 X310.428 Y685.466
G1 X310.541 Y685.477
G1 X310.644 Y685.51
G1 X310.736 Y685.565
G1 X310.817 Y685.643
G1 X310.885 Y685.74
G1 X310.938 Y685.855
G1 X310.976 Y685.986
G1 X310.999 Y686.134
M67 E0 Q0
G0 X309.989 Y687.291 F1200
M67 E0 Q0.2
G1 X310.003 Y687.458F6000
G1 X310.044 Y687.617
G1 X310.109 Y687.754
G1 X310.195 Y687.854
G1 X310.295 Y687.915
G1 X310.4 Y687.936
G1 X310.476 Y687.925
G1 X310.546 Y687.893
G1 X310.61 Y687.841
G1 X310.669 Y687.767
G1 X310.754 Y687.568
G1 X310.782 Y687.309
G1 X310.754 Y687.061
G1 X310.671 Y686.871
G1 X310.611 Y686.801
G1 X310.545 Y686.751
G1 X310.471 Y686.721
G1 X310.39 Y686.711
G1 X310.31 Y686.721
G1 X310.236 Y686.751
G1 X310.168 Y686.801
G1 X310.106 Y686.871
G1 X310.019 Y687.056
G1 X309.989 Y687.291
M67 E0 Q0
G0 X311.308 Y685.828 F1200
M67 E0 Q0.2
G1  Y685.511F6000
G1 X312.611
G1  Y685.768
G1 X312.419 Y686.085
G1 X312.23 Y686.493
G1 X312.062 Y686.951
G1 X311.938 Y687.423
G1 X311.877 Y687.776
G1 X311.843 Y688.161
G1 X311.589
G1 X311.615 Y687.811
G1 X311.683 Y687.395
G1 X311.791 Y686.955
G1 X311.939 Y686.53
G1 X312.111 Y686.146
G1 X312.294 Y685.828
G1 X311.308
M67 E0 Q0
G0 X305.922 Y694.661 F1200
M67 E0 Q0.2
G1 X305.675F6000
G1  Y692.561
G1 X305.572 Y692.674
G1 X305.441 Y692.788
G1 X305.303 Y692.887
G1 X305.181 Y692.958
G1  Y692.639
G1 X305.375 Y692.496
G1 X305.543 Y692.324
G1 X305.676 Y692.142
G1 X305.763 Y691.966
G1 X305.922
G1  Y694.661
M67 E0 Q0
G0 X307.359 Y694.661 F1200
M67 E0 Q0.2
G1  Y694.018F6000
G1 X306.485
G1  Y693.716
G1 X307.404 Y691.977
G1 X307.606
G1  Y693.716
G1 X307.878
G1  Y694.018
G1 X307.606
G1  Y694.661
G1 X307.359
M67 E0 Q0
G0 X307.359 Y693.716 F1200
M67 E0 Q0.2
G1  Y692.506F6000
G1 X306.728 Y693.716
G1 X307.359
M67 E0 Q0
G0 X309.072 Y694.661 F1200
M67 E0 Q0.2
G1 X308.825F6000
G1  Y692.561
G1 X308.722 Y692.674
G1 X308.591 Y692.788
G1 X308.453 Y692.887
G1 X308.331 Y692.958
G1  Y692.639
G1 X308.525 Y692.496
G1 X308.693 Y692.324
G1 X308.826 Y692.142
G1 X308.913 Y691.966
G1 X309.072
G1  Y694.661
M67 E0 Q0
G0 X309.718 Y693.952 F1200
M67 E0 Q0.2
G1 X309.965 Y693.908F6000
G1 X310.022 Y694.149
G1 X310.11 Y694.312
G1 X310.223 Y694.405
G1 X310.359 Y694.436
G1 X310.443 Y694.426
G1 X310.52 Y694.395
G1 X310.59 Y694.345
G1 X310.653 Y694.274
G1 X310.744 Y694.094
G1 X310.774 Y693.875
G1 X310.746 Y693.668
G1 X310.662 Y693.501
G1 X310.603 Y693.436
G1 X310.536 Y693.39
G1 X310.462 Y693.363
G1 X310.379 Y693.353
G1 X310.301 Y693.363
G1 X310.205 Y693.39
G1 X310.233 Y693.101
G1 X310.272 Y693.104
G1 X310.422 Y693.077
G1 X310.557 Y692.995
G1 X310.612 Y692.932
G1 X310.651 Y692.855
G1 X310.675 Y692.763
G1 X310.683 Y692.656
G1 X310.66 Y692.49
G1 X310.591 Y692.356
G1 X310.486 Y692.266
G1 X310.353 Y692.237
G1 X310.221 Y692.267
G1 X310.113 Y692.357
G1 X310.034 Y692.508
G1 X309.989 Y692.72
G1 X309.742 Y692.661
G1 X309.772 Y692.505
G1 X309.816 Y692.367
G1 X309.875 Y692.248
G1 X309.948 Y692.148
G1 X310.034 Y692.068
G1 X310.128 Y692.011
G1 X310.233 Y691.977
G1 X310.348 Y691.966
G1 X310.506 Y691.989
G1 X310.651 Y692.06
G1 X310.774 Y692.171
G1 X310.864 Y692.317
G1 X310.919 Y692.485
G1 X310.937 Y692.663
G1 X310.919 Y692.829
G1 X310.867 Y692.98
G1 X310.78 Y693.108
G1 X310.66 Y693.207
G1 X310.818 Y693.291
G1 X310.937 Y693.435
G1 X311.011 Y693.63
G1 X311.036 Y693.868
G1 X311.024 Y694.037
G1 X310.988 Y694.193
G1 X310.928 Y694.335
G1 X310.844 Y694.464
G1 X310.741 Y694.571
G1 X310.626 Y694.647
G1 X310.498 Y694.693
G1 X310.357 Y694.708
G1 X310.231 Y694.695
G1 X310.115 Y694.656
G1 X310.011 Y694.59
G1 X309.917 Y694.498
G1 X309.839 Y694.385
G1 X309.78 Y694.256
G1 X309.739 Y694.112
G1 X309.718 Y693.952
M67 E0 Q0
G0 X311.293 Y693.952 F1200
M67 E0 Q0.2
G1 X311.54 Y693.908F6000
G1 X311.597 Y694.149
G1 X311.685 Y694.312
G1 X311.798 Y694.405
G1 X311.934 Y694.436
G1 X312.018 Y694.426
G1 X312.095 Y694.395
G1 X312.165 Y694.345
G1 X312.228 Y694.274
G1 X312.319 Y694.094
G1 X312.349 Y693.875
G1 X312.321 Y693.668
G1 X312.237 Y693.501
G1 X312.178 Y693.436
G1 X312.111 Y693.39
G1 X312.037 Y693.363
G1 X311.954 Y693.353
G1 X311.876 Y693.363
G1 X311.78 Y693.39
G1 X311.808 Y693.101
G1 X311.847 Y693.104
G1 X311.997 Y693.077
G1 X312.132 Y692.995
G1 X312.187 Y692.932
G1 X312.226 Y692.855
G1 X312.25 Y692.763
G1 X312.258 Y692.656
G1 X312.235 Y692.49
G1 X312.166 Y692.356
G1 X312.061 Y692.266
G1 X311.928 Y692.237
G1 X311.796 Y692.267
G1 X311.688 Y692.357
G1 X311.609 Y692.508
G1 X311.564 Y692.72
G1 X311.317 Y692.661
G1 X311.347 Y692.505
G1 X311.391 Y692.367
G1 X311.45 Y692.248
G1 X311.523 Y692.148
G1 X311.609 Y692.068
G1 X311.703 Y692.011
G1 X311.808 Y691.977
G1 X311.923 Y691.966
G1 X312.081 Y691.989
G1 X312.226 Y692.06
G1 X312.349 Y692.171
G1 X312.439 Y692.317
G1 X312.494 Y692.485
G1 X312.512 Y692.663
G1 X312.495 Y692.829
G1 X312.442 Y692.98
G1 X312.355 Y693.108
G1 X312.235 Y693.207
G1 X312.393 Y693.291
G1 X312.512 Y693.435
G1 X312.586 Y693.63
G1 X312.611 Y693.868
G1 X312.599 Y694.037
G1 X312.563 Y694.193
G1 X312.503 Y694.335
G1 X312.419 Y694.464
G1 X312.316 Y694.571
G1 X312.201 Y694.647
G1 X312.073 Y694.693
G1 X311.932 Y694.708
G1 X311.806 Y694.695
G1 X311.69 Y694.656
G1 X311.586 Y694.59
G1 X311.492 Y694.498
G1 X311.414 Y694.385
G1 X311.355 Y694.256
G1 X311.314 Y694.112
G1 X311.293 Y693.952
M67 E0 Q0
G0 X305.922 Y701.161 F1200
M67 E0 Q0.2
G1 X305.675F6000
G1  Y699.061
G1 X305.572 Y699.174
G1 X305.441 Y699.288
G1 X305.303 Y699.387
G1 X305.181 Y699.458
G1  Y699.139
G1 X305.375 Y698.996
G1 X305.543 Y698.824
G1 X305.676 Y698.642
G1 X305.763 Y698.466
G1 X305.922
G1  Y701.161
M67 E0 Q0
G0 X307.865 Y700.844 F1200
M67 E0 Q0.2
G1  Y701.161F6000
G1 X306.535
G1 X306.54 Y701.044
G1 X306.563 Y700.932
G1 X306.63 Y700.752
G1 X306.726 Y700.575
G1 X306.863 Y700.385
G1 X307.05 Y700.168
G1 X307.2 Y699.998
G1 X307.325 Y699.847
G1 X307.422 Y699.714
G1 X307.493 Y699.6
G1 X307.58 Y699.396
G1 X307.608 Y699.203
G1 X307.582 Y699.023
G1 X307.503 Y698.873
G1 X307.382 Y698.772
G1 X307.229 Y698.738
G1 X307.145 Y698.747
G1 X307.069 Y698.774
G1 X307.002 Y698.819
G1 X306.944 Y698.881
G1 X306.863 Y699.051
G1 X306.835 Y699.277
G1 X306.581 Y699.242
G1 X306.603 Y699.064
G1 X306.643 Y698.908
G1 X306.702 Y698.775
G1 X306.778 Y698.664
G1 X306.87 Y698.577
G1 X306.977 Y698.515
G1 X307.099 Y698.478
G1 X307.235 Y698.466
G1 X307.372 Y698.479
G1 X307.495 Y698.519
G1 X307.602 Y698.586
G1 X307.694 Y698.68
G1 X307.768 Y698.793
G1 X307.82 Y698.92
G1 X307.852 Y699.059
G1 X307.863 Y699.211
G1 X307.85 Y699.371
G1 X307.813 Y699.528
G1 X307.747 Y699.687
G1 X307.649 Y699.855
G1 X307.496 Y700.059
G1 X307.268 Y700.328
G1 X307.085 Y700.537
G1 X307.024 Y700.611
G1 X306.982 Y700.666
G1 X306.925 Y700.755
G1 X306.878 Y700.844
G1 X307.865
M67 E0 Q0
G0 X309.44 Y700.844 F1200
M67 E0 Q0.2
G1  Y701.161F6000
G1 X308.11
G1 X308.115 Y701.044
G1 X308.138 Y700.932
G1 X308.204 Y700.752
G1 X308.301 Y700.575
G1 X308.438 Y700.385
G1 X308.625 Y700.168
G1 X308.775 Y699.998
G1 X308.9 Y699.847
G1 X308.997 Y699.714
G1 X309.068 Y699.6
G1 X309.155 Y699.396
G1 X309.184 Y699.203
G1 X309.157 Y699.023
G1 X309.078 Y698.873
G1 X308.957 Y698.772
G1 X308.804 Y698.738
G1 X308.72 Y698.747
G1 X308.644 Y698.774
G1 X308.577 Y698.819
G1 X308.519 Y698.881
G1 X308.438 Y699.051
G1 X308.41 Y699.277
G1 X308.156 Y699.242
G1 X308.178 Y699.064
G1 X308.218 Y698.908
G1 X308.277 Y698.775
G1 X308.353 Y698.664
G1 X308.445 Y698.577
G1 X308.552 Y698.515
G1 X308.674 Y698.478
G1 X308.81 Y698.466
G1 X308.947 Y698.479
G1 X309.07 Y698.519
G1 X309.177 Y698.586
G1 X309.269 Y698.68
G1 X309.343 Y698.793
G1 X309.395 Y698.92
G1 X309.427 Y699.059
G1 X309.438 Y699.211
G1 X309.425 Y699.371
G1 X309.388 Y699.528
G1 X309.322 Y699.687
G1 X309.224 Y699.855
G1 X309.071 Y700.059
G1 X308.843 Y700.328
G1 X308.66 Y700.537
G1 X308.599 Y700.611
G1 X308.557 Y700.666
G1 X308.5 Y700.755
G1 X308.453 Y700.844
G1 X309.44
M67 E0 Q0
G0 X309.716 Y699.837 F1200
M67 E0 Q0.2
G1 X309.721 Y699.611F6000
G1 X309.735 Y699.407
G1 X309.757 Y699.227
G1 X309.79 Y699.071
G1 X309.881 Y698.814
G1 X310.008 Y698.623
G1 X310.085 Y698.554
G1 X310.172 Y698.505
G1 X310.267 Y698.475
G1 X310.373 Y698.466
G1 X310.525 Y698.487
G1 X310.657 Y698.552
G1 X310.768 Y698.659
G1 X310.859 Y698.803
G1 X310.93 Y698.985
G1 X310.984 Y699.203
G1 X311.018 Y699.479
G1 X311.029 Y699.837
G1 X311.011 Y700.264
G1 X310.956 Y700.6
G1 X310.865 Y700.857
G1 X310.739 Y701.048
G1 X310.661 Y701.118
G1 X310.575 Y701.167
G1 X310.478 Y701.197
G1 X310.373 Y701.207
G1 X310.235 Y701.189
G1 X310.113 Y701.137
G1 X310.006 Y701.05
G1 X309.915 Y700.928
G1 X309.828 Y700.734
G1 X309.766 Y700.488
G1 X309.729 Y700.189
G1 X309.716 Y699.837
M67 E0 Q0
G0 X309.97 Y699.837 F1200
M67 E0 Q0.2
G1 X309.977 Y700.14F6000
G1 X309.999 Y700.387
G1 X310.036 Y700.58
G1 X310.086 Y700.717
G1 X310.148 Y700.813
G1 X310.216 Y700.881
G1 X310.291 Y700.922
G1 X310.373 Y700.936
G1 X310.454 Y700.922
G1 X310.529 Y700.881
G1 X310.598 Y700.812
G1 X310.659 Y700.716
G1 X310.71 Y700.579
G1 X310.746 Y700.386
G1 X310.768 Y700.139
G1 X310.775 Y699.837
G1 X310.768 Y699.533
G1 X310.746 Y699.285
G1 X310.71 Y699.093
G1 X310.659 Y698.956
G1 X310.597 Y698.861
G1 X310.529 Y698.793
G1 X310.453 Y698.752
G1 X310.37 Y698.738
G1 X310.289 Y698.75
G1 X310.217 Y698.786
G1 X310.153 Y698.847
G1 X310.098 Y698.931
G1 X310.042 Y699.079
G1 X310.002 Y699.28
G1 X309.978 Y699.532
G1 X309.97 Y699.837
M67 E0 Q0
G0 X311.291 Y699.837 F1200
M67 E0 Q0.2
G1 X311.31 Y699.407F6000
G1 X311.365 Y699.071
G1 X311.456 Y698.814
G1 X311.583 Y698.623
G1 X311.66 Y698.554
G1 X311.747 Y698.505
G1 X311.842 Y698.475
G1 X311.948 Y698.466
G1 X312.1 Y698.487
G1 X312.232 Y698.552
G1 X312.343 Y698.659
G1 X312.434 Y698.803
G1 X312.505 Y698.985
G1 X312.559 Y699.203
G1 X312.593 Y699.479
G1 X312.604 Y699.837
G1 X312.586 Y700.264
G1 X312.531 Y700.6
G1 X312.44 Y700.857
G1 X312.314 Y701.048
G1 X312.236 Y701.118
G1 X312.15 Y701.167
G1 X312.053 Y701.197
G1 X311.948 Y701.207
G1 X311.81 Y701.189
G1 X311.688 Y701.137
G1 X311.581 Y701.05
G1 X311.49 Y700.928
G1 X311.403 Y700.734
G1 X311.341 Y700.488
G1 X311.304 Y700.189
G1 X311.291 Y699.837
M67 E0 Q0
G0 X311.545 Y699.837 F1200
M67 E0 Q0.2
G1 X311.552 Y700.14F6000
G1 X311.574 Y700.387
G1 X311.611 Y700.58
G1 X311.661 Y700.717
G1 X311.723 Y700.813
G1 X311.791 Y700.881
G1 X311.866 Y700.922
G1 X311.948 Y700.936
G1 X312.029 Y700.922
G1 X312.104 Y700.881
G1 X312.173 Y700.812
G1 X312.234 Y700.716
G1 X312.285 Y700.579
G1 X312.321 Y700.386
G1 X312.343 Y700.139
G1 X312.35 Y699.837
G1 X312.343 Y699.533
G1 X312.321 Y699.285
G1 X312.285 Y699.093
G1 X312.234 Y698.956
G1 X312.172 Y698.861
G1 X312.104 Y698.793
G1 X312.028 Y698.752
G1 X311.945 Y698.738
G1 X311.864 Y698.75
G1 X311.792 Y698.786
G1 X311.728 Y698.847
G1 X311.673 Y698.931
G1 X311.617 Y699.079
G1 X311.577 Y699.28
G1 X311.553 Y699.532
G1 X311.545 Y699.837
M67 E0 Q0
G0 X305.922 Y707.661 F1200
M67 E0 Q0.2
G1 X305.675F6000
G1  Y705.561
G1 X305.572 Y705.674
G1 X305.441 Y705.788
G1 X305.303 Y705.887
G1 X305.181 Y705.958
G1  Y705.639
G1 X305.375 Y705.496
G1 X305.543 Y705.324
G1 X305.676 Y705.142
G1 X305.763 Y704.966
G1 X305.922
G1  Y707.661
M67 E0 Q0
G0 X306.566 Y706.337 F1200
M67 E0 Q0.2
G1 X306.571 Y706.111F6000
G1 X306.585 Y705.907
G1 X306.608 Y705.727
G1 X306.64 Y705.571
G1 X306.731 Y705.314
G1 X306.858 Y705.123
G1 X306.935 Y705.054
G1 X307.022 Y705.005
G1 X307.117 Y704.975
G1 X307.223 Y704.966
G1 X307.375 Y704.987
G1 X307.507 Y705.052
G1 X307.618 Y705.159
G1 X307.709 Y705.303
G1 X307.78 Y705.485
G1 X307.834 Y705.703
G1 X307.868 Y705.979
G1 X307.879 Y706.337
G1 X307.861 Y706.764
G1 X307.806 Y707.1
G1 X307.715 Y707.357
G1 X307.589 Y707.548
G1 X307.511 Y707.618
G1 X307.425 Y707.667
G1 X307.328 Y707.697
G1 X307.223 Y707.707
G1 X307.085 Y707.689
G1 X306.963 Y707.637
G1 X306.856 Y707.55
G1 X306.765 Y707.428
G1 X306.678 Y707.234
G1 X306.616 Y706.988
G1 X306.579 Y706.689
G1 X306.566 Y706.337
M67 E0 Q0
G0 X306.82 Y706.337 F1200
M67 E0 Q0.2
G1 X306.827 Y706.64F6000
G1 X306.849 Y706.887
G1 X306.885 Y707.08
G1 X306.936 Y707.217
G1 X306.998 Y707.313
G1 X307.066 Y707.381
G1 X307.141 Y707.422
G1 X307.223 Y707.436
G1 X307.304 Y707.422
G1 X307.379 Y707.381
G1 X307.448 Y707.312
G1 X307.509 Y707.216
G1 X307.56 Y707.079
G1 X307.596 Y706.886
G1 X307.618 Y706.639
G1 X307.625 Y706.337
G1 X307.618 Y706.033
G1 X307.596 Y705.785
G1 X307.56 Y705.593
G1 X307.509 Y705.456
G1 X307.447 Y705.361
G1 X307.379 Y705.293
G1 X307.303 Y705.252
G1 X307.22 Y705.238
G1 X307.139 Y705.25
G1 X307.067 Y705.286
G1 X307.003 Y705.347
G1 X306.948 Y705.431
G1 X306.892 Y705.579
G1 X306.852 Y705.78
G1 X306.828 Y706.032
G1 X306.82 Y706.337
M67 E0 Q0
G0 X309.44 Y707.344 F1200
M67 E0 Q0.2
G1  Y707.661F6000
G1 X308.11
G1 X308.115 Y707.544
G1 X308.138 Y707.432
G1 X308.204 Y707.252
G1 X308.301 Y707.075
G1 X308.438 Y706.885
G1 X308.625 Y706.668
G1 X308.775 Y706.498
G1 X308.9 Y706.347
G1 X308.997 Y706.214
G1 X309.068 Y706.1
G1 X309.155 Y705.896
G1 X309.184 Y705.703
G1 X309.157 Y705.523
G1 X309.078 Y705.373
G1 X308.957 Y705.272
G1 X308.804 Y705.238
G1 X308.72 Y705.247
G1 X308.644 Y705.274
G1 X308.577 Y705.319
G1 X308.519 Y705.381
G1 X308.438 Y705.551
G1 X308.41 Y705.777
G1 X308.156 Y705.742
G1 X308.178 Y705.564
G1 X308.218 Y705.408
G1 X308.277 Y705.275
G1 X308.353 Y705.164
G1 X308.445 Y705.077
G1 X308.552 Y705.015
G1 X308.674 Y704.978
G1 X308.81 Y704.966
G1 X308.947 Y704.979
G1 X309.07 Y705.019
G1 X309.177 Y705.086
G1 X309.269 Y705.18
G1 X309.343 Y705.293
G1 X309.395 Y705.42
G1 X309.427 Y705.559
G1 X309.438 Y705.711
G1 X309.425 Y705.871
G1 X309.388 Y706.028
G1 X309.322 Y706.187
G1 X309.224 Y706.355
G1 X309.071 Y706.559
G1 X308.843 Y706.828
G1 X308.66 Y707.037
G1 X308.599 Y707.111
G1 X308.557 Y707.166
G1 X308.5 Y707.255
G1 X308.453 Y707.344
G1 X309.44
M67 E0 Q0
G0 X310.999 Y705.634 F1200
M67 E0 Q0.2
G1 X310.753 Y705.659F6000
G1 X310.713 Y705.492
G1 X310.66 Y705.378
G1 X310.548 Y705.272
G1 X310.412 Y705.237
G1 X310.302 Y705.258
G1 X310.205 Y705.324
G1 X310.101 Y705.464
G1 X310.021 Y705.656
G1 X309.97 Y705.92
G1 X309.951 Y706.277
G1 X310.05 Y706.119
G1 X310.169 Y706.007
G1 X310.302 Y705.941
G1 X310.44 Y705.919
G1 X310.559 Y705.935
G1 X310.669 Y705.98
G1 X310.769 Y706.056
G1 X310.861 Y706.162
G1 X310.937 Y706.292
G1 X310.991 Y706.44
G1 X311.024 Y706.606
G1 X311.035 Y706.789
G1 X311.014 Y707.033
G1 X310.953 Y707.259
G1 X310.856 Y707.451
G1 X310.728 Y707.591
G1 X310.576 Y707.678
G1 X310.404 Y707.707
G1 X310.257 Y707.688
G1 X310.124 Y707.631
G1 X310.005 Y707.536
G1 X309.9 Y707.404
G1 X309.815 Y707.228
G1 X309.754 Y707.002
G1 X309.717 Y706.728
G1 X309.705 Y706.405
G1 X309.719 Y706.042
G1 X309.759 Y705.733
G1 X309.826 Y705.476
G1 X309.921 Y705.273
G1 X310.023 Y705.139
G1 X310.142 Y705.042
G1 X310.276 Y704.985
G1 X310.428 Y704.966
G1 X310.541 Y704.977
G1 X310.644 Y705.01
G1 X310.736 Y705.065
G1 X310.817 Y705.143
G1 X310.885 Y705.24
G1 X310.938 Y705.355
G1 X310.976 Y705.486
G1 X310.999 Y705.634
M67 E0 Q0
G0 X309.989 Y706.791 F1200
M67 E0 Q0.2
G1 X310.003 Y706.958F6000
G1 X310.044 Y707.117
G1 X310.109 Y707.254
G1 X310.195 Y707.354
G1 X310.295 Y707.415
G1 X310.4 Y707.436
G1 X310.476 Y707.425
G1 X310.546 Y707.393
G1 X310.61 Y707.341
G1 X310.669 Y707.267
G1 X310.754 Y707.068
G1 X310.782 Y706.809
G1 X310.754 Y706.561
G1 X310.671 Y706.371
G1 X310.611 Y706.301
G1 X310.545 Y706.251
G1 X310.471 Y706.221
G1 X310.39 Y706.211
G1 X310.31 Y706.221
G1 X310.236 Y706.251
G1 X310.168 Y706.301
G1 X310.106 Y706.371
G1 X310.019 Y706.556
G1 X309.989 Y706.791
M67 E0 Q0
G0 X311.308 Y705.328 F1200
M67 E0 Q0.2
G1  Y705.011F6000
G1 X312.611
G1  Y705.268
G1 X312.419 Y705.585
G1 X312.23 Y705.993
G1 X312.062 Y706.451
G1 X311.938 Y706.923
G1 X311.877 Y707.276
G1 X311.843 Y707.661
G1 X311.589
G1 X311.615 Y707.311
G1 X311.683 Y706.895
G1 X311.791 Y706.455
G1 X311.939 Y706.03
G1 X312.111 Y705.646
G1 X312.294 Y705.328
G1 X311.308
M67 E0 Q0
G0 X306.778 Y712.705 F1200
M67 E0 Q0.2
G1 X306.644 Y712.614F6000
G1 X306.55 Y712.491
G1 X306.494 Y712.338
G1 X306.476 Y712.158
G1 X306.486 Y712.017
G1 X306.515 Y711.888
G1 X306.565 Y711.771
G1 X306.634 Y711.665
G1 X306.719 Y711.578
G1 X306.818 Y711.515
G1 X306.929 Y711.478
G1 X307.054 Y711.466
G1 X307.179 Y711.478
G1 X307.292 Y711.517
G1 X307.391 Y711.58
G1 X307.478 Y711.67
G1 X307.549 Y711.777
G1 X307.599 Y711.896
G1 X307.629 Y712.026
G1 X307.639 Y712.167
G1 X307.621 Y712.341
G1 X307.565 Y712.492
G1 X307.473 Y712.614
G1 X307.342 Y712.705
G1 X307.505 Y712.81
G1 X307.624 Y712.965
G1 X307.697 Y713.162
G1 X307.721 Y713.394
G1 X307.71 Y713.559
G1 X307.676 Y713.71
G1 X307.619 Y713.848
G1 X307.539 Y713.972
G1 X307.44 Y714.075
G1 X307.327 Y714.148
G1 X307.2 Y714.192
G1 X307.058 Y714.207
G1 X306.916 Y714.192
G1 X306.789 Y714.148
G1 X306.676 Y714.074
G1 X306.577 Y713.971
G1 X306.497 Y713.846
G1 X306.44 Y713.707
G1 X306.406 Y713.553
G1 X306.395 Y713.384
G1 X306.42 Y713.144
G1 X306.494 Y712.946
G1 X306.615 Y712.797
G1 X306.778 Y712.705
M67 E0 Q0
G0 X306.728 Y712.147 F1200
M67 E0 Q0.2
G1 X306.751 Y712.32F6000
G1 X306.82 Y712.458
G1 X306.926 Y712.549
G1 X307.059 Y712.579
G1 X307.189 Y712.549
G1 X307.293 Y712.459
G1 X307.362 Y712.325
G1 X307.385 Y712.165
G1 X307.361 Y711.998
G1 X307.291 Y711.86
G1 X307.185 Y711.767
G1 X307.057 Y711.737
G1 X306.927 Y711.767
G1 X306.822 Y711.857
G1 X306.752 Y711.99
G1 X306.728 Y712.147
M67 E0 Q0
G0 X306.649 Y713.386 F1200
M67 E0 Q0.2
G1 X306.661 Y713.525F6000
G1 X306.699 Y713.659
G1 X306.761 Y713.776
G1 X306.848 Y713.863
G1 X306.951 Y713.918
G1 X307.061 Y713.936
G1 X307.145 Y713.926
G1 X307.222 Y713.898
G1 X307.292 Y713.85
G1 X307.353 Y713.784
G1 X307.44 Y713.611
G1 X307.469 Y713.397
G1 X307.439 Y713.18
G1 X307.35 Y713.004
G1 X307.287 Y712.936
G1 X307.216 Y712.887
G1 X307.138 Y712.858
G1 X307.052 Y712.848
G1 X306.969 Y712.858
G1 X306.893 Y712.886
G1 X306.824 Y712.935
G1 X306.763 Y713.002
G1 X306.677 Y713.175
G1 X306.649 Y713.386
M67 E0 Q0
G0 X307.974 Y713.452 F1200
M67 E0 Q0.2
G1 X308.221 Y713.408F6000
G1 X308.279 Y713.649
G1 X308.366 Y713.812
G1 X308.479 Y713.905
G1 X308.615 Y713.936
G1 X308.699 Y713.926
G1 X308.776 Y713.895
G1 X308.846 Y713.845
G1 X308.91 Y713.774
G1 X309 Y713.594
G1 X309.03 Y713.375
G1 X309.002 Y713.168
G1 X308.919 Y713.001
G1 X308.859 Y712.936
G1 X308.792 Y712.89
G1 X308.718 Y712.863
G1 X308.636 Y712.853
G1 X308.557 Y712.863
G1 X308.461 Y712.89
G1 X308.489 Y712.601
G1 X308.529 Y712.604
G1 X308.679 Y712.577
G1 X308.813 Y712.495
G1 X308.868 Y712.432
G1 X308.908 Y712.355
G1 X308.931 Y712.263
G1 X308.939 Y712.156
G1 X308.916 Y711.99
G1 X308.847 Y711.856
G1 X308.742 Y711.766
G1 X308.61 Y711.737
G1 X308.477 Y711.767
G1 X308.369 Y711.857
G1 X308.29 Y712.008
G1 X308.246 Y712.22
G1 X307.999 Y712.161
G1 X308.028 Y712.005
G1 X308.073 Y711.867
G1 X308.131 Y711.748
G1 X308.204 Y711.648
G1 X308.29 Y711.568
G1 X308.385 Y711.511
G1 X308.49 Y711.477
G1 X308.604 Y711.466
G1 X308.762 Y711.489
G1 X308.908 Y711.56
G1 X309.03 Y711.671
G1 X309.12 Y711.817
G1 X309.175 Y711.985
G1 X309.193 Y712.163
G1 X309.176 Y712.329
G1 X309.123 Y712.48
G1 X309.036 Y712.608
G1 X308.916 Y712.707
G1 X309.074 Y712.791
G1 X309.193 Y712.935
G1 X309.267 Y713.13
G1 X309.292 Y713.368
G1 X309.28 Y713.537
G1 X309.244 Y713.693
G1 X309.184 Y713.835
G1 X309.1 Y713.964
G1 X308.997 Y714.071
G1 X308.882 Y714.147
G1 X308.754 Y714.193
G1 X308.614 Y714.208
G1 X308.487 Y714.195
G1 X308.371 Y714.156
G1 X308.267 Y714.09
G1 X308.174 Y713.998
G1 X308.095 Y713.885
G1 X308.036 Y713.756
G1 X307.996 Y713.612
G1 X307.974 Y713.452
M67 E0 Q0
G0 X309.549 Y713.452 F1200
M67 E0 Q0.2
G1 X309.796 Y713.408F6000
G1 X309.853 Y713.649
G1 X309.941 Y713.812
G1 X310.054 Y713.905
G1 X310.19 Y713.936
G1 X310.274 Y713.926
G1 X310.351 Y713.895
G1 X310.421 Y713.845
G1 X310.485 Y713.774
G1 X310.575 Y713.594
G1 X310.605 Y713.375
G1 X310.577 Y713.168
G1 X310.494 Y713.001
G1 X310.434 Y712.936
G1 X310.367 Y712.89
G1 X310.293 Y712.863
G1 X310.211 Y712.853
G1 X310.132 Y712.863
G1 X310.036 Y712.89
G1 X310.064 Y712.601
G1 X310.104 Y712.604
G1 X310.254 Y712.577
G1 X310.388 Y712.495
G1 X310.443 Y712.432
G1 X310.483 Y712.355
G1 X310.506 Y712.263
G1 X310.514 Y712.156
G1 X310.491 Y711.99
G1 X310.422 Y711.856
G1 X310.317 Y711.766
G1 X310.185 Y711.737
G1 X310.052 Y711.767
G1 X309.944 Y711.857
G1 X309.865 Y712.008
G1 X309.821 Y712.22
G1 X309.574 Y712.161
G1 X309.603 Y712.005
G1 X309.648 Y711.867
G1 X309.706 Y711.748
G1 X309.78 Y711.648
G1 X309.865 Y711.568
G1 X309.96 Y711.511
G1 X310.065 Y711.477
G1 X310.179 Y711.466
G1 X310.337 Y711.489
G1 X310.483 Y711.56
G1 X310.605 Y711.671
G1 X310.695 Y711.817
G1 X310.75 Y711.985
G1 X310.768 Y712.163
G1 X310.751 Y712.329
G1 X310.698 Y712.48
G1 X310.611 Y712.608
G1 X310.491 Y712.707
G1 X310.65 Y712.791
G1 X310.768 Y712.935
G1 X310.842 Y713.13
G1 X310.867 Y713.368
G1 X310.855 Y713.537
G1 X310.819 Y713.693
G1 X310.759 Y713.835
G1 X310.675 Y713.964
G1 X310.572 Y714.071
G1 X310.457 Y714.147
G1 X310.329 Y714.193
G1 X310.189 Y714.208
G1 X310.062 Y714.195
G1 X309.946 Y714.156
G1 X309.842 Y714.09
G1 X309.749 Y713.998
G1 X309.67 Y713.885
G1 X309.611 Y713.756
G1 X309.571 Y713.612
G1 X309.549 Y713.452
M67 E0 Q0
G0 X311.124 Y713.452 F1200
M67 E0 Q0.2
G1 X311.371 Y713.408F6000
G1 X311.428 Y713.649
G1 X311.516 Y713.812
G1 X311.629 Y713.905
G1 X311.765 Y713.936
G1 X311.849 Y713.926
G1 X311.926 Y713.895
G1 X311.996 Y713.845
G1 X312.06 Y713.774
G1 X312.15 Y713.594
G1 X312.18 Y713.375
G1 X312.152 Y713.168
G1 X312.069 Y713.001
G1 X312.009 Y712.936
G1 X311.942 Y712.89
G1 X311.868 Y712.863
G1 X311.786 Y712.853
G1 X311.707 Y712.863
G1 X311.611 Y712.89
G1 X311.639 Y712.601
G1 X311.679 Y712.604
G1 X311.829 Y712.577
G1 X311.963 Y712.495
G1 X312.018 Y712.432
G1 X312.058 Y712.355
G1 X312.081 Y712.263
G1 X312.089 Y712.156
G1 X312.066 Y711.99
G1 X311.997 Y711.856
G1 X311.892 Y711.766
G1 X311.76 Y711.737
G1 X311.627 Y711.767
G1 X311.519 Y711.857
G1 X311.44 Y712.008
G1 X311.396 Y712.22
G1 X311.148 Y712.161
G1 X311.178 Y712.005
G1 X311.223 Y711.867
G1 X311.281 Y711.748
G1 X311.354 Y711.648
G1 X311.44 Y711.568
G1 X311.535 Y711.511
G1 X311.64 Y711.477
G1 X311.754 Y711.466
G1 X311.912 Y711.489
G1 X312.058 Y711.56
G1 X312.18 Y711.671
G1 X312.27 Y711.817
G1 X312.325 Y711.985
G1 X312.343 Y712.163
G1 X312.326 Y712.329
G1 X312.273 Y712.48
G1 X312.186 Y712.608
G1 X312.066 Y712.707
G1 X312.224 Y712.791
G1 X312.343 Y712.935
G1 X312.417 Y713.13
G1 X312.442 Y713.368
G1 X312.43 Y713.537
G1 X312.394 Y713.693
G1 X312.334 Y713.835
G1 X312.25 Y713.964
G1 X312.147 Y714.071
G1 X312.032 Y714.147
G1 X311.904 Y714.193
G1 X311.764 Y714.208
G1 X311.637 Y714.195
G1 X311.521 Y714.156
G1 X311.417 Y714.09
G1 X311.324 Y713.998
G1 X311.245 Y713.885
G1 X311.186 Y713.756
G1 X311.146 Y713.612
G1 X311.124 Y713.452
M67 E0 Q0
G0 X307.624 Y718.634 F1200
M67 E0 Q0.2
G1 X307.378 Y718.659F6000
G1 X307.338 Y718.492
G1 X307.285 Y718.378
G1 X307.173 Y718.272
G1 X307.037 Y718.237
G1 X306.927 Y718.258
G1 X306.83 Y718.324
G1 X306.726 Y718.464
G1 X306.646 Y718.656
G1 X306.595 Y718.92
G1 X306.576 Y719.277
G1 X306.675 Y719.119
G1 X306.794 Y719.007
G1 X306.927 Y718.941
G1 X307.065 Y718.919
G1 X307.184 Y718.935
G1 X307.294 Y718.98
G1 X307.394 Y719.056
G1 X307.486 Y719.162
G1 X307.562 Y719.292
G1 X307.616 Y719.44
G1 X307.649 Y719.606
G1 X307.66 Y719.789
G1 X307.639 Y720.033
G1 X307.578 Y720.259
G1 X307.481 Y720.451
G1 X307.353 Y720.591
G1 X307.201 Y720.678
G1 X307.029 Y720.707
G1 X306.882 Y720.688
G1 X306.749 Y720.631
G1 X306.63 Y720.536
G1 X306.525 Y720.404
G1 X306.44 Y720.228
G1 X306.379 Y720.002
G1 X306.342 Y719.728
G1 X306.33 Y719.405
G1 X306.344 Y719.042
G1 X306.384 Y718.733
G1 X306.451 Y718.476
G1 X306.546 Y718.273
G1 X306.648 Y718.139
G1 X306.767 Y718.042
G1 X306.901 Y717.985
G1 X307.053 Y717.966
G1 X307.166 Y717.977
G1 X307.269 Y718.01
G1 X307.361 Y718.065
G1 X307.442 Y718.143
G1 X307.51 Y718.24
G1 X307.563 Y718.355
G1 X307.601 Y718.486
G1 X307.624 Y718.634
M67 E0 Q0
G0 X306.614 Y719.791 F1200
M67 E0 Q0.2
G1 X306.628 Y719.958F6000
G1 X306.669 Y720.117
G1 X306.734 Y720.254
G1 X306.82 Y720.354
G1 X306.92 Y720.415
G1 X307.025 Y720.436
G1 X307.101 Y720.425
G1 X307.171 Y720.393
G1 X307.235 Y720.341
G1 X307.294 Y720.267
G1 X307.379 Y720.068
G1 X307.407 Y719.809
G1 X307.379 Y719.561
G1 X307.296 Y719.371
G1 X307.236 Y719.301
G1 X307.17 Y719.251
G1 X307.096 Y719.221
G1 X307.015 Y719.211
G1 X306.935 Y719.221
G1 X306.861 Y719.251
G1 X306.793 Y719.301
G1 X306.731 Y719.371
G1 X306.644 Y719.556
G1 X306.614 Y719.791
M67 E0 Q0
G0 X308.709 Y720.661 F1200
M67 E0 Q0.2
G1  Y720.018F6000
G1 X307.835
G1  Y719.716
G1 X308.754 Y717.977
G1 X308.956
G1  Y719.716
G1 X309.228
G1  Y720.018
G1 X308.956
G1  Y720.661
G1 X308.709
M67 E0 Q0
G0 X308.709 Y719.716 F1200
M67 E0 Q0.2
G1  Y718.506F6000
G1 X308.078 Y719.716
G1 X308.709
M67 E0 Q0
G0 X309.491 Y719.337 F1200
M67 E0 Q0.2
G1 X309.51 Y718.907F6000
G1 X309.565 Y718.571
G1 X309.656 Y718.314
G1 X309.783 Y718.123
G1 X309.86 Y718.054
G1 X309.947 Y718.005
G1 X310.042 Y717.975
G1 X310.148 Y717.966
G1 X310.3 Y717.987
G1 X310.432 Y718.052
G1 X310.543 Y718.159
G1 X310.634 Y718.303
G1 X310.705 Y718.485
G1 X310.759 Y718.703
G1 X310.793 Y718.979
G1 X310.804 Y719.337
G1 X310.786 Y719.764
G1 X310.731 Y720.1
G1 X310.64 Y720.357
G1 X310.514 Y720.548
G1 X310.436 Y720.618
G1 X310.35 Y720.667
G1 X310.253 Y720.697
G1 X310.148 Y720.707
G1 X310.01 Y720.689
G1 X309.888 Y720.637
G1 X309.781 Y720.55
G1 X309.69 Y720.428
G1 X309.603 Y720.234
G1 X309.541 Y719.988
G1 X309.504 Y719.689
G1 X309.491 Y719.337
M67 E0 Q0
G0 X309.745 Y719.337 F1200
M67 E0 Q0.2
G1 X309.753 Y719.64F6000
G1 X309.774 Y719.887
G1 X309.81 Y720.08
G1 X309.861 Y720.217
G1 X309.923 Y720.313
G1 X309.991 Y720.381
G1 X310.066 Y720.422
G1 X310.148 Y720.436
G1 X310.229 Y720.422
G1 X310.304 Y720.381
G1 X310.373 Y720.312
G1 X310.434 Y720.216
G1 X310.485 Y720.079
G1 X310.521 Y719.886
G1 X310.543 Y719.639
G1 X310.55 Y719.337
G1 X310.543 Y719.033
G1 X310.521 Y718.785
G1 X310.485 Y718.593
G1 X310.434 Y718.456
G1 X310.372 Y718.361
G1 X310.304 Y718.293
G1 X310.228 Y718.252
G1 X310.145 Y718.238
G1 X310.064 Y718.25
G1 X309.992 Y718.286
G1 X309.928 Y718.347
G1 X309.873 Y718.431
G1 X309.817 Y718.579
G1 X309.777 Y718.78
G1 X309.753 Y719.032
G1 X309.745 Y719.337
M67 E0 Q0
G0 X311.066 Y719.337 F1200
M67 E0 Q0.2
G1 X311.071 Y719.111F6000
G1 X311.085 Y718.907
G1 X311.108 Y718.727
G1 X311.14 Y718.571
G1 X311.231 Y718.314
G1 X311.358 Y718.123
G1 X311.435 Y718.054
G1 X311.522 Y718.005
G1 X311.617 Y717.975
G1 X311.723 Y717.966
G1 X311.875 Y717.987
G1 X312.007 Y718.052
G1 X312.118 Y718.159
G1 X312.209 Y718.303
G1 X312.28 Y718.485
G1 X312.334 Y718.703
G1 X312.368 Y718.979
G1 X312.379 Y719.337
G1 X312.361 Y719.764
G1 X312.306 Y720.1
G1 X312.215 Y720.357
G1 X312.089 Y720.548
G1 X312.011 Y720.618
G1 X311.925 Y720.667
G1 X311.828 Y720.697
G1 X311.723 Y720.707
G1 X311.585 Y720.689
G1 X311.463 Y720.637
G1 X311.356 Y720.55
G1 X311.265 Y720.428
G1 X311.178 Y720.234
G1 X311.116 Y719.988
G1 X311.079 Y719.689
G1 X311.066 Y719.337
M67 E0 Q0
G0 X311.32 Y719.337 F1200
M67 E0 Q0.2
G1 X311.327 Y719.64F6000
G1 X311.349 Y719.887
G1 X311.385 Y720.08
G1 X311.436 Y720.217
G1 X311.498 Y720.313
G1 X311.566 Y720.381
G1 X311.641 Y720.422
G1 X311.723 Y720.436
G1 X311.804 Y720.422
G1 X311.879 Y720.381
G1 X311.948 Y720.312
G1 X312.009 Y720.216
G1 X312.06 Y720.079
G1 X312.096 Y719.886
G1 X312.118 Y719.639
G1 X312.125 Y719.337
G1 X312.118 Y719.033
G1 X312.096 Y718.785
G1 X312.06 Y718.593
G1 X312.009 Y718.456
G1 X311.947 Y718.361
G1 X311.879 Y718.293
G1 X311.803 Y718.252
G1 X311.72 Y718.238
G1 X311.639 Y718.25
G1 X311.567 Y718.286
G1 X311.503 Y718.347
G1 X311.448 Y718.431
G1 X311.392 Y718.579
G1 X311.352 Y718.78
G1 X311.328 Y719.032
G1 X311.32 Y719.337
M67 E0 Q0
G0 X307.077 Y727.161 F1200
M67 E0 Q0.2
G1  Y726.518F6000
G1 X306.204
G1  Y726.216
G1 X307.123 Y724.477
G1 X307.324
G1  Y726.216
G1 X307.596
G1  Y726.518
G1 X307.324
G1  Y727.161
G1 X307.077
M67 E0 Q0
G0 X307.077 Y726.216 F1200
M67 E0 Q0.2
G1  Y725.006F6000
G1 X306.447 Y726.216
G1 X307.077
M67 E0 Q0
G0 X308.652 Y727.161 F1200
M67 E0 Q0.2
G1  Y726.518F6000
G1 X307.779
G1  Y726.216
G1 X308.698 Y724.477
G1 X308.9
G1  Y726.216
G1 X309.171
G1  Y726.518
G1 X308.9
G1  Y727.161
G1 X308.652
M67 E0 Q0
G0 X308.652 Y726.216 F1200
M67 E0 Q0.2
G1  Y725.006F6000
G1 X308.022 Y726.216
G1 X308.652
M67 E0 Q0
G0 X310.718 Y725.134 F1200
M67 E0 Q0.2
G1 X310.472 Y725.159F6000
G1 X310.432 Y724.992
G1 X310.378 Y724.878
G1 X310.266 Y724.772
G1 X310.131 Y724.737
G1 X310.02 Y724.758
G1 X309.924 Y724.824
G1 X309.819 Y724.964
G1 X309.74 Y725.156
G1 X309.689 Y725.42
G1 X309.67 Y725.777
G1 X309.769 Y725.619
G1 X309.888 Y725.507
G1 X310.02 Y725.441
G1 X310.159 Y725.419
G1 X310.278 Y725.435
G1 X310.387 Y725.48
G1 X310.488 Y725.556
G1 X310.58 Y725.662
G1 X310.656 Y725.792
G1 X310.71 Y725.94
G1 X310.742 Y726.106
G1 X310.753 Y726.289
G1 X310.733 Y726.533
G1 X310.672 Y726.759
G1 X310.575 Y726.951
G1 X310.447 Y727.091
G1 X310.295 Y727.178
G1 X310.123 Y727.207
G1 X309.976 Y727.188
G1 X309.842 Y727.131
G1 X309.724 Y727.036
G1 X309.619 Y726.904
G1 X309.534 Y726.728
G1 X309.473 Y726.502
G1 X309.436 Y726.228
G1 X309.424 Y725.905
G1 X309.437 Y725.542
G1 X309.478 Y725.233
G1 X309.545 Y724.976
G1 X309.64 Y724.773
G1 X309.742 Y724.639
G1 X309.86 Y724.542
G1 X309.995 Y724.485
G1 X310.146 Y724.466
G1 X310.26 Y724.477
G1 X310.362 Y724.51
G1 X310.454 Y724.565
G1 X310.536 Y724.643
G1 X310.604 Y724.74
G1 X310.657 Y724.855
G1 X310.695 Y724.986
G1 X310.718 Y725.134
M67 E0 Q0
G0 X309.708 Y726.291 F1200
M67 E0 Q0.2
G1 X309.722 Y726.458F6000
G1 X309.762 Y726.617
G1 X309.828 Y726.754
G1 X309.914 Y726.854
G1 X310.014 Y726.915
G1 X310.119 Y726.936
G1 X310.194 Y726.925
G1 X310.264 Y726.893
G1 X310.329 Y726.841
G1 X310.388 Y726.767
G1 X310.472 Y726.568
G1 X310.501 Y726.309
G1 X310.473 Y726.061
G1 X310.389 Y725.871
G1 X310.33 Y725.801
G1 X310.264 Y725.751
G1 X310.19 Y725.721
G1 X310.109 Y725.711
G1 X310.029 Y725.721
G1 X309.954 Y725.751
G1 X309.886 Y725.801
G1 X309.825 Y725.871
G1 X309.737 Y726.056
G1 X309.708 Y726.291
M67 E0 Q0
G0 X311.026 Y724.828 F1200
M67 E0 Q0.2
G1  Y724.511F6000
G1 X312.33
G1  Y724.768
G1 X312.138 Y725.085
G1 X311.949 Y725.493
G1 X311.781 Y725.951
G1 X311.657 Y726.423
G1 X311.596 Y726.776
G1 X311.562 Y727.161
G1 X311.308
G1 X311.333 Y726.811
G1 X311.401 Y726.395
G1 X311.51 Y725.955
G1 X311.657 Y725.53
G1 X311.83 Y725.146
G1 X312.012 Y724.828
G1 X311.026
M67 E0 Q0
G0 X307.64 Y733.344 F1200
M67 E0 Q0.2
G1  Y733.661F6000
G1 X306.31
G1 X306.315 Y733.544
G1 X306.338 Y733.432
G1 X306.405 Y733.252
G1 X306.501 Y733.075
G1 X306.638 Y732.885
G1 X306.825 Y732.668
G1 X306.975 Y732.498
G1 X307.1 Y732.347
G1 X307.197 Y732.214
G1 X307.268 Y732.1
G1 X307.355 Y731.896
G1 X307.383 Y731.703
G1 X307.357 Y731.523
G1 X307.278 Y731.373
G1 X307.157 Y731.272
G1 X307.004 Y731.238
G1 X306.92 Y731.247
G1 X306.844 Y731.274
G1 X306.777 Y731.319
G1 X306.719 Y731.381
G1 X306.638 Y731.551
G1 X306.61 Y731.777
G1 X306.356 Y731.742
G1 X306.378 Y731.564
G1 X306.418 Y731.408
G1 X306.477 Y731.275
G1 X306.553 Y731.164
G1 X306.645 Y731.077
G1 X306.752 Y731.015
G1 X306.874 Y730.978
G1 X307.01 Y730.966
G1 X307.147 Y730.979
G1 X307.27 Y731.019
G1 X307.377 Y731.086
G1 X307.469 Y731.18
G1 X307.543 Y731.293
G1 X307.595 Y731.42
G1 X307.627 Y731.559
G1 X307.638 Y731.711
G1 X307.625 Y731.871
G1 X307.588 Y732.028
G1 X307.522 Y732.187
G1 X307.424 Y732.355
G1 X307.271 Y732.559
G1 X307.043 Y732.828
G1 X306.86 Y733.037
G1 X306.799 Y733.111
G1 X306.757 Y733.166
G1 X306.7 Y733.255
G1 X306.653 Y733.344
G1 X307.64
M67 E0 Q0
G0 X307.916 Y732.958 F1200
M67 E0 Q0.2
G1 X308.176 Y732.928F6000
G1 X308.224 Y733.15
G1 X308.31 Y733.308
G1 X308.425 Y733.404
G1 X308.563 Y733.436
G1 X308.649 Y733.424
G1 X308.728 Y733.391
G1 X308.8 Y733.335
G1 X308.865 Y733.256
G1 X308.958 Y733.047
G1 X308.989 Y732.78
G1 X308.959 Y732.528
G1 X308.87 Y732.335
G1 X308.806 Y732.264
G1 X308.733 Y732.213
G1 X308.65 Y732.182
G1 X308.559 Y732.172
G1 X308.445 Y732.19
G1 X308.343 Y732.245
G1 X308.257 Y732.328
G1 X308.192 Y732.432
G1 X307.96 Y732.392
G1 X308.155 Y731.013
G1 X309.156
G1  Y731.328
G1 X308.353
G1 X308.244 Y732.049
G1 X308.336 Y731.976
G1 X308.43 Y731.923
G1 X308.526 Y731.892
G1 X308.625 Y731.881
G1 X308.751 Y731.896
G1 X308.868 Y731.942
G1 X308.974 Y732.018
G1 X309.07 Y732.125
G1 X309.149 Y732.255
G1 X309.206 Y732.403
G1 X309.24 Y732.568
G1 X309.251 Y732.751
G1 X309.241 Y732.927
G1 X309.211 Y733.09
G1 X309.161 Y733.242
G1 X309.092 Y733.381
G1 X308.986 Y733.523
G1 X308.863 Y733.625
G1 X308.722 Y733.686
G1 X308.563 Y733.707
G1 X308.432 Y733.694
G1 X308.314 Y733.655
G1 X308.208 Y733.591
G1 X308.115 Y733.502
G1 X308.037 Y733.391
G1 X307.978 Y733.263
G1 X307.938 Y733.119
G1 X307.916 Y732.958
M67 E0 Q0
G0 X309.493 Y732.952 F1200
M67 E0 Q0.2
G1 X309.74 Y732.908F6000
G1 X309.797 Y733.149
G1 X309.885 Y733.312
G1 X309.998 Y733.405
G1 X310.134 Y733.436
G1 X310.218 Y733.426
G1 X310.295 Y733.395
G1 X310.365 Y733.345
G1 X310.428 Y733.274
G1 X310.519 Y733.094
G1 X310.549 Y732.875
G1 X310.521 Y732.668
G1 X310.437 Y732.501
G1 X310.378 Y732.436
G1 X310.311 Y732.39
G1 X310.237 Y732.363
G1 X310.154 Y732.353
G1 X310.076 Y732.363
G1 X309.98 Y732.39
G1 X310.008 Y732.101
G1 X310.047 Y732.104
G1 X310.197 Y732.077
G1 X310.332 Y731.995
G1 X310.387 Y731.932
G1 X310.426 Y731.855
G1 X310.45 Y731.763
G1 X310.458 Y731.656
G1 X310.435 Y731.49
G1 X310.366 Y731.356
G1 X310.261 Y731.266
G1 X310.128 Y731.237
G1 X309.996 Y731.267
G1 X309.888 Y731.357
G1 X309.809 Y731.508
G1 X309.764 Y731.72
G1 X309.517 Y731.661
G1 X309.547 Y731.505
G1 X309.591 Y731.367
G1 X309.65 Y731.248
G1 X309.723 Y731.148
G1 X309.809 Y731.068
G1 X309.904 Y731.011
G1 X310.008 Y730.977
G1 X310.123 Y730.966
G1 X310.281 Y730.989
G1 X310.426 Y731.06
G1 X310.549 Y731.171
G1 X310.639 Y731.317
G1 X310.694 Y731.485
G1 X310.712 Y731.663
G1 X310.695 Y731.829
G1 X310.642 Y731.98
G1 X310.555 Y732.108
G1 X310.435 Y732.207
G1 X310.593 Y732.291
G1 X310.712 Y732.435
G1 X310.786 Y732.63
G1 X310.811 Y732.868
G1 X310.799 Y733.037
G1 X310.763 Y733.193
G1 X310.703 Y733.335
G1 X310.619 Y733.464
G1 X310.516 Y733.571
G1 X310.401 Y733.647
G1 X310.273 Y733.693
G1 X310.133 Y733.708
G1 X310.006 Y733.695
G1 X309.89 Y733.656
G1 X309.786 Y733.59
G1 X309.692 Y733.498
G1 X309.614 Y733.385
G1 X309.555 Y733.256
G1 X309.514 Y733.112
G1 X309.493 Y732.952
M67 E0 Q0
G0 X311.068 Y732.952 F1200
M67 E0 Q0.2
G1 X311.315 Y732.908F6000
G1 X311.372 Y733.149
G1 X311.46 Y733.312
G1 X311.573 Y733.405
G1 X311.709 Y733.436
G1 X311.793 Y733.426
G1 X311.87 Y733.395
G1 X311.94 Y733.345
G1 X312.003 Y733.274
G1 X312.094 Y733.094
G1 X312.124 Y732.875
G1 X312.096 Y732.668
G1 X312.012 Y732.501
G1 X311.953 Y732.436
G1 X311.886 Y732.39
G1 X311.811 Y732.363
G1 X311.729 Y732.353
G1 X311.651 Y732.363
G1 X311.555 Y732.39
G1 X311.583 Y732.101
G1 X311.622 Y732.104
G1 X311.772 Y732.077
G1 X311.907 Y731.995
G1 X311.962 Y731.932
G1 X312.001 Y731.855
G1 X312.025 Y731.763
G1 X312.033 Y731.656
G1 X312.01 Y731.49
G1 X311.941 Y731.356
G1 X311.836 Y731.266
G1 X311.703 Y731.237
G1 X311.571 Y731.267
G1 X311.463 Y731.357
G1 X311.384 Y731.508
G1 X311.339 Y731.72
G1 X311.092 Y731.661
G1 X311.122 Y731.505
G1 X311.166 Y731.367
G1 X311.225 Y731.248
G1 X311.298 Y731.148
G1 X311.383 Y731.068
G1 X311.479 Y731.011
G1 X311.583 Y730.977
G1 X311.698 Y730.966
G1 X311.856 Y730.989
G1 X312.001 Y731.06
G1 X312.124 Y731.171
G1 X312.214 Y731.317
G1 X312.269 Y731.485
G1 X312.287 Y731.663
G1 X312.27 Y731.829
G1 X312.217 Y731.98
G1 X312.13 Y732.108
G1 X312.01 Y732.207
G1 X312.168 Y732.291
G1 X312.287 Y732.435
G1 X312.361 Y732.63
G1 X312.386 Y732.868
G1 X312.374 Y733.037
G1 X312.338 Y733.193
G1 X312.278 Y733.335
G1 X312.194 Y733.464
G1 X312.091 Y733.571
G1 X311.976 Y733.647
G1 X311.848 Y733.693
G1 X311.707 Y733.708
G1 X311.581 Y733.695
G1 X311.465 Y733.656
G1 X311.361 Y733.59
G1 X311.267 Y733.498
G1 X311.189 Y733.385
G1 X311.13 Y733.256
G1 X311.089 Y733.112
G1 X311.068 Y732.952
M67 E0 Q0
G0 X309.199 Y738.134 F1200
M67 E0 Q0.2
G1 X308.953 Y738.159F6000
G1 X308.913 Y737.992
G1 X308.86 Y737.878
G1 X308.748 Y737.772
G1 X308.612 Y737.737
G1 X308.502 Y737.758
G1 X308.405 Y737.824
G1 X308.301 Y737.964
G1 X308.221 Y738.156
G1 X308.17 Y738.42
G1 X308.151 Y738.777
G1 X308.25 Y738.619
G1 X308.369 Y738.507
G1 X308.502 Y738.441
G1 X308.64 Y738.419
G1 X308.759 Y738.435
G1 X308.869 Y738.48
G1 X308.969 Y738.556
G1 X309.061 Y738.662
G1 X309.137 Y738.792
G1 X309.191 Y738.94
G1 X309.224 Y739.106
G1 X309.235 Y739.289
G1 X309.214 Y739.533
G1 X309.153 Y739.759
G1 X309.056 Y739.951
G1 X308.928 Y740.091
G1 X308.776 Y740.178
G1 X308.604 Y740.207
G1 X308.457 Y740.188
G1 X308.324 Y740.131
G1 X308.205 Y740.036
G1 X308.1 Y739.904
G1 X308.015 Y739.728
G1 X307.954 Y739.502
G1 X307.917 Y739.228
G1 X307.905 Y738.905
G1 X307.919 Y738.542
G1 X307.959 Y738.233
G1 X308.026 Y737.976
G1 X308.121 Y737.773
G1 X308.223 Y737.639
G1 X308.342 Y737.542
G1 X308.476 Y737.485
G1 X308.628 Y737.466
G1 X308.741 Y737.477
G1 X308.844 Y737.51
G1 X308.936 Y737.565
G1 X309.017 Y737.643
G1 X309.085 Y737.74
G1 X309.138 Y737.855
G1 X309.176 Y737.986
G1 X309.199 Y738.134
M67 E0 Q0
G0 X308.189 Y739.291 F1200
M67 E0 Q0.2
G1 X308.203 Y739.458F6000
G1 X308.244 Y739.617
G1 X308.309 Y739.754
G1 X308.395 Y739.854
G1 X308.495 Y739.915
G1 X308.6 Y739.936
G1 X308.676 Y739.925
G1 X308.746 Y739.893
G1 X308.81 Y739.841
G1 X308.869 Y739.767
G1 X308.954 Y739.568
G1 X308.982 Y739.309
G1 X308.954 Y739.061
G1 X308.871 Y738.871
G1 X308.811 Y738.801
G1 X308.745 Y738.751
G1 X308.671 Y738.721
G1 X308.59 Y738.711
G1 X308.51 Y738.721
G1 X308.436 Y738.751
G1 X308.368 Y738.801
G1 X308.306 Y738.871
G1 X308.219 Y739.056
G1 X308.189 Y739.291
M67 E0 Q0
G0 X309.491 Y738.837 F1200
M67 E0 Q0.2
G1 X309.51 Y738.407F6000
G1 X309.565 Y738.071
G1 X309.656 Y737.814
G1 X309.783 Y737.623
G1 X309.86 Y737.554
G1 X309.947 Y737.505
G1 X310.042 Y737.475
G1 X310.148 Y737.466
G1 X310.3 Y737.487
G1 X310.432 Y737.552
G1 X310.543 Y737.659
G1 X310.634 Y737.803
G1 X310.705 Y737.985
G1 X310.759 Y738.203
G1 X310.793 Y738.479
G1 X310.804 Y738.837
G1 X310.786 Y739.264
G1 X310.731 Y739.6
G1 X310.64 Y739.857
G1 X310.514 Y740.048
G1 X310.436 Y740.118
G1 X310.35 Y740.167
G1 X310.253 Y740.197
G1 X310.148 Y740.207
G1 X310.01 Y740.189
G1 X309.888 Y740.137
G1 X309.781 Y740.05
G1 X309.69 Y739.928
G1 X309.603 Y739.734
G1 X309.541 Y739.488
G1 X309.504 Y739.189
G1 X309.491 Y738.837
M67 E0 Q0
G0 X309.745 Y738.837 F1200
M67 E0 Q0.2
G1 X309.753 Y739.14F6000
G1 X309.774 Y739.387
G1 X309.81 Y739.58
G1 X309.861 Y739.717
G1 X309.923 Y739.813
G1 X309.991 Y739.881
G1 X310.066 Y739.922
G1 X310.148 Y739.936
G1 X310.229 Y739.922
G1 X310.304 Y739.881
G1 X310.373 Y739.812
G1 X310.434 Y739.716
G1 X310.485 Y739.579
G1 X310.521 Y739.386
G1 X310.543 Y739.139
G1 X310.55 Y738.837
G1 X310.543 Y738.533
G1 X310.521 Y738.285
G1 X310.485 Y738.093
G1 X310.434 Y737.956
G1 X310.372 Y737.861
G1 X310.304 Y737.793
G1 X310.228 Y737.752
G1 X310.145 Y737.738
G1 X310.064 Y737.75
G1 X309.992 Y737.786
G1 X309.928 Y737.847
G1 X309.873 Y737.931
G1 X309.817 Y738.079
G1 X309.777 Y738.28
G1 X309.753 Y738.532
G1 X309.745 Y738.837
M67 E0 Q0
G0 X311.066 Y738.837 F1200
M67 E0 Q0.2
G1 X311.071 Y738.611F6000
G1 X311.085 Y738.407
G1 X311.108 Y738.227
G1 X311.14 Y738.071
G1 X311.231 Y737.814
G1 X311.358 Y737.623
G1 X311.435 Y737.554
G1 X311.522 Y737.505
G1 X311.617 Y737.475
G1 X311.723 Y737.466
G1 X311.875 Y737.487
G1 X312.007 Y737.552
G1 X312.118 Y737.659
G1 X312.209 Y737.803
G1 X312.28 Y737.985
G1 X312.334 Y738.203
G1 X312.368 Y738.479
G1 X312.379 Y738.837
G1 X312.361 Y739.264
G1 X312.306 Y739.6
G1 X312.215 Y739.857
G1 X312.089 Y740.048
G1 X312.011 Y740.118
G1 X311.925 Y740.167
G1 X311.828 Y740.197
G1 X311.723 Y740.207
G1 X311.585 Y740.189
G1 X311.463 Y740.137
G1 X311.356 Y740.05
G1 X311.265 Y739.928
G1 X311.178 Y739.734
G1 X311.116 Y739.488
G1 X311.079 Y739.189
G1 X311.066 Y738.837
M67 E0 Q0
G0 X311.32 Y738.837 F1200
M67 E0 Q0.2
G1 X311.327 Y739.14F6000
G1 X311.349 Y739.387
G1 X311.385 Y739.58
G1 X311.436 Y739.717
G1 X311.498 Y739.813
G1 X311.566 Y739.881
G1 X311.641 Y739.922
G1 X311.723 Y739.936
G1 X311.804 Y739.922
G1 X311.879 Y739.881
G1 X311.948 Y739.812
G1 X312.009 Y739.716
G1 X312.06 Y739.579
G1 X312.096 Y739.386
G1 X312.118 Y739.139
G1 X312.125 Y738.837
G1 X312.118 Y738.533
G1 X312.096 Y738.285
G1 X312.06 Y738.093
G1 X312.009 Y737.956
G1 X311.947 Y737.861
G1 X311.879 Y737.793
G1 X311.803 Y737.752
G1 X311.72 Y737.738
G1 X311.639 Y737.75
G1 X311.567 Y737.786
G1 X311.503 Y737.847
G1 X311.448 Y737.931
G1 X311.392 Y738.079
G1 X311.352 Y738.28
G1 X311.328 Y738.532
G1 X311.32 Y738.837
M67 E0 Q0
G0 X376.706 Y747.344 F1200
M67 E0 Q0.2
G1  Y747.591F6000
G1 X374.605
G1 X374.719 Y747.695
G1 X374.833 Y747.826
G1 X374.932 Y747.963
G1 X375.003 Y748.086
G1 X374.684
G1 X374.54 Y747.891
G1 X374.369 Y747.723
G1 X374.187 Y747.591
G1 X374.01 Y747.504
G1  Y747.344
G1 X376.706
M67 E0 Q0
G0 X375.382 Y746.7 F1200
M67 E0 Q0.2
G1 X374.952 Y746.682F6000
G1 X374.616 Y746.627
G1 X374.358 Y746.536
G1 X374.168 Y746.409
G1 X374.099 Y746.331
G1 X374.05 Y746.245
G1 X374.02 Y746.149
G1 X374.01 Y746.044
G1 X374.032 Y745.892
G1 X374.097 Y745.76
G1 X374.204 Y745.648
G1 X374.348 Y745.558
G1 X374.53 Y745.487
G1 X374.747 Y745.433
G1 X375.024 Y745.399
G1 X375.382 Y745.387
G1 X375.809 Y745.406
G1 X376.144 Y745.46
G1 X376.402 Y745.551
G1 X376.593 Y745.678
G1 X376.662 Y745.755
G1 X376.712 Y745.842
G1 X376.742 Y745.938
G1 X376.751 Y746.044
G1 X376.734 Y746.182
G1 X376.682 Y746.304
G1 X376.595 Y746.41
G1 X376.473 Y746.501
G1 X376.279 Y746.588
G1 X376.033 Y746.651
G1 X375.734 Y746.688
G1 X375.382 Y746.7
M67 E0 Q0
G0 X375.382 Y746.446 F1200
M67 E0 Q0.2
G1 X375.685 Y746.439F6000
G1 X375.932 Y746.417
G1 X376.125 Y746.381
G1 X376.262 Y746.33
G1 X376.357 Y746.269
G1 X376.426 Y746.201
G1 X376.467 Y746.126
G1 X376.48 Y746.044
G1 X376.467 Y745.962
G1 X376.426 Y745.887
G1 X376.357 Y745.819
G1 X376.261 Y745.758
G1 X376.123 Y745.707
G1 X375.931 Y745.671
G1 X375.684 Y745.649
G1 X375.382 Y745.642
G1 X375.078 Y745.649
G1 X374.83 Y745.671
G1 X374.638 Y745.707
G1 X374.501 Y745.758
G1 X374.406 Y745.819
G1 X374.338 Y745.888
G1 X374.297 Y745.964
G1 X374.283 Y746.047
G1 X374.295 Y746.127
G1 X374.331 Y746.2
G1 X374.391 Y746.263
G1 X374.475 Y746.319
G1 X374.624 Y746.374
G1 X374.825 Y746.414
G1 X375.077 Y746.438
G1 X375.382 Y746.446
M67 E0 Q0
G0 X375.382 Y745.125 F1200
M67 E0 Q0.2
G1 X374.952 Y745.107F6000
G1 X374.616 Y745.052
G1 X374.358 Y744.961
G1 X374.168 Y744.833
G1 X374.099 Y744.756
G1 X374.05 Y744.67
G1 X374.02 Y744.574
G1 X374.01 Y744.469
G1 X374.032 Y744.317
G1 X374.097 Y744.185
G1 X374.204 Y744.073
G1 X374.348 Y743.983
G1 X374.53 Y743.912
G1 X374.747 Y743.858
G1 X375.024 Y743.824
G1 X375.382 Y743.813
G1 X375.809 Y743.831
G1 X376.144 Y743.885
G1 X376.402 Y743.976
G1 X376.593 Y744.103
G1 X376.662 Y744.18
G1 X376.712 Y744.267
G1 X376.742 Y744.363
G1 X376.751 Y744.469
G1 X376.734 Y744.607
G1 X376.682 Y744.729
G1 X376.595 Y744.835
G1 X376.473 Y744.926
G1 X376.279 Y745.013
G1 X376.033 Y745.076
G1 X375.734 Y745.113
G1 X375.382 Y745.125
M67 E0 Q0
G0 X375.382 Y744.871 F1200
M67 E0 Q0.2
G1 X375.685 Y744.864F6000
G1 X375.932 Y744.842
G1 X376.125 Y744.806
G1 X376.262 Y744.755
G1 X376.357 Y744.694
G1 X376.426 Y744.626
G1 X376.467 Y744.551
G1 X376.48 Y744.469
G1 X376.467 Y744.387
G1 X376.426 Y744.312
G1 X376.357 Y744.244
G1 X376.261 Y744.183
G1 X376.123 Y744.132
G1 X375.931 Y744.096
G1 X375.684 Y744.074
G1 X375.382 Y744.067
G1 X375.078 Y744.074
G1 X374.83 Y744.096
G1 X374.638 Y744.132
G1 X374.501 Y744.183
G1 X374.406 Y744.244
G1 X374.338 Y744.313
G1 X374.297 Y744.389
G1 X374.283 Y744.472
G1 X374.295 Y744.552
G1 X374.331 Y744.625
G1 X374.391 Y744.688
G1 X374.475 Y744.744
G1 X374.624 Y744.799
G1 X374.825 Y744.839
G1 X375.077 Y744.863
G1 X375.382 Y744.871
M67 E0 Q0
G0 X376.706 Y743.412 F1200
M67 E0 Q0.2
G1 X376.33F6000
G1  Y743.13
G1 X376.706
G1  Y743.412
M67 E0 Q0
G0 X375.382 Y742.763 F1200
M67 E0 Q0.2
G1 X374.952 Y742.745F6000
G1 X374.616 Y742.689
G1 X374.358 Y742.598
G1 X374.168 Y742.471
G1 X374.099 Y742.394
G1 X374.05 Y742.307
G1 X374.02 Y742.212
G1 X374.01 Y742.106
G1 X374.032 Y741.954
G1 X374.097 Y741.822
G1 X374.204 Y741.711
G1 X374.348 Y741.62
G1 X374.53 Y741.549
G1 X374.747 Y741.495
G1 X375.024 Y741.461
G1 X375.382 Y741.45
G1 X375.809 Y741.468
G1 X376.144 Y741.523
G1 X376.402 Y741.614
G1 X376.593 Y741.74
G1 X376.662 Y741.818
G1 X376.712 Y741.904
G1 X376.742 Y742.001
G1 X376.751 Y742.106
G1 X376.734 Y742.244
G1 X376.682 Y742.366
G1 X376.595 Y742.473
G1 X376.473 Y742.564
G1 X376.279 Y742.651
G1 X376.033 Y742.713
G1 X375.734 Y742.75
G1 X375.382 Y742.763
M67 E0 Q0
G0 X375.382 Y742.509 F1200
M67 E0 Q0.2
G1 X375.685 Y742.502F6000
G1 X375.932 Y742.48
G1 X376.125 Y742.443
G1 X376.262 Y742.393
G1 X376.357 Y742.331
G1 X376.426 Y742.263
G1 X376.467 Y742.188
G1 X376.48 Y742.106
G1 X376.467 Y742.025
G1 X376.426 Y741.95
G1 X376.357 Y741.881
G1 X376.261 Y741.82
G1 X376.123 Y741.769
G1 X375.931 Y741.733
G1 X375.684 Y741.711
G1 X375.382 Y741.704
G1 X375.078 Y741.711
G1 X374.83 Y741.733
G1 X374.638 Y741.769
G1 X374.501 Y741.82
G1 X374.406 Y741.882
G1 X374.338 Y741.95
G1 X374.297 Y742.026
G1 X374.283 Y742.109
G1 X374.295 Y742.19
G1 X374.331 Y742.262
G1 X374.391 Y742.326
G1 X374.475 Y742.381
G1 X374.624 Y742.437
G1 X374.825 Y742.477
G1 X375.077 Y742.501
G1 X375.382 Y742.509
M67 E0 Q0
G0 X369.585 Y746.832 F1200
M67 E0 Q0.2
G1 X369.556 Y746.594F6000
G1 X369.748 Y746.55
G1 X369.88 Y746.479
G1 X369.955 Y746.382
G1 X369.98 Y746.261
G1 X369.963 Y746.154
G1 X369.911 Y746.061
G1 X369.83 Y745.983
G1 X369.725 Y745.92
G1 X369.588 Y745.87
G1 X369.411 Y745.828
G1 X369.211 Y745.8
G1 X369.008 Y745.791
G1 X368.942
G1 X369.085 Y745.88
G1 X369.198 Y745.995
G1 X369.271 Y746.129
G1 X369.296 Y746.273
G1 X369.281 Y746.393
G1 X369.235 Y746.504
G1 X369.16 Y746.605
G1 X369.054 Y746.696
G1 X368.923 Y746.772
G1 X368.774 Y746.826
G1 X368.605 Y746.858
G1 X368.417 Y746.869
G1 X368.223 Y746.858
G1 X368.048 Y746.824
G1 X367.894 Y746.767
G1 X367.759 Y746.689
G1 X367.65 Y746.593
G1 X367.573 Y746.485
G1 X367.526 Y746.366
G1 X367.51 Y746.236
G1 X367.546 Y746.048
G1 X367.651 Y745.877
G1 X367.822 Y745.734
G1 X368.053 Y745.63
G1 X368.198 Y745.593
G1 X368.373 Y745.566
G1 X368.576 Y745.551
G1 X368.809 Y745.545
G1 X369.053 Y745.55
G1 X369.271 Y745.566
G1 X369.462 Y745.592
G1 X369.628 Y745.629
G1 X369.896 Y745.733
G1 X370.092 Y745.878
G1 X370.162 Y745.965
G1 X370.212 Y746.058
G1 X370.242 Y746.159
G1 X370.251 Y746.266
G1 X370.241 Y746.379
G1 X370.208 Y746.481
G1 X370.153 Y746.572
G1 X370.077 Y746.652
G1 X369.98 Y746.719
G1 X369.866 Y746.772
G1 X369.734 Y746.809
G1 X369.585 Y746.832
M67 E0 Q0
G0 X368.4 Y745.82 F1200
M67 E0 Q0.2
G1 X368.146 Y745.848F6000
G1 X367.95 Y745.933
G1 X367.877 Y745.993
G1 X367.825 Y746.058
G1 X367.794 Y746.129
G1 X367.783 Y746.206
G1 X367.794 Y746.286
G1 X367.828 Y746.36
G1 X367.884 Y746.429
G1 X367.963 Y746.493
G1 X368.169 Y746.584
G1 X368.428 Y746.615
G1 X368.66 Y746.586
G1 X368.844 Y746.499
G1 X368.914 Y746.438
G1 X368.964 Y746.369
G1 X368.994 Y746.294
G1 X369.005 Y746.213
G1 X368.994 Y746.131
G1 X368.964 Y746.056
G1 X368.914 Y745.99
G1 X368.844 Y745.93
G1 X368.653 Y745.848
G1 X368.4 Y745.82
M67 E0 Q0
G0 X368.882 Y745.294 F1200
M67 E0 Q0.2
G1 X368.452 Y745.276F6000
G1 X368.116 Y745.221
G1 X367.858 Y745.129
G1 X367.668 Y745.002
G1 X367.599 Y744.925
G1 X367.55 Y744.839
G1 X367.52 Y744.743
G1 X367.51 Y744.638
G1 X367.532 Y744.486
G1 X367.597 Y744.353
G1 X367.704 Y744.242
G1 X367.848 Y744.152
G1 X368.03 Y744.08
G1 X368.247 Y744.027
G1 X368.524 Y743.993
G1 X368.882 Y743.981
G1 X369.309 Y743.999
G1 X369.644 Y744.054
G1 X369.902 Y744.145
G1 X370.093 Y744.272
G1 X370.162 Y744.349
G1 X370.212 Y744.436
G1 X370.242 Y744.532
G1 X370.251 Y744.638
G1 X370.234 Y744.776
G1 X370.182 Y744.898
G1 X370.095 Y745.004
G1 X369.973 Y745.095
G1 X369.779 Y745.182
G1 X369.533 Y745.244
G1 X369.234 Y745.282
G1 X368.882 Y745.294
M67 E0 Q0
G0 X368.882 Y745.04 F1200
M67 E0 Q0.2
G1 X369.185 Y745.033F6000
G1 X369.432 Y745.011
G1 X369.625 Y744.975
G1 X369.762 Y744.924
G1 X369.857 Y744.863
G1 X369.926 Y744.794
G1 X369.967 Y744.719
G1 X369.98 Y744.638
G1 X369.967 Y744.556
G1 X369.926 Y744.481
G1 X369.857 Y744.413
G1 X369.761 Y744.351
G1 X369.623 Y744.301
G1 X369.431 Y744.264
G1 X369.184 Y744.243
G1 X368.882 Y744.235
G1 X368.578 Y744.243
G1 X368.33 Y744.264
G1 X368.138 Y744.301
G1 X368.001 Y744.351
G1 X367.906 Y744.413
G1 X367.838 Y744.482
G1 X367.797 Y744.557
G1 X367.783 Y744.64
G1 X367.795 Y744.721
G1 X367.831 Y744.794
G1 X367.891 Y744.857
G1 X367.975 Y744.912
G1 X368.124 Y744.968
G1 X368.325 Y745.008
G1 X368.577 Y745.032
G1 X368.882 Y745.04
M67 E0 Q0
G0 X370.206 Y743.58 F1200
M67 E0 Q0.2
G1 X369.83F6000
G1  Y743.299
G1 X370.206
G1  Y743.58
M67 E0 Q0
G0 X368.882 Y742.932 F1200
M67 E0 Q0.2
G1 X368.452 Y742.913F6000
G1 X368.116 Y742.858
G1 X367.858 Y742.767
G1 X367.668 Y742.64
G1 X367.599 Y742.563
G1 X367.55 Y742.476
G1 X367.52 Y742.38
G1 X367.51 Y742.275
G1 X367.532 Y742.123
G1 X367.597 Y741.991
G1 X367.704 Y741.879
G1 X367.848 Y741.789
G1 X368.03 Y741.718
G1 X368.247 Y741.664
G1 X368.524 Y741.63
G1 X368.882 Y741.619
G1 X369.309 Y741.637
G1 X369.644 Y741.692
G1 X369.902 Y741.782
G1 X370.093 Y741.909
G1 X370.162 Y741.986
G1 X370.212 Y742.073
G1 X370.242 Y742.169
G1 X370.251 Y742.275
G1 X370.234 Y742.413
G1 X370.182 Y742.535
G1 X370.095 Y742.642
G1 X369.973 Y742.732
G1 X369.779 Y742.82
G1 X369.533 Y742.882
G1 X369.234 Y742.919
G1 X368.882 Y742.932
M67 E0 Q0
G0 X368.882 Y742.678 F1200
M67 E0 Q0.2
G1 X369.185 Y742.67F6000
G1 X369.432 Y742.649
G1 X369.625 Y742.612
G1 X369.762 Y742.562
G1 X369.857 Y742.5
G1 X369.926 Y742.432
G1 X369.967 Y742.357
G1 X369.98 Y742.275
G1 X369.967 Y742.193
G1 X369.926 Y742.118
G1 X369.857 Y742.05
G1 X369.761 Y741.989
G1 X369.623 Y741.938
G1 X369.431 Y741.902
G1 X369.184 Y741.88
G1 X368.882 Y741.873
G1 X368.578 Y741.88
G1 X368.33 Y741.902
G1 X368.138 Y741.938
G1 X368.001 Y741.989
G1 X367.906 Y742.05
G1 X367.838 Y742.119
G1 X367.797 Y742.195
G1 X367.783 Y742.278
G1 X367.795 Y742.359
G1 X367.831 Y742.431
G1 X367.891 Y742.495
G1 X367.975 Y742.55
G1 X368.124 Y742.606
G1 X368.325 Y742.646
G1 X368.577 Y742.67
G1 X368.882 Y742.678
M67 E0 Q0
G0 X362.25 Y746.489 F1200
M67 E0 Q0.2
G1 X362.159 Y746.623F6000
G1 X362.036 Y746.717
G1 X361.883 Y746.772
G1 X361.703 Y746.791
G1 X361.562 Y746.781
G1 X361.433 Y746.751
G1 X361.316 Y746.702
G1 X361.21 Y746.633
G1 X361.123 Y746.547
G1 X361.06 Y746.449
G1 X361.023 Y746.337
G1 X361.01 Y746.213
G1 X361.023 Y746.087
G1 X361.061 Y745.975
G1 X361.125 Y745.875
G1 X361.215 Y745.788
G1 X361.322 Y745.718
G1 X361.441 Y745.668
G1 X361.571 Y745.638
G1 X361.712 Y745.628
G1 X361.886 Y745.646
G1 X362.037 Y745.701
G1 X362.159 Y745.794
G1 X362.25 Y745.924
G1 X362.355 Y745.761
G1 X362.51 Y745.642
G1 X362.707 Y745.569
G1 X362.938 Y745.545
G1 X363.104 Y745.557
G1 X363.255 Y745.591
G1 X363.393 Y745.648
G1 X363.517 Y745.728
G1 X363.62 Y745.827
G1 X363.693 Y745.939
G1 X363.737 Y746.067
G1 X363.751 Y746.209
G1 X363.737 Y746.35
G1 X363.693 Y746.478
G1 X363.619 Y746.591
G1 X363.516 Y746.689
G1 X363.391 Y746.769
G1 X363.252 Y746.826
G1 X363.098 Y746.86
G1 X362.929 Y746.872
G1 X362.689 Y746.847
G1 X362.491 Y746.772
G1 X362.342 Y746.652
G1 X362.25 Y746.489
M67 E0 Q0
G0 X361.692 Y746.538 F1200
M67 E0 Q0.2
G1 X361.865 Y746.515F6000
G1 X362.003 Y746.446
G1 X362.093 Y746.34
G1 X362.124 Y746.207
G1 X362.094 Y746.077
G1 X362.004 Y745.973
G1 X361.87 Y745.905
G1 X361.71 Y745.882
G1 X361.543 Y745.905
G1 X361.405 Y745.976
G1 X361.312 Y746.081
G1 X361.281 Y746.21
G1 X361.312 Y746.339
G1 X361.402 Y746.445
G1 X361.535 Y746.515
G1 X361.692 Y746.538
M67 E0 Q0
G0 X362.931 Y746.618 F1200
M67 E0 Q0.2
G1 X363.07 Y746.605F6000
G1 X363.204 Y746.568
G1 X363.321 Y746.505
G1 X363.408 Y746.419
G1 X363.462 Y746.316
G1 X363.48 Y746.206
G1 X363.471 Y746.121
G1 X363.442 Y746.044
