; LightBurn 1.7.03
; LinuxCNC device profile, absolute coords
; Bounds: X85.74 Y49.27 to X125.1 Y67.46
G21
G90
; Cut @ 1000.002 mm/min, 20% power
M8
M67 E0 Q0
G0 X88.925 Y51.439 F1200
; Layer C00
M67 E0 Q0.2
G1 X88.656 Y51.659F1000
G1 X88.435 Y51.918
G1 X88.266 Y52.207
G1 X88.149 Y52.518
G1 X88.088 Y52.846
G1 X88.084 Y53.181
G1 X88.139 Y53.516
G1 X88.255 Y53.843
G1 X88.493 Y54.218
G1 X88.802 Y54.528
G1 X89.17 Y54.765
G1 X89.586 Y54.918
G1 X90.121 Y55.052
G1 X90.661 Y55.164
G1 X91.205 Y55.256
G1 X91.752 Y55.326
G1 X92.294 Y55.419
G1 X92.922 Y55.535
G1 X93.543 Y55.682
G1 X94.157 Y55.86
G1 X94.761 Y56.068
G1 X94.775 Y55.547
G1 X94.765 Y55.026
G1 X94.731 Y54.505
G1 X94.672 Y53.987
G1 X94.583 Y53.568
G1 X94.442 Y53.169
G1 X94.254 Y52.794
G1 X94.021 Y52.446
G1 X93.746 Y52.13
G1 X93.433 Y51.851
G1 X93.084 Y51.611
G1 X92.703 Y51.416
G1 X92.146 Y51.203
G1 X91.57 Y51.061
G1 X90.981 Y50.993
G1 X90.385 Y51
G1 X90 Y51.034
G1 X89.625 Y51.119
G1 X89.265 Y51.255
G1 X88.925 Y51.439
M67 E0 Q0
G0 X86.609 Y50.597 F1200
M67 E0 Q0.2
G1 X86.855 Y50.348F1000
G1 X87.123 Y50.123
G1 X87.41 Y49.924
G1 X87.713 Y49.753
G1 X88.032 Y49.611
G1 X88.365 Y49.498
G1 X88.708 Y49.416
G1 X89.229 Y49.328
G1 X89.754 Y49.279
G1 X90.281 Y49.268
G1 X90.808 Y49.296
G1 X91.424 Y49.376
G1 X91.865 Y49.475
G1 X92.297 Y49.602
G1 X92.719 Y49.756
G1 X93.131 Y49.937
G1 X93.53 Y50.143
G1 X93.915 Y50.375
G1 X94.286 Y50.631
G1 X94.64 Y50.911
G1 X94.944 Y51.161
G1 X95.008 Y50.718
G1 X95.071 Y50.419
G1 X95.154 Y50.127
G1 X95.259 Y49.84
G1 X95.383 Y49.562
G1 X97.678
G1 X97.404 Y50.149
G1 X97.204 Y50.763
G1 X97.082 Y51.397
G1 X97.037 Y52.044
G1 X96.992 Y53.519
G1 X96.983 Y54.994
G1  Y57.924
G1 X96.986 Y58.432
G1 X96.969 Y58.939
G1 X96.931 Y59.446
G1 X96.873 Y59.95
G1 X96.759 Y60.401
G1 X96.583 Y60.829
G1 X96.349 Y61.227
G1 X96.058 Y61.59
G1 X95.556 Y61.98
G1 X95.006 Y62.292
G1 X94.417 Y62.522
G1 X93.797 Y62.667
G1 X93.241 Y62.75
G1 X92.682 Y62.802
G1 X92.122 Y62.824
G1 X91.561 Y62.814
G1 X91.003 Y62.774
G1 X90.446 Y62.703
G1 X89.894 Y62.601
G1 X89.347 Y62.468
G1 X88.769 Y62.272
G1 X88.224 Y62.003
G1 X87.718 Y61.664
G1 X87.26 Y61.261
G1 X86.898 Y60.789
G1 X86.599 Y60.278
G1 X86.364 Y59.734
G1 X86.197 Y59.164
G1 X86.118 Y58.827
G1 X88.267 Y58.534
G1 X88.361 Y58.866
G1 X88.496 Y59.263
G1 X88.679 Y59.639
G1 X88.908 Y59.989
G1 X89.181 Y60.308
G1 X89.498 Y60.541
G1 X89.844 Y60.723
G1 X90.213 Y60.851
G1 X90.6 Y60.924
G1 X91.227 Y60.995
G1 X91.857 Y61
G1 X92.485 Y60.939
G1 X93.104 Y60.814
G1 X93.437 Y60.702
G1 X93.75 Y60.544
G1 X94.038 Y60.345
G1 X94.297 Y60.106
G1 X94.464 Y59.85
G1 X94.593 Y59.576
G1 X94.684 Y59.286
G1 X94.734 Y58.985
G1 X94.773 Y58.388
G1 X94.761 Y57.79
G1 X93.954 Y57.564
G1 X93.139 Y57.376
G1 X92.316 Y57.226
G1 X91.486 Y57.114
G1 X90.002 Y56.927
G1 X89.482 Y56.833
G1 X88.968 Y56.713
G1 X88.461 Y56.566
G1 X87.964 Y56.367
G1 X87.497 Y56.109
G1 X87.065 Y55.795
G1 X86.673 Y55.429
G1 X86.473 Y55.184
G1 X86.296 Y54.926
G1 X86.143 Y54.656
G1 X86.015 Y54.378
G1 X85.83 Y53.798
G1 X85.743 Y53.2
G1 X85.754 Y52.595
G1 X85.864 Y51.997
G1 X85.957 Y51.704
G1 X86.074 Y51.418
G1 X86.217 Y51.139
G1 X86.385 Y50.871
G1 X86.609 Y50.597
M67 E0 Q0
G0 X102.779 Y53.551 F1200
M67 E0 Q0.2
G1 X102.645 Y54.133F1000
G1 X102.526 Y55.037
G1 X102.484 Y55.947
G1 X102.52 Y56.856
G1 X102.634 Y57.761
G1 X102.762 Y58.301
G1 X102.957 Y58.818
G1 X103.216 Y59.307
G1 X103.536 Y59.761
G1 X103.907 Y60.162
G1 X104.336 Y60.496
G1 X104.814 Y60.755
G1 X105.331 Y60.934
G1 X105.722 Y61
G1 X106.114 Y61.014
G1 X106.502 Y60.978
G1 X106.88 Y60.892
G1 X107.243 Y60.759
G1 X107.589 Y60.579
G1 X107.91 Y60.355
G1 X108.203 Y60.087
G1 X108.549 Y59.686
G1 X108.835 Y59.244
G1 X109.059 Y58.768
G1 X109.217 Y58.263
G1 X109.33 Y57.72
G1 X109.41 Y57.174
G1 X109.458 Y56.624
G1 X109.473 Y56.073
G1 X109.455 Y55.522
G1 X109.405 Y54.973
G1 X109.322 Y54.427
G1 X109.207 Y53.885
G1 X109.101 Y53.535
G1 X108.965 Y53.199
G1 X108.8 Y52.878
G1 X108.606 Y52.574
G1 X108.386 Y52.289
G1 X108.14 Y52.024
G1 X107.87 Y51.782
G1 X107.577 Y51.564
G1 X107.095 Y51.308
G1 X106.579 Y51.144
G1 X106.043 Y51.074
G1 X105.498 Y51.102
G1 X104.989 Y51.212
G1 X104.51 Y51.407
G1 X104.072 Y51.681
G1 X103.686 Y52.03
G1 X103.304 Y52.49
G1 X103 Y53
G1 X102.779 Y53.551
M67 E0 Q0
G0 X102.511 Y51.186 F1200
M67 E0 Q0.2
G1 X102.678 Y50.954F1000
G1 X102.999 Y50.566
G1 X103.361 Y50.225
G1 X103.759 Y49.931
G1 X104.187 Y49.688
G1 X104.642 Y49.498
G1 X105.117 Y49.363
G1 X105.609 Y49.286
G1 X106.112 Y49.269
G1 X106.678 Y49.297
G1 X107.224 Y49.383
G1 X107.89 Y49.577
G1 X108.521 Y49.858
G1 X109.109 Y50.221
G1 X109.645 Y50.662
G1 X109.985 Y51.003
G1 X110.295 Y51.368
G1 X110.575 Y51.755
G1 X110.824 Y52.162
G1 X111.04 Y52.587
G1 X111.223 Y53.029
G1 X111.371 Y53.484
G1 X111.483 Y53.953
G1 X111.583 Y54.486
G1 X111.655 Y55.022
G1 X111.699 Y55.56
G1 X111.715 Y56.1
G1 X111.702 Y56.64
G1 X111.661 Y57.179
G1 X111.592 Y57.716
G1 X111.495 Y58.249
G1 X111.337 Y58.845
G1 X111.129 Y59.425
G1 X110.873 Y59.985
G1 X110.57 Y60.523
G1 X110.328 Y60.874
G1 X110.058 Y61.2
G1 X109.761 Y61.5
G1 X109.439 Y61.772
G1 X109.094 Y62.014
G1 X108.729 Y62.225
G1 X108.345 Y62.403
G1 X107.944 Y62.548
G1 X107.268 Y62.724
G1 X106.577 Y62.81
G1 X105.882 Y62.805
G1 X105.19 Y62.71
G1 X104.586 Y62.526
G1 X104.018 Y62.256
G1 X103.497 Y61.907
G1 X103.029 Y61.482
G1 X102.67 Y61.073
G1  Y67.458
G1 X100.472
G1  Y49.562
G1 X102.511
G1  Y51.186
M67 E0 Q0
G0 X114.217 Y53.125 F1200
M67 E0 Q0.2
G1 X114.355 Y52.727F1000
G1 X114.52 Y52.345
G1 X114.713 Y51.98
G1 X114.932 Y51.633
G1 X115.175 Y51.305
G1 X115.442 Y50.998
G1 X115.729 Y50.713
G1 X116.037 Y50.45
G1 X116.364 Y50.211
G1 X116.708 Y49.997
G1 X117.069 Y49.809
G1 X117.443 Y49.648
G1 X117.831 Y49.515
G1 X118.231 Y49.411
G1 X118.641 Y49.338
G1 X119.06 Y49.296
G1 X119.645 Y49.269
G1 X120.23 Y49.289
G1 X120.73 Y49.348
G1 X121.093 Y49.418
G1 X121.448 Y49.513
G1 X121.792 Y49.632
G1 X122.125 Y49.775
G1 X122.445 Y49.94
G1 X122.752 Y50.126
G1 X123.045 Y50.333
G1 X123.322 Y50.56
G1 X123.582 Y50.805
G1 X123.825 Y51.069
G1 X124.05 Y51.349
G1 X124.255 Y51.645
G1 X124.439 Y51.957
G1 X124.602 Y52.283
G1 X124.742 Y52.622
G1 X124.859 Y52.974
G1 X125.001 Y53.497
G1 X125.105 Y54.03
G1 X122.944 Y54.311
G1 X122.876 Y53.912
G1 X122.761 Y53.417
G1 X122.584 Y52.943
G1 X122.346 Y52.495
G1 X122.052 Y52.081
G1 X121.814 Y51.845
G1 X121.554 Y51.639
G1 X121.275 Y51.462
G1 X120.979 Y51.317
G1 X120.67 Y51.205
G1 X120.349 Y51.127
G1 X120.02 Y51.083
G1 X119.685 Y51.076
G1 X119.147 Y51.107
G1 X118.631 Y51.222
G1 X118.145 Y51.415
G1 X117.698 Y51.68
G1 X117.298 Y52.012
G1 X116.953 Y52.405
G1 X116.672 Y52.852
G1 X116.463 Y53.349
G1 X116.28 Y54.011
G1 X116.153 Y54.686
G1 X116.084 Y55.369
G1 X116.071 Y56.056
G1 X116.081 Y56.619
G1 X116.127 Y57.18
G1 X116.21 Y57.736
G1 X116.331 Y58.286
G1 X116.491 Y58.793
G1 X116.722 Y59.27
G1 X117.019 Y59.708
G1 X117.378 Y60.101
G1 X117.663 Y60.336
G1 X117.969 Y60.538
G1 X118.293 Y60.705
G1 X118.631 Y60.838
G1 X118.982 Y60.935
G1 X119.341 Y60.996
G1 X119.707 Y61.018
G1 X120.076 Y61.002
G1 X120.467 Y60.947
G1 X120.84 Y60.84
G1 X121.192 Y60.683
G1 X121.517 Y60.48
G1 X121.812 Y60.235
G1 X122.072 Y59.95
G1 X122.291 Y59.63
G1 X122.466 Y59.276
G1 X122.635 Y58.839
G1 X122.761 Y58.388
G1 X124.897 Y58.717
G1 X124.741 Y59.379
G1 X124.502 Y60.012
G1 X124.183 Y60.608
G1 X123.787 Y61.161
G1 X123.524 Y61.44
G1 X123.24 Y61.695
G1 X122.937 Y61.925
G1 X122.617 Y62.129
G1 X122.281 Y62.307
G1 X121.932 Y62.456
G1 X121.57 Y62.577
G1 X121.197 Y62.669
G1 X120.664 Y62.764
G1 X120.127 Y62.816
G1 X119.59 Y62.823
G1 X119.055 Y62.788
G1 X118.524 Y62.709
G1 X118.001 Y62.587
G1 X117.487 Y62.423
G1 X116.986 Y62.216
G1 X116.532 Y61.978
G1 X116.108 Y61.696
G1 X115.716 Y61.375
G1 X115.36 Y61.016
G1 X115.043 Y60.623
G1 X114.766 Y60.198
G1 X114.533 Y59.746
G1 X114.346 Y59.268
G1 X114.123 Y58.516
G1 X113.959 Y57.753
G1 X113.855 Y56.982
G1 X113.809 Y56.206
G1 X113.822 Y55.429
G1 X113.895 Y54.655
G1 X114.026 Y53.885
G1 X114.217 Y53.125
M9
M67 E0 Q0
G90
