(Filename: 51 Meander Ave.ngc)
(Post processor: LinuxCNC plasma.scpost)
(Date: 26/11/2014)
G21 (Units: Metric)
G40 G90
F1 S1
G64 P0.01 q00.01
(Part: 51 Meander Ave)
(Operation: Outside Offset, LAYER_1, T210: Stainless 2.0mm)
G00
X21.000 Y20.000
M01
M03
G04 P0.6
G01 F5000
S1 (On start)
X18.000
G03 X18.919 Y18.317 I2.000 J0.000
S100 (On start)
X18.245 Y20.959 I1.081 J1.683
S1 (Before end)
X18.000 Y20.000 I1.755 J-0.959
X19.505 Y18.994 I1.255 J0.250
M05
G04 P0.5
G00
X21.000 Y230.000
M01
M03
G04 P0.6
G01
S1 (On start)
X18.000
G03 X18.919 Y228.317 I2.000 J0.000
S100 (On start)
X18.245 Y230.959 I1.081 J1.683
S1 (Before end)
X18.000 Y230.000 I1.755 J-0.959
X19.505 Y228.994 I1.255 J0.250
M05
G04 P0.5
G00
X88.440 Y62.115
M01
M03
G04 P0.6
G01
S1 (On start)
X91.436 Y62.265
X91.422 Y62.560
X91.421 Y62.598
X91.466 Y64.264
S100 (On start)
X91.496 Y65.373
G02 X87.568 Y64.929 I-3.860 J16.550
G03 X83.176 Y64.726 I-0.188 J-43.694
G01 X83.152 Y64.725
G03 X69.798 Y58.354 I0.924 J-19.120
X67.906 Y47.253 I7.767 J-7.035
G01 X67.925 Y47.201
G03 X70.623 Y45.396 I2.433 J0.718
X71.456 Y47.283 I-0.518 J1.356
X70.718 Y48.506 I-4.457 J-1.855
G02 X68.831 Y52.481 I5.988 J5.278
G01 X68.825 Y52.549
G02 X70.393 Y57.430 I7.704 J0.217
G01 X70.409 Y57.450
G02 X84.472 Y63.735 I13.571 J-11.489
G01 X85.397 Y63.750
G02 X85.903 Y63.215 I0.008 J-0.500
X82.375 Y43.677 I-91.079 J6.360
X74.981 Y29.581 I-31.278 J7.420
X68.323 Y27.415 I-5.090 J4.327
G01 X66.976 Y27.718
X66.368 Y27.825
X66.294 Y27.844
G03 X63.517 Y26.647 I-0.727 J-2.133
X65.036 Y24.330 I1.839 J-0.451
G01 X65.052 Y24.327
G03 X71.499 Y25.190 I1.985 J9.681
X79.957 Y33.942 I-8.837 J17.004
X86.975 Y60.482 I-66.734 J31.844
G02 X87.973 Y60.483 I0.499 J-0.036
G01 X90.489 Y26.171
X92.588 Y29.855
X93.960 Y32.305
X95.301 Y34.652
G02 X110.230 Y56.813 I153.771 J-87.480
G01 X110.242 Y56.827
X110.957 Y57.667
G02 X111.791 Y57.130 I0.381 J-0.324
G01 X111.641 Y56.810
G03 X110.848 Y54.751 I20.747 J-9.169
X108.981 Y48.152 I76.529 J-25.211
G02 X103.008 Y26.233 I-229.215 J50.688
G01 X103.002 Y26.214
X102.882 Y25.888
G02 X107.812 Y26.233 I3.440 J-13.762
G01 X108.772 Y26.150
X108.784 Y26.149
X111.012 Y25.901
X112.070 Y25.807
G03 X114.174 Y25.752 I1.448 J15.099
G01 X114.763 Y25.807
X115.453 Y25.898
X115.916 Y25.974
X116.109 Y26.833
G02 X108.352 Y27.188 I-3.075 J17.743
X107.994 Y27.781 I0.130 J0.483
G01 X109.311 Y33.614
X109.707 Y35.263
G02 X116.995 Y62.713 I516.498 J-122.433
X118.292 Y66.667 I111.252 J-34.310
G03 X112.104 Y61.118 I17.790 J-26.063
X94.385 Y35.756 I107.519 J-93.988
G02 X93.448 Y35.958 I-0.438 J0.240
G01 X91.520 Y61.252
S1 (Before end)
X91.511 Y61.374
X91.438 Y62.249
G03 X90.056 Y63.418 I-1.276 J-0.106
M05
G04 P0.5
G00
X140.932 Y49.469
M01
M03
G04 P0.6
G01
S1 (On start)
X137.990 Y48.881
G02 X137.921 Y46.900 I-4.221 J-0.844
S100 (On start)
X137.414 Y45.747 I-4.152 J1.137
G01 X137.401 Y45.727
G02 X130.820 Y40.155 I-13.777 J9.599
G01 X130.312 Y39.886
Y38.969
X130.857 Y39.221
X132.775 Y40.133
G03 X135.754 Y41.701 I-13.202 J28.708
G01 X135.792 Y41.721
G03 X141.380 Y47.176 I-5.375 J11.095
G01 X141.392 Y47.197
G03 X140.384 Y52.862 I-3.858 J2.235
X132.972 Y52.506 I-3.359 J-7.417
X125.812 Y44.921 I8.894 J-15.567
G01 X125.802 Y44.900
X125.310 Y44.015
X125.305 Y44.006
G03 X122.358 Y28.834 I20.318 J-11.819
X127.409 Y25.619 I3.991 J0.695
G01 X127.434 Y25.625
G03 X138.083 Y31.378 I-4.566 J21.183
G01 X138.103 Y31.396
X139.093 Y32.273
X139.772 Y32.904
X139.242 Y33.611
G02 X135.104 Y30.761 I-37.305 J49.726
G01 X135.094 Y30.755
X134.385 Y30.330
X134.370 Y30.321
X133.735 Y29.969
G02 X129.347 Y28.874 I-3.889 J6.248
G01 X129.306 Y28.878
G02 X126.503 Y32.498 I0.499 J3.281
X127.169 Y39.255 I23.029 J1.143
X129.496 Y47.115 I33.513 J-5.648
X134.431 Y51.770 I6.792 J-2.257
G01 X134.503 Y51.783
G02 X136.150 Y51.550 I0.377 J-3.264
G01 X136.182 Y51.535
X136.419 Y51.415
X136.513 Y51.354
G02 X137.682 Y49.830 I-2.744 J-3.317
S1 (Before end)
X137.990 Y48.881 I-3.914 J-1.793
G03 X139.496 Y47.876 I1.255 J0.251
M05
G04 P0.5
G00
X162.579 Y28.807
M01
M03
G04 P0.6
G01
S1 (On start)
X159.701 Y29.654
X159.145 Y27.766
X159.137 Y27.735
S100 (On start)
X159.033 Y27.370
X158.956 Y27.034
X158.912 Y26.755
X158.897 Y26.506
X158.896 Y26.494
G03 X160.041 Y25.459 I0.965 J-0.083
G01 X160.092 Y25.466
G03 X166.660 Y28.210 I-0.951 J11.504
G01 X166.675 Y28.223
G03 X169.479 Y30.614 I-31.238 J39.475
G01 X170.859 Y31.861
X170.435 Y32.379
G02 X167.305 Y29.946 I-15.567 J16.794
X165.088 Y28.870 I-4.226 J5.891
G01 X165.067 Y28.865
G02 X163.485 Y30.123 I-0.300 J1.247
G01 X163.473 Y30.348
Y30.408
X163.519 Y31.084
X163.523 Y31.119
X163.660 Y32.112
X163.663 Y32.131
G02 X167.062 Y46.734 I139.313 J-24.730
G01 X169.328 Y54.376
X168.157 Y54.128
X167.468 Y53.008
G02 X166.985 Y52.774 I-0.426 J0.262
G03 X159.914 Y52.325 I-2.286 J-19.911
X150.163 Y44.827 I6.700 J-18.803
G01 X150.141 Y44.797
G03 X144.818 Y30.784 I19.017 J-15.241
G01 Y30.772
G03 X147.196 Y25.798 I5.539 J-0.407
X152.553 Y26.748 I1.752 J5.694
G01 X152.597 Y26.778
G03 X157.284 Y30.305 I-14.850 J24.617
G01 X157.416 Y31.520
G02 X153.474 Y29.095 I-7.595 J7.927
X149.049 Y31.660 I-1.222 J2.991
G01 X149.048 Y31.677
G02 X153.947 Y47.512 I21.230 J2.107
G01 X153.974 Y47.542
G02 X163.859 Y49.941 I6.891 J-6.825
X164.188 Y49.337 I-0.154 J-0.476
G01 X161.418 Y38.924
X161.415 Y38.912
X161.083 Y37.781
G02 X160.494 Y32.365 I-53.775 J3.113
G01 X160.480 Y32.303
X159.983 Y30.613
S1 (Before end)
X159.701 Y29.654
G03 X160.568 Y28.065 I1.228 J-0.361
M05
G04 P0.5
G00
X168.494 Y99.765
M01
M03
G04 P0.6
G01
S1 (On start)
X168.373 Y102.762
G02 X166.376 Y102.687 I-1.748 J19.916
S100 (On start)
X155.278 Y106.218 I0.250 J19.991
G01 X151.602 Y108.607
X150.943 Y109.022
X150.891 Y109.058
G03 X143.816 Y109.497 I-3.842 J-4.684
X142.791 Y100.062 I4.410 J-5.253
X149.261 Y96.195 I9.117 J7.909
G01 X149.271 Y96.193
G03 X173.450 Y96.333 I11.810 J47.963
X201.947 Y113.761 I-16.087 J58.317
G01 X201.966 Y113.781
G03 X218.532 Y147.063 I-39.431 J40.391
X216.104 Y169.019 I-45.955 J6.030
X207.036 Y181.455 I-27.797 J-10.746
X193.975 Y188.602 I-35.066 J-48.575
G02 X191.051 Y189.901 I13.198 J33.625
X185.933 Y195.596 I2.998 J7.841
G01 X185.922 Y195.653
G02 X185.927 Y197.463 I6.169 J0.888
G01 X186.003 Y197.986
X186.010 Y198.026
G02 X189.692 Y209.243 I62.266 J-14.224
X190.085 Y209.540 I0.459 J-0.199
G01 X191.172 Y209.684
X191.182 Y209.685
X192.386 Y209.820
X192.401 Y209.822
G02 X218.721 Y210.731 I23.088 J-287.046
G01 X218.731
G03 X229.640 Y211.168 I2.443 J75.283
X234.660 Y213.963 I-0.705 J7.174
G01 X241.983 Y229.227
X237.086
G02 X231.164 Y224.474 I-11.023 J7.667
G01 X231.104 Y224.453
G02 X221.124 Y223.163 I-9.787 J36.457
G01 X197.963 Y222.730
G03 X187.201 Y220.262 I1.410 J-30.853
G01 X179.904 Y197.515
G03 X176.569 Y185.347 I104.354 J-35.143
G01 X176.564 Y185.325
G03 X177.582 Y179.270 I7.230 J-1.897
X183.595 Y175.409 I10.622 J9.927
G01 X183.618 Y175.400
G02 X197.336 Y166.493 I-14.503 J-37.354
X205.991 Y137.057 I-23.308 J-22.843
X193.068 Y113.933 I-41.773 J8.172
X169.372 Y102.816 I-26.143 J24.913
S1 (Before end)
X168.373 Y102.762 I-2.447 J36.029
G03 X167.429 Y101.218 I0.300 J-1.244
M05
G04 P0.5
G00
X198.601 Y48.329
M01
M03
G04 P0.6
G01
S1 (On start)
X195.610 Y48.559
X195.593 Y48.329
X195.586 Y48.279
X195.444 Y47.491
X195.439 Y47.467
X195.238 Y46.597
S100 (On start)
X195.156 Y46.240
X195.152 Y46.227
X194.461 Y43.566
X194.453 Y43.539
G03 X191.466 Y33.077 I159.380 J-51.157
G01 X191.456 Y33.041
G03 X190.938 Y27.228 I12.073 J-4.006
G01 X191.026 Y26.908
G03 X194.036 Y25.691 I1.992 J0.599
G01 X194.066 Y25.707
G03 X202.156 Y31.810 I-10.725 J22.631
G01 X201.846 Y32.256
X201.535 Y32.010
X200.078 Y30.784
X198.848 Y29.696
X198.833 Y29.682
X198.367 Y29.303
X198.350 Y29.289
X197.924 Y28.972
G02 X196.214 Y28.158 I-2.637 J3.337
G01 X196.134 Y28.147
G02 X194.722 Y29.726 I-0.079 J1.349
G01 X194.712 Y29.988
X194.713 Y30.036
G02 X195.563 Y34.729 I19.618 J-1.132
G01 X195.927 Y36.065
X196.361 Y37.561
X197.886 Y42.521
G03 X199.649 Y48.620 I-133.054 J41.767
X199.929 Y50.597 I-10.452 J2.490
X199.767 Y52.091 I-4.745 J0.240
X198.550 Y53.433 I-1.904 J-0.504
X195.603 Y53.088 I-1.012 J-4.103
X185.009 Y44.982 I17.081 J-33.302
G02 X184.152 Y45.428 I-0.370 J0.337
G01 X185.655 Y52.141
X185.727 Y52.491
X185.780 Y52.633
G03 X185.439 Y53.504 I-0.531 J0.294
X183.005 Y53.305 I-0.890 J-4.089
G01 X182.983 Y53.297
G03 X176.957 Y49.649 I5.386 J-15.697
G01 X176.941 Y49.634
X176.012 Y48.829
X175.032 Y47.942
X174.364 Y47.314
X174.777 Y46.888
G02 X178.361 Y49.930 I15.676 J-14.842
X180.101 Y50.725 I2.465 J-3.093
G01 X180.154 Y50.732
G02 X181.228 Y50.072 I0.082 J-1.070
G01 X181.240 Y50.040
X181.292 Y49.885
X181.311 Y49.810
X181.343 Y49.627
X181.349 Y49.569
G02 X181.177 Y48.101 I-4.392 J-0.229
G01 X178.210 Y35.416
G02 X176.447 Y28.285 I-182.534 J41.344
G01 X175.941 Y26.436
X179.862
X182.475 Y37.710
G02 X183.505 Y41.186 I24.539 J-5.379
G01 X183.519 Y41.220
G02 X191.197 Y49.279 I15.726 J-7.295
X193.602 Y50.118 I3.220 J-5.364
X195.312 Y49.530 I0.437 J-1.511
S1 (Before end)
X195.612 Y48.594 I-1.273 J-0.924
G03 X196.882 Y47.304 I1.280 J-0.010
M05
G04 P0.5
G00
X242.547 Y71.510
M01
M03
G04 P0.6
G01
S1 (On start)
X241.727 Y68.625
G03 X243.610 Y69.018 I0.566 J1.992
S100 (On start)
X244.333 Y70.264 I-1.317 J1.598
X242.245 Y72.418 I-2.032 J0.120
X226.940 Y60.387 I0.473 J-16.351
G01 X226.933 Y60.362
X226.561 Y59.238
X226.187 Y58.009
X225.808 Y56.668
X225.424 Y55.216
X225.035 Y53.651
G02 X224.449 Y53.281 I-0.485 J0.121
G03 X221.979 Y53.494 I-2.145 J-10.434
X212.553 Y48.062 I2.471 J-15.181
G01 X212.541 Y48.048
G03 X205.105 Y32.164 I23.424 J-20.649
X205.098 Y29.978 I13.344 J-1.135
G01 X205.099 Y29.911
G03 X207.805 Y25.542 I4.471 J-0.253
X214.265 Y27.496 I0.900 J8.677
G01 X214.289 Y27.515
G03 X217.195 Y29.940 I-16.927 J23.246
G01 X217.291 Y31.171
G02 X213.261 Y29.031 I-6.285 J6.976
G01 X213.186 Y29.019
G02 X209.156 Y32.497 I-0.338 J3.683
G01 X209.114 Y32.881
X209.112 Y32.956
G02 X214.504 Y48.465 I28.404 J-1.184
G01 X214.525 Y48.492
G02 X222.743 Y50.845 I5.840 J-4.866
G01 X223.953 Y50.588
G02 X224.336 Y49.987 I-0.104 J-0.489
G01 X222.801 Y43.270
G02 X221.135 Y37.027 I-76.039 J16.948
G01 X220.709 Y32.239
X220.692 Y32.147
X219.367 Y27.477
X219.255 Y26.978
X219.252 Y26.966
G03 X219.180 Y26.280 I2.418 J-0.602
X220.998 Y25.396 I1.330 J0.423
G01 X221.070 Y25.417
G03 X224.240 Y26.606 I-2.302 J10.953
G01 X225.531 Y27.343
G03 X231.181 Y31.652 I-35.665 J52.621
G01 X230.824 Y32.138
X229.727 Y31.299
G02 X227.109 Y29.444 I-22.723 J29.294
X225.926 Y28.874 I-2.706 J4.106
X224.969 Y28.746 I-0.804 J2.366
G01 X224.886 Y28.758
G02 X223.673 Y30.957 I0.385 J1.647
X224.494 Y35.368 I35.530 J-4.337
G01 X230.077 Y59.154
G02 X231.493 Y64.648 I106.815 J-24.591
X232.851 Y67.735 I10.640 J-2.840
G01 X232.873 Y67.766
G02 X237.176 Y69.198 I3.188 J-2.400
G01 X240.641 Y68.745
S1 (Before end)
X240.958 Y68.703
X241.636 Y68.642
G03 X243.027 Y69.800 I0.116 J1.275
M05
G04 P0.5
G00
X254.108 Y50.485
M01
M03
G04 P0.6
G01
S1 (On start)
X251.284 Y49.474
G02 X251.504 Y47.504 I-4.054 J-1.451
S100 (On start)
X250.700 Y45.474 I-4.274 J0.518
X243.542 Y39.754 I-14.556 J10.877
G01 X243.407 Y38.807
X244.248 Y39.195
X244.265 Y39.203
G03 X250.887 Y42.803 I-14.231 J34.065
G01 X250.923 Y42.825
G03 X255.339 Y49.171 I-4.396 J7.769
G01 X255.341 Y49.181
G03 X251.574 Y53.553 I-3.647 J0.666
G01 X251.528 Y53.554
G03 X249.798 Y53.505 I-0.590 J-9.829
X241.008 Y47.650 I2.011 J-12.544
G01 X240.989 Y47.621
G03 X239.245 Y44.897 I23.836 J-17.180
G01 X239.238 Y44.885
G03 X235.501 Y31.377 I22.202 J-13.412
G01 X235.498 Y31.323
G03 X237.430 Y26.236 I6.021 J-0.624
X242.738 Y26.013 I2.885 J5.400
G01 X242.760 Y26.022
G03 X253.233 Y32.883 I-9.953 J26.616
G01 X252.686 Y33.613
G02 X248.558 Y30.766 I-40.357 J54.120
X244.556 Y28.970 I-7.009 J10.260
X240.050 Y31.721 I-1.200 J3.100
X240.202 Y37.054 I16.776 J2.192
X240.687 Y39.668 I6.200 J0.201
X242.452 Y45.927 I33.380 J-6.035
X244.213 Y49.316 I12.687 J-4.442
X249.519 Y51.575 I4.175 J-2.445
G01 X249.627 Y51.535
X249.864 Y51.415
X249.955 Y51.356
G02 X250.841 Y50.368 I-2.725 J-3.333
S1 (Before end)
X251.284 Y49.474 I-3.611 J-2.345
G03 X252.920 Y48.700 I1.205 J0.431
M05
G04 P0.5
G00
X262.460 Y29.378
M01
M03
G04 P0.6
G01
S1 (On start)
X261.875 Y26.436
X263.875
S100 (On start)
X264.304
X266.084 Y34.076
X266.737 Y36.727
G02 X270.177 Y44.585 I17.454 J-2.960
X278.918 Y51.156 I12.780 J-7.902
G01 X279.953 Y51.552
X279.985 Y51.563
G03 X281.587 Y52.600 I-1.020 J3.331
G01 X281.670 Y52.732
G03 X280.944 Y54.959 I-1.440 J0.762
X277.720 Y54.147 I-1.017 J-2.770
G01 X277.669 Y54.098
G03 X269.405 Y44.489 I26.073 J-30.781
G02 X268.494 Y44.869 I-0.426 J0.262
G01 X269.944 Y50.868
X270.270 Y52.368
X270.347 Y52.826

X270.369 Y53.069
G03 X269.663 Y53.580 I-0.594 J-0.076
G01 X269.577 Y53.572
G03 X268.502 Y53.424 I0.064 J-4.445
X258.958 Y47.198 I6.704 J-20.706
G01 X259.346 Y46.761
G02 X262.456 Y49.593 I29.834 J-29.636
X264.723 Y50.585 I2.670 J-3.018
G01 X264.821
G02 X265.772 Y49.778 I-0.105 J-1.088
G01 X265.778 Y49.753
X265.813 Y49.590
X265.823 Y49.517
X265.834 Y49.329
Y49.262
X265.815 Y49.009
X265.810 Y48.966
X265.659 Y48.048
X265.655 Y48.026
G02 X262.548 Y34.788 I-275.227 J57.620
G01 X260.375 Y26.436
X260.875
S1 (Before end)
X261.875
G03 X263.155 Y27.716 I0.000 J1.280
M05
G04 P0.5
G00
X271.074 Y124.670
M01
M03
G04 P0.6
G01
S1 (On start)
X268.172 Y125.429
G02 X267.647 Y123.500 I-104.113 J27.300
S100 (On start)
X264.337 Y113.625 I-103.588 J29.229
G01 X264.331 Y113.611
X263.872 Y112.532
G02 X259.180 Y105.772 I-14.357 J4.957
G01 X259.137 Y105.740
G02 X251.437 Y102.723 I-10.970 J16.661
G03 X237.972 Y99.585 I48.808 J-239.959
G01 X236.486 Y95.214
G02 X267.399 Y97.538 I29.059 J-179.824
G01 X267.416 Y97.537
G02 X297.037 Y95.128 I-18.076 J-405.498
G01 X298.833 Y99.618
G03 X291.168 Y100.687 I-17.572 J-98.050
G02 X283.612 Y101.808 I3.355 J48.625
X279.360 Y105.495 I0.491 J4.861
G01 X279.348 Y105.565
G02 X279.385 Y107.180 I6.453 J0.658
X279.787 Y109.659 I27.363 J-3.162
G01 X280.046 Y110.880
X280.365 Y112.249
X280.741 Y113.754
X281.172 Y115.389
X293.653 Y169.632
X293.656 Y169.644
X308.475 Y227.494
X305.777
X304.221 Y226.129
X302.537 Y224.688
G02 X290.848 Y215.889 I-72.624 J84.314
G01 X290.830 Y215.878
X289.618 Y215.153
X288.228 Y214.353
X288.218 Y214.348
G02 X258.691 Y199.477 I-244.299 J448.323
G01 X260.487 Y194.987
G02 X272.167 Y200.056 I230.909 J-515.990
X280.335 Y203.151 I38.465 J-89.201
G01 X280.356 Y203.157
X280.649 Y203.239
G02 X285.410 Y200.972 I1.425 J-3.141
X285.598 Y198.639 I-6.709 J-1.713
G01 X285.530 Y197.955
X285.528 Y197.939
G02 X284.514 Y191.906 I-85.454 J11.265
X282.383 Y181.562 I-464.964 J90.419
G01 X281.217 Y176.214
X279.871 Y170.169
X279.867 Y170.152
X268.425 Y126.397
S1 (Before end)
X268.172 Y125.429
G03 X269.087 Y123.867 I1.238 J-0.324
M05
G04 P0.5
G00
X323.197 Y48.318
M01
M03
G04 P0.6
G01
S1 (On start)
X326.170 Y47.916
X326.438 Y49.898
S100 (On start)
X327.928 Y60.920
G02 X329.041 Y66.767 I72.168 J-10.702
X326.677 Y65.760 I-4.294 J6.802
G01 X326.653 Y65.754
G02 X323.737 Y65.353 I-5.023 J25.702
G01 X319.857 Y65.016
X318.102 Y64.830
G03 X310.565 Y62.527 I1.970 J-19.936
G01 X310.556 Y62.523
G03 X305.633 Y52.527 I4.266 J-8.311
G01 X305.785 Y52.192
G03 X306.243 Y51.644 I1.674 J0.936
G01 X306.411 Y51.525
X306.588 Y51.429
G03 X307.537 Y51.274 I0.772 J1.750
X308.819 Y52.748 I-0.148 J1.423
X308.592 Y53.693 I-4.317 J-0.537
G01 X308.395 Y54.245
G02 X307.947 Y56.637 I4.223 J2.030
G01 X307.953 Y56.687
G02 X314.192 Y62.987 I7.697 J-1.383
X316.348 Y63.420 I4.942 J-19.025
X324.251 Y64.316 I17.125 J-115.819
X324.673 Y63.495 I0.039 J-0.498
G03 X310.137 Y43.622 I139.041 J-116.949
G02 X304.890 Y35.737 I-306.270 J198.117
X295.882 Y24.369 I-68.427 J44.971
X289.511 Y21.784 I-5.580 J4.608
G01 X289.471 Y21.790
X288.720 Y21.936
X288.706 Y21.939
X287.796 Y22.142
X287.423 Y22.213
X287.329 Y22.241
G03 X285.317 Y21.273 I-0.568 J-1.392
X286.905 Y18.900 I1.864 J-0.470
G01 X286.939 Y18.894
X287.285 Y18.819
X287.645 Y18.768
X288.027 Y18.737
G03 X296.140 Y22.343 I-0.264 J11.525
G01 X296.156 Y22.359
X296.697 Y22.881
X297.265 Y23.468
G03 X308.019 Y38.081 I-86.685 J75.058
G01 X308.030 Y38.099
X308.056 Y38.137
X308.461 Y38.356
X313.908 Y38.453
X317.948 Y38.484
X318.187 Y39.869
X317.970 Y39.862
X317.958
G02 X310.201 Y39.912 I-1.905 J304.400
X309.796 Y40.692 I0.010 J0.500
G01 X318.400 Y53.442
X318.409 Y53.455
X320.217 Y55.961
X323.643 Y60.545
G02 X324.530 Y60.131 I0.401 J-0.299
G03 X322.137 Y46.713 I116.930 J-27.777
G01 X321.736 Y43.665
X321.037 Y37.937
G02 X318.515 Y26.140 I-41.941 J2.799
X322.610 Y26.415 I3.714 J-24.705
G01 X322.644 Y26.413
X324.630 Y26.246
X324.665 Y26.242
G03 X330.827 Y25.972 I4.300 J27.666
G01 X330.970 Y26.785
G02 X324.165 Y27.259 I-2.364 J15.117
X323.813 Y27.792 I0.145 J0.478
G01 X325.318 Y41.610
X325.319 Y41.622
X326.036 Y46.925
S1 (Before end)
X326.170 Y47.916
G03 X325.073 Y49.356 I-1.268 J0.171
M05
G04 P0.5
G00
X336.955 Y46.949
M01
M03
G04 P0.6
G01
S1 (On start)
X337.975 Y44.128
G03 X338.550 Y45.350 I-0.325 J0.900
G01 X338.539 Y45.386
X338.451 Y45.703
X338.404 Y45.828
S100 (On start)
X338.135 Y46.531
G02 X339.759 Y50.200 I2.260 J1.194
X348.569 Y51.634 I7.674 J-19.370
X348.834 Y50.729 I-0.027 J-0.499
G03 X342.516 Y36.820 I8.979 J-12.468
G01 X342.622 Y35.825
X342.770 Y34.700
G03 X344.112 Y27.274 I122.232 J18.250
G01 X344.114 Y27.262
X344.581 Y24.759
X344.583 Y24.747
X344.623 Y24.504
G03 X358.316 Y35.314 I-17.734 J36.540
G01 X358.336 Y35.337
G03 X364.336 Y51.847 I-16.639 J15.393
X363.839 Y53.320 I-3.415 J-0.333
X362.802 Y54.013 I-1.332 J-0.870
X362.201 Y54.010 I-0.292 J-1.691
X360.997 Y52.025 I0.445 J-1.628
X361.538 Y50.537 I6.571 J1.547
G02 X362.540 Y47.644 I-7.830 J-4.334
G01 X362.547 Y47.549
G02 X359.774 Y39.194 I-15.240 J0.420
X348.826 Y27.961 I-34.259 J22.438
X348.051 Y28.273 I-0.285 J0.411
G01 X347.754 Y29.750
X347.495 Y31.131
X347.276 Y32.413
X347.097 Y33.590
G02 X349.671 Y48.135 I21.493 J3.696
G01 X350.187 Y49.081
X350.194 Y49.093
X350.762 Y50.073
X350.768 Y50.084
X351.386 Y51.095
X351.616 Y51.294
X351.863 Y51.399
X351.977 Y51.432
G03 X353.317 Y52.891 I-0.264 J1.588
X352.187 Y53.528 I-0.918 J-0.308
G01 X351.944 Y53.461
G03 X349.952 Y52.683 I5.721 J-17.582
G01 X349.717 Y52.638
G03 X340.278 Y51.463 I-1.404 J-27.226
G01 X340.238 Y51.452
G03 X335.994 Y45.716 I1.165 J-5.300
G01 X335.995 Y45.687
G03 X336.999 Y44.206 I1.649 J0.037
S1 (Before end)
X337.790 Y44.081 I0.645 J1.518
G01 X337.975 Y44.128
G03 X337.360 Y45.830 I-1.159 J0.543
M05
G04 P0.5
G00
X385.309 Y50.485
M01
M03
G04 P0.6
G01
S1 (On start)
X382.485 Y49.474
G02 X382.706 Y47.504 I-4.054 J-1.451
S100 (On start)
X381.901 Y45.473 I-4.275 J0.518
X374.548 Y39.648 I-14.755 J11.072
G01 Y38.779
X375.406 Y39.175
X375.423 Y39.182
G03 X382.088 Y42.803 I-14.296 J34.261
G01 X382.124 Y42.825
G03 X386.540 Y49.171 I-4.396 J7.769
G01 X386.542 Y49.181
G03 X382.776 Y53.553 I-3.647 J0.666
G01 X382.729 Y53.554
G03 X380.999 Y53.505 I-0.590 J-9.829
X372.209 Y47.650 I2.011 J-12.544
G01 X372.190 Y47.621
G03 X370.446 Y44.897 I23.836 J-17.180
G01 X370.439 Y44.885
G03 X366.702 Y31.377 I22.202 J-13.412
G01 X366.700 Y31.323
G03 X368.631 Y26.236 I6.021 J-0.624
X373.939 Y26.013 I2.885 J5.400
G01 X373.962 Y26.022
G03 X384.434 Y32.883 I-9.953 J26.616
G01 X383.887 Y33.613
G02 X379.759 Y30.766 I-40.357 J54.120
X375.758 Y28.970 I-7.009 J10.260
X371.251 Y31.721 I-1.200 J3.100
X371.403 Y37.053 I16.776 J2.192
X371.866 Y39.545 I5.779 J0.216
X373.647 Y45.912 I33.408 J-5.917
X375.414 Y49.316 I12.715 J-4.440
X380.720 Y51.575 I4.175 J-2.445
G01 X380.829 Y51.535
X381.066 Y51.415
X381.157 Y51.356
G02 X382.042 Y50.368 I-2.726 J-3.333
S1 (Before end)
X382.485 Y49.474 I-3.611 J-2.345
G03 X384.121 Y48.700 I1.205 J0.431
M05
G04 P0.5
G00
X431.000 Y20.000
M01
M03
G04 P0.6
G01
S1 (On start)
X428.000
G03 X428.919 Y18.317 I2.000 J0.000
S100 (On start)
X428.245 Y20.959 I1.081 J1.683
S1 (Before end)
X428.000 Y20.000 I1.755 J-0.959
X429.505 Y18.994 I1.255 J0.250
M05
G04 P0.5
G00
X431.000 Y230.000
M01
M03
G04 P0.6
G01
S1 (On start)
X428.000
G03 X428.919 Y228.317 I2.000 J0.000
S100 (On start)
X428.245 Y230.959 I1.081 J1.683
S1 (Before end)
X428.000 Y230.000 I1.755 J-0.959
X429.505 Y228.994 I1.255 J0.250
M05
G04 P0.5
G00
X453.500 Y250.000
M01
M03
G04 P0.6
G01
S1 (On start)
X450.500
Y248.000
S100 (On start)
Y0.000
G02 X450.000 Y-0.500 I-0.500 J0.000
G01 X0.000
G02 X-0.500 Y0.000 I0.000 J0.500
G01 Y250.000
G02 X0.000 Y250.500 I0.500 J0.000
G01 X449.000
S1 (Before end)
X450.000
G03 X451.280 Y251.780 I0.000 J1.280
M05
G04 P0.5
G00
M05 G28 M30
